src/nazca/luts/cool-matte.cube
# nazca bundled look — CC0
TITLE "cool-matte"
LUT_3D_SIZE 5
0.035000 0.055000 0.070000
0.260167 0.062875 0.077750
0.485333 0.070750 0.085500
0.710500 0.078625 0.093250
0.935667 0.086500 0.101000
0.043042 0.275500 0.077750
0.268208 0.283375 0.085500
0.493375 0.291250 0.093250
0.718542 0.299125 0.101000
0.943708 0.307000 0.108750
0.051083 0.496000 0.085500
0.276250 0.503875 0.093250
0.501417 0.511750 0.101000
0.726583 0.519625 0.108750
0.951750 0.527500 0.116500
0.059125 0.716500 0.093250
0.284292 0.724375 0.101000
0.509458 0.732250 0.108750
0.734625 0.740125 0.116500
0.959792 0.748000 0.124250
0.067167 0.937000 0.101000
0.292333 0.944875 0.108750
0.517500 0.952750 0.116500
0.742667 0.960625 0.124250
0.967833 0.968500 0.132000
0.043042 0.062875 0.287000
0.268208 0.070750 0.294750
0.493375 0.078625 0.302500
0.718542 0.086500 0.310250
0.943708 0.094375 0.318000
0.051083 0.283375 0.294750
0.276250 0.291250 0.302500
0.501417 0.299125 0.310250
0.726583 0.307000 0.318000
0.951750 0.314875 0.325750
0.059125 0.503875 0.302500
0.284292 0.511750 0.310250
0.509458 0.519625 0.318000
0.734625 0.527500 0.325750
0.959792 0.535375 0.333500
0.067167 0.724375 0.310250
0.292333 0.732250 0.318000
0.517500 0.740125 0.325750
0.742667 0.748000 0.333500
0.967833 0.755875 0.341250
0.075208 0.944875 0.318000
0.300375 0.952750 0.325750
0.525542 0.960625 0.333500
0.750708 0.968500 0.341250
0.975875 0.976375 0.349000
0.051083 0.070750 0.504000
0.276250 0.078625 0.511750
0.501417 0.086500 0.519500
0.726583 0.094375 0.527250
0.951750 0.102250 0.535000
0.059125 0.291250 0.511750
0.284292 0.299125 0.519500
0.509458 0.307000 0.527250
0.734625 0.314875 0.535000
0.959792 0.322750 0.542750
0.067167 0.511750 0.519500
0.292333 0.519625 0.527250
0.517500 0.527500 0.535000
0.742667 0.535375 0.542750
0.967833 0.543250 0.550500
0.075208 0.732250 0.527250
0.300375 0.740125 0.535000
0.525542 0.748000 0.542750
0.750708 0.755875 0.550500
0.975875 0.763750 0.558250
0.083250 0.952750 0.535000
0.308417 0.960625 0.542750
0.533583 0.968500 0.550500
0.758750 0.976375 0.558250
0.983917 0.984250 0.566000
0.059125 0.078625 0.721000
0.284292 0.086500 0.728750
0.509458 0.094375 0.736500
0.734625 0.102250 0.744250
0.959792 0.110125 0.752000
0.067167 0.299125 0.728750
0.292333 0.307000 0.736500
0.517500 0.314875 0.744250
0.742667 0.322750 0.752000
0.967833 0.330625 0.759750
0.075208 0.519625 0.736500
0.300375 0.527500 0.744250
0.525542 0.535375 0.752000
0.750708 0.543250 0.759750
0.975875 0.551125 0.767500
0.083250 0.740125 0.744250
0.308417 0.748000 0.752000
0.533583 0.755875 0.759750
0.758750 0.763750 0.767500
0.983917 0.771625 0.775250
0.091292 0.960625 0.752000
0.316458 0.968500 0.759750
0.541625 0.976375 0.767500
0.766792 0.984250 0.775250
0.991958 0.992125 0.783000
0.067167 0.086500 0.938000
0.292333 0.094375 0.945750
0.517500 0.102250 0.953500
0.742667 0.110125 0.961250
0.967833 0.118000 0.969000
0.075208 0.307000 0.945750
0.300375 0.314875 0.953500
0.525542 0.322750 0.961250
0.750708 0.330625 0.969000
0.975875 0.338500 0.976750
0.083250 0.527500 0.953500
0.308417 0.535375 0.961250
0.533583 0.543250 0.969000
0.758750 0.551125 0.976750
0.983917 0.559000 0.984500
0.091292 0.748000 0.961250
0.316458 0.755875 0.969000
0.541625 0.763750 0.976750
0.766792 0.771625 0.984500
0.991958 0.779500 0.992250
0.099333 0.968500 0.969000
0.324500 0.976375 0.976750
0.549667 0.984250 0.984500
0.774833 0.992125 0.992250
1.000000 1.000000 1.000000
