src/nazca/luts/cool-matte.cube
# nazca bundled look — CC0
TITLE "cool-matte"
LUT_3D_SIZE 17
0.035000 0.055000 0.070000
0.091292 0.056969 0.071938
0.147583 0.058938 0.073875
0.203875 0.060906 0.075813
0.260167 0.062875 0.077750
0.316458 0.064844 0.079688
0.372750 0.066812 0.081625
0.429042 0.068781 0.083563
0.485333 0.070750 0.085500
0.541625 0.072719 0.087438
0.597917 0.074688 0.089375
0.654208 0.076656 0.091313
0.710500 0.078625 0.093250
0.766792 0.080594 0.095188
0.823083 0.082563 0.097125
0.879375 0.084531 0.099062
0.935667 0.086500 0.101000
0.037010 0.110125 0.071938
0.093302 0.112094 0.073875
0.149594 0.114062 0.075813
0.205885 0.116031 0.077750
0.262177 0.118000 0.079688
0.318469 0.119969 0.081625
0.374760 0.121938 0.083563
0.431052 0.123906 0.085500
0.487344 0.125875 0.087438
0.543635 0.127844 0.089375
0.599927 0.129812 0.091313
0.656219 0.131781 0.093250
0.712510 0.133750 0.095188
0.768802 0.135719 0.097125
0.825094 0.137687 0.099062
0.881385 0.139656 0.101000
0.937677 0.141625 0.102938
0.039021 0.165250 0.073875
0.095312 0.167219 0.075813
0.151604 0.169187 0.077750
0.207896 0.171156 0.079688
0.264188 0.173125 0.081625
0.320479 0.175094 0.083563
0.376771 0.177062 0.085500
0.433063 0.179031 0.087438
0.489354 0.181000 0.089375
0.545646 0.182969 0.091313
0.601938 0.184938 0.093250
0.658229 0.186906 0.095188
0.714521 0.188875 0.097125
0.770813 0.190844 0.099062
0.827104 0.192812 0.101000
0.883396 0.194781 0.102938
0.939688 0.196750 0.104875
0.041031 0.220375 0.075813
0.097323 0.222344 0.077750
0.153615 0.224312 0.079688
0.209906 0.226281 0.081625
0.266198 0.228250 0.083563
0.322490 0.230219 0.085500
0.378781 0.232187 0.087438
0.435073 0.234156 0.089375
0.491365 0.236125 0.091313
0.547656 0.238094 0.093250
0.603948 0.240062 0.095188
0.660240 0.242031 0.097125
0.716531 0.244000 0.099062
0.772823 0.245969 0.101000
0.829115 0.247937 0.102938
0.885406 0.249906 0.104875
0.941698 0.251875 0.106813
0.043042 0.275500 0.077750
0.099333 0.277469 0.079688
0.155625 0.279438 0.081625
0.211917 0.281406 0.083563
0.268208 0.283375 0.085500
0.324500 0.285344 0.087438
0.380792 0.287313 0.089375
0.437083 0.289281 0.091313
0.493375 0.291250 0.093250
0.549667 0.293219 0.095188
0.605958 0.295187 0.097125
0.662250 0.297156 0.099062
0.718542 0.299125 0.101000
0.774833 0.301094 0.102938
0.831125 0.303063 0.104875
0.887417 0.305031 0.106813
0.943708 0.307000 0.108750
0.045052 0.330625 0.079688
0.101344 0.332594 0.081625
0.157635 0.334562 0.083563
0.213927 0.336531 0.085500
0.270219 0.338500 0.087438
0.326510 0.340469 0.089375
0.382802 0.342437 0.091313
0.439094 0.344406 0.093250
0.495385 0.346375 0.095188
0.551677 0.348344 0.097125
0.607969 0.350312 0.099062
0.664260 0.352281 0.101000
0.720552 0.354250 0.102938
0.776844 0.356219 0.104875
0.833135 0.358187 0.106813
0.889427 0.360156 0.108750
0.945719 0.362125 0.110688
0.047063 0.385750 0.081625
0.103354 0.387719 0.083563
0.159646 0.389688 0.085500
0.215938 0.391656 0.087438
0.272229 0.393625 0.089375
0.328521 0.395594 0.091313
0.384813 0.397562 0.093250
0.441104 0.399531 0.095188
0.497396 0.401500 0.097125
0.553687 0.403469 0.099062
0.609979 0.405438 0.101000
0.666271 0.407406 0.102938
0.722562 0.409375 0.104875
0.778854 0.411344 0.106813
0.835146 0.413312 0.108750
0.891437 0.415281 0.110688
0.947729 0.417250 0.112625
0.049073 0.440875 0.083563
0.105365 0.442844 0.085500
0.161656 0.444812 0.087438
0.217948 0.446781 0.089375
0.274240 0.448750 0.091313
0.330531 0.450719 0.093250
0.386823 0.452687 0.095188
0.443115 0.454656 0.097125
0.499406 0.456625 0.099062
0.555698 0.458594 0.101000
0.611990 0.460562 0.102938
0.668281 0.462531 0.104875
0.724573 0.464500 0.106813
0.780865 0.466469 0.108750
0.837156 0.468437 0.110688
0.893448 0.470406 0.112625
0.949740 0.472375 0.114563
0.051083 0.496000 0.085500
0.107375 0.497969 0.087438
0.163667 0.499937 0.089375
0.219958 0.501906 0.091313
0.276250 0.503875 0.093250
0.332542 0.505844 0.095188
0.388833 0.507812 0.097125
0.445125 0.509781 0.099062
0.501417 0.511750 0.101000
0.557708 0.513719 0.102938
0.614000 0.515687 0.104875
0.670292 0.517656 0.106813
0.726583 0.519625 0.108750
0.782875 0.521594 0.110688
0.839167 0.523563 0.112625
0.895458 0.525531 0.114563
0.951750 0.527500 0.116500
0.053094 0.551125 0.087438
0.109385 0.553094 0.089375
0.165677 0.555063 0.091313
0.221969 0.557031 0.093250
0.278260 0.559000 0.095188
0.334552 0.560969 0.097125
0.390844 0.562937 0.099062
0.447135 0.564906 0.101000
0.503427 0.566875 0.102938
0.559719 0.568844 0.104875
0.616010 0.570812 0.106813
0.672302 0.572781 0.108750
0.728594 0.574750 0.110688
0.784885 0.576719 0.112625
0.841177 0.578688 0.114563
0.897469 0.580656 0.116500
0.953760 0.582625 0.118438
0.055104 0.606250 0.089375
0.111396 0.608219 0.091313
0.167688 0.610187 0.093250
0.223979 0.612156 0.095188
0.280271 0.614125 0.097125
0.336562 0.616094 0.099062
0.392854 0.618062 0.101000
0.449146 0.620031 0.102938
0.505437 0.622000 0.104875
0.561729 0.623969 0.106813
0.618021 0.625938 0.108750
0.674312 0.627906 0.110688
0.730604 0.629875 0.112625
0.786896 0.631844 0.114563
0.843187 0.633813 0.116500
0.899479 0.635781 0.118438
0.955771 0.637750 0.120375
0.057115 0.661375 0.091313
0.113406 0.663344 0.093250
0.169698 0.665313 0.095188
0.225990 0.667281 0.097125
0.282281 0.669250 0.099062
0.338573 0.671219 0.101000
0.394865 0.673188 0.102938
0.451156 0.675156 0.104875
0.507448 0.677125 0.106813
0.563740 0.679094 0.108750
0.620031 0.681063 0.110688
0.676323 0.683031 0.112625
0.732615 0.685000 0.114563
0.788906 0.686969 0.116500
0.845198 0.688938 0.118438
0.901490 0.690906 0.120375
0.957781 0.692875 0.122313
0.059125 0.716500 0.093250
0.115417 0.718469 0.095188
0.171708 0.720437 0.097125
0.228000 0.722406 0.099062
0.284292 0.724375 0.101000
0.340583 0.726344 0.102938
0.396875 0.728313 0.104875
0.453167 0.730281 0.106813
0.509458 0.732250 0.108750
0.565750 0.734219 0.110688
0.622042 0.736187 0.112625
0.678333 0.738156 0.114563
0.734625 0.740125 0.116500
0.790917 0.742094 0.118438
0.847208 0.744062 0.120375
0.903500 0.746031 0.122313
0.959792 0.748000 0.124250
0.061135 0.771625 0.095188
0.117427 0.773594 0.097125
0.173719 0.775562 0.099062
0.230010 0.777531 0.101000
0.286302 0.779500 0.102938
0.342594 0.781469 0.104875
0.398885 0.783438 0.106813
0.455177 0.785406 0.108750
0.511469 0.787375 0.110688
0.567760 0.789344 0.112625
0.624052 0.791312 0.114563
0.680344 0.793281 0.116500
0.736635 0.795250 0.118438
0.792927 0.797219 0.120375
0.849219 0.799187 0.122313
0.905510 0.801156 0.124250
0.961802 0.803125 0.126188
0.063146 0.826750 0.097125
0.119438 0.828719 0.099062
0.175729 0.830688 0.101000
0.232021 0.832656 0.102938
0.288312 0.834625 0.104875
0.344604 0.836594 0.106813
0.400896 0.838562 0.108750
0.457187 0.840531 0.110688
0.513479 0.842500 0.112625
0.569771 0.844469 0.114563
0.626063 0.846438 0.116500
0.682354 0.848406 0.118438
0.738646 0.850375 0.120375
0.794937 0.852344 0.122313
0.851229 0.854313 0.124250
0.907521 0.856281 0.126188
0.963813 0.858250 0.128125
0.065156 0.881875 0.099062
0.121448 0.883844 0.101000
0.177740 0.885813 0.102938
0.234031 0.887781 0.104875
0.290323 0.889750 0.106813
0.346615 0.891719 0.108750
0.402906 0.893687 0.110688
0.459198 0.895656 0.112625
0.515490 0.897625 0.114563
0.571781 0.899594 0.116500
0.628073 0.901563 0.118438
0.684365 0.903531 0.120375
0.740656 0.905500 0.122313
0.796948 0.907469 0.124250
0.853240 0.909438 0.126188
0.909531 0.911406 0.128125
0.965823 0.913375 0.130063
0.067167 0.937000 0.101000
0.123458 0.938969 0.102938
0.179750 0.940937 0.104875
0.236042 0.942906 0.106813
0.292333 0.944875 0.108750
0.348625 0.946844 0.110688
0.404917 0.948812 0.112625
0.461208 0.950781 0.114563
0.517500 0.952750 0.116500
0.573792 0.954719 0.118438
0.630083 0.956687 0.120375
0.686375 0.958656 0.122313
0.742667 0.960625 0.124250
0.798958 0.962594 0.126188
0.855250 0.964562 0.128125
0.911542 0.966531 0.130063
0.967833 0.968500 0.132000
0.037010 0.056969 0.124250
0.093302 0.058938 0.126188
0.149594 0.060906 0.128125
0.205885 0.062875 0.130062
0.262177 0.064844 0.132000
0.318469 0.066812 0.133937
0.374760 0.068781 0.135875
0.431052 0.070750 0.137813
0.487344 0.072719 0.139750
0.543635 0.074688 0.141688
0.599927 0.076656 0.143625
0.656219 0.078625 0.145562
0.712510 0.080594 0.147500
0.768802 0.082563 0.149438
0.825094 0.084531 0.151375
0.881385 0.086500 0.153313
0.937677 0.088469 0.155250
0.039021 0.112094 0.126188
0.095312 0.114062 0.128125
0.151604 0.116031 0.130062
0.207896 0.118000 0.132000
0.264188 0.119969 0.133937
0.320479 0.121938 0.135875
0.376771 0.123906 0.137813
0.433063 0.125875 0.139750
0.489354 0.127844 0.141688
0.545646 0.129812 0.143625
0.601938 0.131781 0.145562
0.658229 0.133750 0.147500
0.714521 0.135719 0.149438
0.770813 0.137687 0.151375
0.827104 0.139656 0.153313
0.883396 0.141625 0.155250
0.939688 0.143594 0.157188
0.041031 0.167219 0.128125
0.097323 0.169187 0.130062
0.153615 0.171156 0.132000
0.209906 0.173125 0.133937
0.266198 0.175094 0.135875
0.322490 0.177062 0.137813
0.378781 0.179031 0.139750
0.435073 0.181000 0.141688
0.491365 0.182969 0.143625
0.547656 0.184938 0.145562
0.603948 0.186906 0.147500
0.660240 0.188875 0.149438
0.716531 0.190844 0.151375
0.772823 0.192812 0.153313
0.829115 0.194781 0.155250
0.885406 0.196750 0.157188
0.941698 0.198719 0.159125
0.043042 0.222344 0.130062
0.099333 0.224312 0.132000
0.155625 0.226281 0.133937
0.211917 0.228250 0.135875
0.268208 0.230219 0.137813
0.324500 0.232187 0.139750
0.380792 0.234156 0.141688
0.437083 0.236125 0.143625
0.493375 0.238094 0.145562
0.549667 0.240062 0.147500
0.605958 0.242031 0.149438
0.662250 0.244000 0.151375
0.718542 0.245969 0.153313
0.774833 0.247937 0.155250
0.831125 0.249906 0.157188
0.887417 0.251875 0.159125
0.943708 0.253844 0.161062
0.045052 0.277469 0.132000
0.101344 0.279438 0.133937
0.157635 0.281406 0.135875
0.213927 0.283375 0.137813
0.270219 0.285344 0.139750
0.326510 0.287313 0.141688
0.382802 0.289281 0.143625
0.439094 0.291250 0.145562
0.495385 0.293219 0.147500
0.551677 0.295187 0.149438
0.607969 0.297156 0.151375
0.664260 0.299125 0.153313
0.720552 0.301094 0.155250
0.776844 0.303063 0.157188
0.833135 0.305031 0.159125
0.889427 0.307000 0.161062
0.945719 0.308969 0.163000
0.047063 0.332594 0.133937
0.103354 0.334562 0.135875
0.159646 0.336531 0.137813
0.215938 0.338500 0.139750
0.272229 0.340469 0.141688
0.328521 0.342437 0.143625
0.384813 0.344406 0.145562
0.441104 0.346375 0.147500
0.497396 0.348344 0.149438
0.553687 0.350312 0.151375
0.609979 0.352281 0.153313
0.666271 0.354250 0.155250
0.722562 0.356219 0.157188
0.778854 0.358187 0.159125
0.835146 0.360156 0.161062
0.891437 0.362125 0.163000
0.947729 0.364094 0.164938
0.049073 0.387719 0.135875
0.105365 0.389688 0.137813
0.161656 0.391656 0.139750
0.217948 0.393625 0.141688
0.274240 0.395594 0.143625
0.330531 0.397562 0.145562
0.386823 0.399531 0.147500
0.443115 0.401500 0.149438
0.499406 0.403469 0.151375
0.555698 0.405438 0.153313
0.611990 0.407406 0.155250
0.668281 0.409375 0.157188
0.724573 0.411344 0.159125
0.780865 0.413312 0.161062
0.837156 0.415281 0.163000
0.893448 0.417250 0.164938
0.949740 0.419219 0.166875
0.051083 0.442844 0.137813
0.107375 0.444812 0.139750
0.163667 0.446781 0.141688
0.219958 0.448750 0.143625
0.276250 0.450719 0.145562
0.332542 0.452687 0.147500
0.388833 0.454656 0.149438
0.445125 0.456625 0.151375
0.501417 0.458594 0.153313
0.557708 0.460562 0.155250
0.614000 0.462531 0.157188
0.670292 0.464500 0.159125
0.726583 0.466469 0.161062
0.782875 0.468437 0.163000
0.839167 0.470406 0.164938
0.895458 0.472375 0.166875
0.951750 0.474344 0.168813
0.053094 0.497969 0.139750
0.109385 0.499937 0.141688
0.165677 0.501906 0.143625
0.221969 0.503875 0.145562
0.278260 0.505844 0.147500
0.334552 0.507812 0.149438
0.390844 0.509781 0.151375
0.447135 0.511750 0.153313
0.503427 0.513719 0.155250
0.559719 0.515687 0.157188
0.616010 0.517656 0.159125
0.672302 0.519625 0.161062
0.728594 0.521594 0.163000
0.784885 0.523563 0.164938
0.841177 0.525531 0.166875
0.897469 0.527500 0.168813
0.953760 0.529469 0.170750
0.055104 0.553094 0.141688
0.111396 0.555063 0.143625
0.167688 0.557031 0.145562
0.223979 0.559000 0.147500
0.280271 0.560969 0.149438
0.336562 0.562937 0.151375
0.392854 0.564906 0.153313
0.449146 0.566875 0.155250
0.505437 0.568844 0.157188
0.561729 0.570812 0.159125
0.618021 0.572781 0.161062
0.674312 0.574750 0.163000
0.730604 0.576719 0.164938
0.786896 0.578688 0.166875
0.843187 0.580656 0.168813
0.899479 0.582625 0.170750
0.955771 0.584594 0.172687
0.057115 0.608219 0.143625
0.113406 0.610187 0.145562
0.169698 0.612156 0.147500
0.225990 0.614125 0.149438
0.282281 0.616094 0.151375
0.338573 0.618062 0.153313
0.394865 0.620031 0.155250
0.451156 0.622000 0.157188
0.507448 0.623969 0.159125
0.563740 0.625938 0.161062
0.620031 0.627906 0.163000
0.676323 0.629875 0.164938
0.732615 0.631844 0.166875
0.788906 0.633813 0.168813
0.845198 0.635781 0.170750
0.901490 0.637750 0.172687
0.957781 0.639719 0.174625
0.059125 0.663344 0.145562
0.115417 0.665313 0.147500
0.171708 0.667281 0.149438
0.228000 0.669250 0.151375
0.284292 0.671219 0.153313
0.340583 0.673188 0.155250
0.396875 0.675156 0.157188
0.453167 0.677125 0.159125
0.509458 0.679094 0.161062
0.565750 0.681063 0.163000
0.622042 0.683031 0.164938
0.678333 0.685000 0.166875
0.734625 0.686969 0.168813
0.790917 0.688938 0.170750
0.847208 0.690906 0.172687
0.903500 0.692875 0.174625
0.959792 0.694844 0.176563
0.061135 0.718469 0.147500
0.117427 0.720437 0.149438
0.173719 0.722406 0.151375
0.230010 0.724375 0.153313
0.286302 0.726344 0.155250
0.342594 0.728313 0.157188
0.398885 0.730281 0.159125
0.455177 0.732250 0.161062
0.511469 0.734219 0.163000
0.567760 0.736187 0.164938
0.624052 0.738156 0.166875
0.680344 0.740125 0.168813
0.736635 0.742094 0.170750
0.792927 0.744062 0.172687
0.849219 0.746031 0.174625
0.905510 0.748000 0.176563
0.961802 0.749969 0.178500
0.063146 0.773594 0.149438
0.119438 0.775562 0.151375
0.175729 0.777531 0.153313
0.232021 0.779500 0.155250
0.288312 0.781469 0.157188
0.344604 0.783438 0.159125
0.400896 0.785406 0.161062
0.457187 0.787375 0.163000
0.513479 0.789344 0.164938
0.569771 0.791312 0.166875
0.626063 0.793281 0.168813
0.682354 0.795250 0.170750
0.738646 0.797219 0.172687
0.794937 0.799187 0.174625
0.851229 0.801156 0.176563
0.907521 0.803125 0.178500
0.963813 0.805094 0.180438
0.065156 0.828719 0.151375
0.121448 0.830688 0.153313
0.177740 0.832656 0.155250
0.234031 0.834625 0.157188
0.290323 0.836594 0.159125
0.346615 0.838562 0.161062
0.402906 0.840531 0.163000
0.459198 0.842500 0.164938
0.515490 0.844469 0.166875
0.571781 0.846438 0.168813
0.628073 0.848406 0.170750
0.684365 0.850375 0.172687
0.740656 0.852344 0.174625
0.796948 0.854313 0.176563
0.853240 0.856281 0.178500
0.909531 0.858250 0.180438
0.965823 0.860219 0.182375
0.067167 0.883844 0.153313
0.123458 0.885813 0.155250
0.179750 0.887781 0.157188
0.236042 0.889750 0.159125
0.292333 0.891719 0.161062
0.348625 0.893687 0.163000
0.404917 0.895656 0.164938
0.461208 0.897625 0.166875
0.517500 0.899594 0.168813
0.573792 0.901563 0.170750
0.630083 0.903531 0.172687
0.686375 0.905500 0.174625
0.742667 0.907469 0.176563
0.798958 0.909438 0.178500
0.855250 0.911406 0.180438
0.911542 0.913375 0.182375
0.967833 0.915344 0.184312
0.069177 0.938969 0.155250
0.125469 0.940937 0.157188
0.181760 0.942906 0.159125
0.238052 0.944875 0.161062
0.294344 0.946844 0.163000
0.350635 0.948812 0.164938
0.406927 0.950781 0.166875
0.463219 0.952750 0.168813
0.519510 0.954719 0.170750
0.575802 0.956687 0.172687
0.632094 0.958656 0.174625
0.688385 0.960625 0.176563
0.744677 0.962594 0.178500
0.800969 0.964562 0.180438
0.857260 0.966531 0.182375
0.913552 0.968500 0.184312
0.969844 0.970469 0.186250
0.039021 0.058938 0.178500
0.095312 0.060906 0.180438
0.151604 0.062875 0.182375
0.207896 0.064844 0.184312
0.264188 0.066812 0.186250
0.320479 0.068781 0.188188
0.376771 0.070750 0.190125
0.433063 0.072719 0.192062
0.489354 0.074688 0.194000
0.545646 0.076656 0.195937
0.601938 0.078625 0.197875
0.658229 0.080594 0.199813
0.714521 0.082563 0.201750
0.770813 0.084531 0.203687
0.827104 0.086500 0.205625
0.883396 0.088469 0.207563
0.939688 0.090438 0.209500
0.041031 0.114062 0.180438
0.097323 0.116031 0.182375
0.153615 0.118000 0.184312
0.209906 0.119969 0.186250
0.266198 0.121938 0.188188
0.322490 0.123906 0.190125
0.378781 0.125875 0.192062
0.435073 0.127844 0.194000
0.491365 0.129812 0.195937
0.547656 0.131781 0.197875
0.603948 0.133750 0.199813
0.660240 0.135719 0.201750
0.716531 0.137687 0.203687
0.772823 0.139656 0.205625
0.829115 0.141625 0.207563
0.885406 0.143594 0.209500
0.941698 0.145562 0.211438
0.043042 0.169187 0.182375
0.099333 0.171156 0.184312
0.155625 0.173125 0.186250
0.211917 0.175094 0.188188
0.268208 0.177062 0.190125
0.324500 0.179031 0.192062
0.380792 0.181000 0.194000
0.437083 0.182969 0.195937
0.493375 0.184938 0.197875
0.549667 0.186906 0.199813
0.605958 0.188875 0.201750
0.662250 0.190844 0.203687
0.718542 0.192812 0.205625
0.774833 0.194781 0.207563
0.831125 0.196750 0.209500
0.887417 0.198719 0.211438
0.943708 0.200687 0.213375
0.045052 0.224312 0.184312
0.101344 0.226281 0.186250
0.157635 0.228250 0.188188
0.213927 0.230219 0.190125
0.270219 0.232187 0.192062
0.326510 0.234156 0.194000
0.382802 0.236125 0.195937
0.439094 0.238094 0.197875
0.495385 0.240062 0.199813
0.551677 0.242031 0.201750
0.607969 0.244000 0.203687
0.664260 0.245969 0.205625
0.720552 0.247937 0.207563
0.776844 0.249906 0.209500
0.833135 0.251875 0.211438
0.889427 0.253844 0.213375
0.945719 0.255812 0.215312
0.047063 0.279438 0.186250
0.103354 0.281406 0.188188
0.159646 0.283375 0.190125
0.215938 0.285344 0.192062
0.272229 0.287313 0.194000
0.328521 0.289281 0.195937
0.384813 0.291250 0.197875
0.441104 0.293219 0.199813
0.497396 0.295187 0.201750
0.553687 0.297156 0.203687
0.609979 0.299125 0.205625
0.666271 0.301094 0.207563
0.722562 0.303063 0.209500
0.778854 0.305031 0.211438
0.835146 0.307000 0.213375
0.891437 0.308969 0.215312
0.947729 0.310937 0.217250
0.049073 0.334562 0.188188
0.105365 0.336531 0.190125
0.161656 0.338500 0.192062
0.217948 0.340469 0.194000
0.274240 0.342437 0.195937
0.330531 0.344406 0.197875
0.386823 0.346375 0.199813
0.443115 0.348344 0.201750
0.499406 0.350312 0.203687
0.555698 0.352281 0.205625
0.611990 0.354250 0.207563
0.668281 0.356219 0.209500
0.724573 0.358187 0.211438
0.780865 0.360156 0.213375
0.837156 0.362125 0.215312
0.893448 0.364094 0.217250
0.949740 0.366062 0.219188
0.051083 0.389688 0.190125
0.107375 0.391656 0.192062
0.163667 0.393625 0.194000
0.219958 0.395594 0.195937
0.276250 0.397562 0.197875
0.332542 0.399531 0.199813
0.388833 0.401500 0.201750
0.445125 0.403469 0.203687
0.501417 0.405438 0.205625
0.557708 0.407406 0.207563
0.614000 0.409375 0.209500
0.670292 0.411344 0.211438
0.726583 0.413312 0.213375
0.782875 0.415281 0.215312
0.839167 0.417250 0.217250
0.895458 0.419219 0.219188
0.951750 0.421187 0.221125
0.053094 0.444812 0.192062
0.109385 0.446781 0.194000
0.165677 0.448750 0.195937
0.221969 0.450719 0.197875
0.278260 0.452687 0.199813
0.334552 0.454656 0.201750
0.390844 0.456625 0.203687
0.447135 0.458594 0.205625
0.503427 0.460562 0.207563
0.559719 0.462531 0.209500
0.616010 0.464500 0.211438
0.672302 0.466469 0.213375
0.728594 0.468437 0.215312
0.784885 0.470406 0.217250
0.841177 0.472375 0.219188
0.897469 0.474344 0.221125
0.953760 0.476312 0.223062
0.055104 0.499937 0.194000
0.111396 0.501906 0.195937
0.167688 0.503875 0.197875
0.223979 0.505844 0.199813
0.280271 0.507812 0.201750
0.336562 0.509781 0.203687
0.392854 0.511750 0.205625
0.449146 0.513719 0.207563
0.505437 0.515687 0.209500
0.561729 0.517656 0.211438
0.618021 0.519625 0.213375
0.674312 0.521594 0.215312
0.730604 0.523563 0.217250
0.786896 0.525531 0.219188
0.843187 0.527500 0.221125
0.899479 0.529469 0.223062
0.955771 0.531438 0.225000
0.057115 0.555063 0.195937
0.113406 0.557031 0.197875
0.169698 0.559000 0.199813
0.225990 0.560969 0.201750
0.282281 0.562937 0.203687
0.338573 0.564906 0.205625
0.394865 0.566875 0.207563
0.451156 0.568844 0.209500
0.507448 0.570812 0.211438
0.563740 0.572781 0.213375
0.620031 0.574750 0.215312
0.676323 0.576719 0.217250
0.732615 0.578688 0.219188
0.788906 0.580656 0.221125
0.845198 0.582625 0.223062
0.901490 0.584594 0.225000
0.957781 0.586562 0.226938
0.059125 0.610187 0.197875
0.115417 0.612156 0.199813
0.171708 0.614125 0.201750
0.228000 0.616094 0.203687
0.284292 0.618062 0.205625
0.340583 0.620031 0.207563
0.396875 0.622000 0.209500
0.453167 0.623969 0.211438
0.509458 0.625938 0.213375
0.565750 0.627906 0.215312
0.622042 0.629875 0.217250
0.678333 0.631844 0.219188
0.734625 0.633813 0.221125
0.790917 0.635781 0.223062
0.847208 0.637750 0.225000
0.903500 0.639719 0.226938
0.959792 0.641688 0.228875
0.061135 0.665313 0.199813
0.117427 0.667281 0.201750
0.173719 0.669250 0.203687
0.230010 0.671219 0.205625
0.286302 0.673188 0.207563
0.342594 0.675156 0.209500
0.398885 0.677125 0.211438
0.455177 0.679094 0.213375
0.511469 0.681063 0.215312
0.567760 0.683031 0.217250
0.624052 0.685000 0.219188
0.680344 0.686969 0.221125
0.736635 0.688938 0.223062
0.792927 0.690906 0.225000
0.849219 0.692875 0.226938
0.905510 0.694844 0.228875
0.961802 0.696813 0.230813
0.063146 0.720437 0.201750
0.119438 0.722406 0.203687
0.175729 0.724375 0.205625
0.232021 0.726344 0.207563
0.288312 0.728313 0.209500
0.344604 0.730281 0.211438
0.400896 0.732250 0.213375
0.457187 0.734219 0.215312
0.513479 0.736187 0.217250
0.569771 0.738156 0.219188
0.626063 0.740125 0.221125
0.682354 0.742094 0.223062
0.738646 0.744062 0.225000
0.794937 0.746031 0.226938
0.851229 0.748000 0.228875
0.907521 0.749969 0.230813
0.963813 0.751938 0.232750
0.065156 0.775562 0.203687
0.121448 0.777531 0.205625
0.177740 0.779500 0.207563
0.234031 0.781469 0.209500
0.290323 0.783438 0.211438
0.346615 0.785406 0.213375
0.402906 0.787375 0.215312
0.459198 0.789344 0.217250
0.515490 0.791312 0.219188
0.571781 0.793281 0.221125
0.628073 0.795250 0.223062
0.684365 0.797219 0.225000
0.740656 0.799187 0.226938
0.796948 0.801156 0.228875
0.853240 0.803125 0.230813
0.909531 0.805094 0.232750
0.965823 0.807063 0.234687
0.067167 0.830688 0.205625
0.123458 0.832656 0.207563
0.179750 0.834625 0.209500
0.236042 0.836594 0.211438
0.292333 0.838562 0.213375
0.348625 0.840531 0.215312
0.404917 0.842500 0.217250
0.461208 0.844469 0.219188
0.517500 0.846438 0.221125
0.573792 0.848406 0.223062
0.630083 0.850375 0.225000
0.686375 0.852344 0.226938
0.742667 0.854313 0.228875
0.798958 0.856281 0.230813
0.855250 0.858250 0.232750
0.911542 0.860219 0.234687
0.967833 0.862187 0.236625
0.069177 0.885813 0.207563
0.125469 0.887781 0.209500
0.181760 0.889750 0.211438
0.238052 0.891719 0.213375
0.294344 0.893687 0.215312
0.350635 0.895656 0.217250
0.406927 0.897625 0.219188
0.463219 0.899594 0.221125
0.519510 0.901563 0.223062
0.575802 0.903531 0.225000
0.632094 0.905500 0.226938
0.688385 0.907469 0.228875
0.744677 0.909438 0.230813
0.800969 0.911406 0.232750
0.857260 0.913375 0.234687
0.913552 0.915344 0.236625
0.969844 0.917312 0.238562
0.071188 0.940937 0.209500
0.127479 0.942906 0.211438
0.183771 0.944875 0.213375
0.240062 0.946844 0.215312
0.296354 0.948812 0.217250
0.352646 0.950781 0.219188
0.408937 0.952750 0.221125
0.465229 0.954719 0.223062
0.521521 0.956687 0.225000
0.577813 0.958656 0.226938
0.634104 0.960625 0.228875
0.690396 0.962594 0.230813
0.746688 0.964562 0.232750
0.802979 0.966531 0.234687
0.859271 0.968500 0.236625
0.915562 0.970469 0.238562
0.971854 0.972437 0.240500
0.041031 0.060906 0.232750
0.097323 0.062875 0.234687
0.153615 0.064844 0.236625
0.209906 0.066812 0.238562
0.266198 0.068781 0.240500
0.322490 0.070750 0.242438
0.378781 0.072719 0.244375
0.435073 0.074688 0.246312
0.491365 0.076656 0.248250
0.547656 0.078625 0.250188
0.603948 0.080594 0.252125
0.660240 0.082563 0.254062
0.716531 0.084531 0.256000
0.772823 0.086500 0.257937
0.829115 0.088469 0.259875
0.885406 0.090438 0.261813
0.941698 0.092406 0.263750
0.043042 0.116031 0.234687
0.099333 0.118000 0.236625
