src/nazca/luts/cool-matte.cube
# nazca bundled look — CC0
TITLE "cool-matte"
LUT_3D_SIZE 9
0.035000 0.055000 0.070000
0.147583 0.058938 0.073875
0.260167 0.062875 0.077750
0.372750 0.066812 0.081625
0.485333 0.070750 0.085500
0.597917 0.074688 0.089375
0.710500 0.078625 0.093250
0.823083 0.082563 0.097125
0.935667 0.086500 0.101000
0.039021 0.165250 0.073875
0.151604 0.169187 0.077750
0.264188 0.173125 0.081625
0.376771 0.177062 0.085500
0.489354 0.181000 0.089375
0.601938 0.184938 0.093250
0.714521 0.188875 0.097125
0.827104 0.192812 0.101000
0.939688 0.196750 0.104875
0.043042 0.275500 0.077750
0.155625 0.279438 0.081625
0.268208 0.283375 0.085500
0.380792 0.287313 0.089375
0.493375 0.291250 0.093250
0.605958 0.295187 0.097125
0.718542 0.299125 0.101000
0.831125 0.303063 0.104875
0.943708 0.307000 0.108750
0.047063 0.385750 0.081625
0.159646 0.389688 0.085500
0.272229 0.393625 0.089375
0.384813 0.397562 0.093250
0.497396 0.401500 0.097125
0.609979 0.405438 0.101000
0.722562 0.409375 0.104875
0.835146 0.413312 0.108750
0.947729 0.417250 0.112625
0.051083 0.496000 0.085500
0.163667 0.499937 0.089375
0.276250 0.503875 0.093250
0.388833 0.507812 0.097125
0.501417 0.511750 0.101000
0.614000 0.515687 0.104875
0.726583 0.519625 0.108750
0.839167 0.523563 0.112625
0.951750 0.527500 0.116500
0.055104 0.606250 0.089375
0.167688 0.610187 0.093250
0.280271 0.614125 0.097125
0.392854 0.618062 0.101000
0.505437 0.622000 0.104875
0.618021 0.625938 0.108750
0.730604 0.629875 0.112625
0.843187 0.633813 0.116500
0.955771 0.637750 0.120375
0.059125 0.716500 0.093250
0.171708 0.720437 0.097125
0.284292 0.724375 0.101000
0.396875 0.728313 0.104875
0.509458 0.732250 0.108750
0.622042 0.736187 0.112625
0.734625 0.740125 0.116500
0.847208 0.744062 0.120375
0.959792 0.748000 0.124250
0.063146 0.826750 0.097125
0.175729 0.830688 0.101000
0.288312 0.834625 0.104875
0.400896 0.838562 0.108750
0.513479 0.842500 0.112625
0.626063 0.846438 0.116500
0.738646 0.850375 0.120375
0.851229 0.854313 0.124250
0.963813 0.858250 0.128125
0.067167 0.937000 0.101000
0.179750 0.940937 0.104875
0.292333 0.944875 0.108750
0.404917 0.948812 0.112625
0.517500 0.952750 0.116500
0.630083 0.956687 0.120375
0.742667 0.960625 0.124250
0.855250 0.964562 0.128125
0.967833 0.968500 0.132000
0.039021 0.058938 0.178500
0.151604 0.062875 0.182375
0.264188 0.066812 0.186250
0.376771 0.070750 0.190125
0.489354 0.074688 0.194000
0.601938 0.078625 0.197875
0.714521 0.082563 0.201750
0.827104 0.086500 0.205625
0.939688 0.090438 0.209500
0.043042 0.169187 0.182375
0.155625 0.173125 0.186250
0.268208 0.177062 0.190125
0.380792 0.181000 0.194000
0.493375 0.184938 0.197875
0.605958 0.188875 0.201750
0.718542 0.192812 0.205625
0.831125 0.196750 0.209500
0.943708 0.200687 0.213375
0.047063 0.279438 0.186250
0.159646 0.283375 0.190125
0.272229 0.287313 0.194000
0.384813 0.291250 0.197875
0.497396 0.295187 0.201750
0.609979 0.299125 0.205625
0.722562 0.303063 0.209500
0.835146 0.307000 0.213375
0.947729 0.310937 0.217250
0.051083 0.389688 0.190125
0.163667 0.393625 0.194000
0.276250 0.397562 0.197875
0.388833 0.401500 0.201750
0.501417 0.405438 0.205625
0.614000 0.409375 0.209500
0.726583 0.413312 0.213375
0.839167 0.417250 0.217250
0.951750 0.421187 0.221125
0.055104 0.499937 0.194000
0.167688 0.503875 0.197875
0.280271 0.507812 0.201750
0.392854 0.511750 0.205625
0.505437 0.515687 0.209500
0.618021 0.519625 0.213375
0.730604 0.523563 0.217250
0.843187 0.527500 0.221125
0.955771 0.531438 0.225000
0.059125 0.610187 0.197875
0.171708 0.614125 0.201750
0.284292 0.618062 0.205625
0.396875 0.622000 0.209500
0.509458 0.625938 0.213375
0.622042 0.629875 0.217250
0.734625 0.633813 0.221125
0.847208 0.637750 0.225000
0.959792 0.641688 0.228875
0.063146 0.720437 0.201750
0.175729 0.724375 0.205625
0.288312 0.728313 0.209500
0.400896 0.732250 0.213375
0.513479 0.736187 0.217250
0.626063 0.740125 0.221125
0.738646 0.744062 0.225000
0.851229 0.748000 0.228875
0.963813 0.751938 0.232750
0.067167 0.830688 0.205625
0.179750 0.834625 0.209500
0.292333 0.838562 0.213375
0.404917 0.842500 0.217250
0.517500 0.846438 0.221125
0.630083 0.850375 0.225000
0.742667 0.854313 0.228875
0.855250 0.858250 0.232750
0.967833 0.862187 0.236625
0.071188 0.940937 0.209500
0.183771 0.944875 0.213375
0.296354 0.948812 0.217250
0.408937 0.952750 0.221125
0.521521 0.956687 0.225000
0.634104 0.960625 0.228875
0.746688 0.964562 0.232750
0.859271 0.968500 0.236625
0.971854 0.972437 0.240500
0.043042 0.062875 0.287000
0.155625 0.066812 0.290875
0.268208 0.070750 0.294750
0.380792 0.074688 0.298625
0.493375 0.078625 0.302500
0.605958 0.082563 0.306375
0.718542 0.086500 0.310250
0.831125 0.090438 0.314125
0.943708 0.094375 0.318000
0.047063 0.173125 0.290875
0.159646 0.177062 0.294750
0.272229 0.181000 0.298625
0.384813 0.184938 0.302500
0.497396 0.188875 0.306375
0.609979 0.192812 0.310250
0.722562 0.196750 0.314125
0.835146 0.200687 0.318000
0.947729 0.204625 0.321875
0.051083 0.283375 0.294750
0.163667 0.287313 0.298625
0.276250 0.291250 0.302500
0.388833 0.295187 0.306375
0.501417 0.299125 0.310250
0.614000 0.303063 0.314125
0.726583 0.307000 0.318000
0.839167 0.310937 0.321875
0.951750 0.314875 0.325750
0.055104 0.393625 0.298625
0.167688 0.397562 0.302500
0.280271 0.401500 0.306375
0.392854 0.405438 0.310250
0.505437 0.409375 0.314125
0.618021 0.413312 0.318000
0.730604 0.417250 0.321875
0.843187 0.421187 0.325750
0.955771 0.425125 0.329625
0.059125 0.503875 0.302500
0.171708 0.507812 0.306375
0.284292 0.511750 0.310250
0.396875 0.515687 0.314125
0.509458 0.519625 0.318000
0.622042 0.523563 0.321875
0.734625 0.527500 0.325750
0.847208 0.531438 0.329625
0.959792 0.535375 0.333500
0.063146 0.614125 0.306375
0.175729 0.618062 0.310250
0.288312 0.622000 0.314125
0.400896 0.625938 0.318000
0.513479 0.629875 0.321875
0.626063 0.633813 0.325750
0.738646 0.637750 0.329625
0.851229 0.641688 0.333500
0.963813 0.645625 0.337375
0.067167 0.724375 0.310250
0.179750 0.728313 0.314125
0.292333 0.732250 0.318000
0.404917 0.736187 0.321875
0.517500 0.740125 0.325750
0.630083 0.744062 0.329625
0.742667 0.748000 0.333500
0.855250 0.751938 0.337375
0.967833 0.755875 0.341250
0.071188 0.834625 0.314125
0.183771 0.838562 0.318000
0.296354 0.842500 0.321875
0.408937 0.846438 0.325750
0.521521 0.850375 0.329625
0.634104 0.854313 0.333500
0.746688 0.858250 0.337375
0.859271 0.862187 0.341250
0.971854 0.866125 0.345125
0.075208 0.944875 0.318000
0.187792 0.948812 0.321875
0.300375 0.952750 0.325750
0.412958 0.956687 0.329625
0.525542 0.960625 0.333500
0.638125 0.964562 0.337375
0.750708 0.968500 0.341250
0.863292 0.972437 0.345125
0.975875 0.976375 0.349000
0.047063 0.066812 0.395500
0.159646 0.070750 0.399375
0.272229 0.074688 0.403250
0.384813 0.078625 0.407125
0.497396 0.082563 0.411000
0.609979 0.086500 0.414875
0.722562 0.090438 0.418750
0.835146 0.094375 0.422625
0.947729 0.098312 0.426500
0.051083 0.177062 0.399375
0.163667 0.181000 0.403250
0.276250 0.184938 0.407125
0.388833 0.188875 0.411000
0.501417 0.192812 0.414875
0.614000 0.196750 0.418750
0.726583 0.200687 0.422625
0.839167 0.204625 0.426500
0.951750 0.208562 0.430375
0.055104 0.287313 0.403250
0.167688 0.291250 0.407125
0.280271 0.295187 0.411000
0.392854 0.299125 0.414875
0.505437 0.303063 0.418750
0.618021 0.307000 0.422625
0.730604 0.310937 0.426500
0.843187 0.314875 0.430375
0.955771 0.318812 0.434250
0.059125 0.397562 0.407125
0.171708 0.401500 0.411000
0.284292 0.405438 0.414875
0.396875 0.409375 0.418750
0.509458 0.413312 0.422625
0.622042 0.417250 0.426500
0.734625 0.421187 0.430375
0.847208 0.425125 0.434250
0.959792 0.429062 0.438125
0.063146 0.507812 0.411000
0.175729 0.511750 0.414875
0.288312 0.515687 0.418750
0.400896 0.519625 0.422625
0.513479 0.523563 0.426500
0.626063 0.527500 0.430375
0.738646 0.531438 0.434250
0.851229 0.535375 0.438125
0.963813 0.539312 0.442000
0.067167 0.618062 0.414875
0.179750 0.622000 0.418750
0.292333 0.625938 0.422625
0.404917 0.629875 0.426500
0.517500 0.633813 0.430375
0.630083 0.637750 0.434250
0.742667 0.641688 0.438125
0.855250 0.645625 0.442000
0.967833 0.649563 0.445875
0.071188 0.728313 0.418750
0.183771 0.732250 0.422625
0.296354 0.736187 0.426500
0.408937 0.740125 0.430375
0.521521 0.744062 0.434250
0.634104 0.748000 0.438125
0.746688 0.751938 0.442000
0.859271 0.755875 0.445875
0.971854 0.759813 0.449750
0.075208 0.838562 0.422625
0.187792 0.842500 0.426500
0.300375 0.846438 0.430375
0.412958 0.850375 0.434250
0.525542 0.854313 0.438125
0.638125 0.858250 0.442000
0.750708 0.862187 0.445875
0.863292 0.866125 0.449750
0.975875 0.870063 0.453625
0.079229 0.948812 0.426500
0.191812 0.952750 0.430375
0.304396 0.956687 0.434250
0.416979 0.960625 0.438125
0.529562 0.964562 0.442000
0.642146 0.968500 0.445875
0.754729 0.972437 0.449750
0.867313 0.976375 0.453625
0.979896 0.980312 0.457500
0.051083 0.070750 0.504000
0.163667 0.074688 0.507875
0.276250 0.078625 0.511750
0.388833 0.082563 0.515625
0.501417 0.086500 0.519500
0.614000 0.090438 0.523375
0.726583 0.094375 0.527250
0.839167 0.098312 0.531125
0.951750 0.102250 0.535000
0.055104 0.181000 0.507875
0.167688 0.184938 0.511750
0.280271 0.188875 0.515625
0.392854 0.192812 0.519500
0.505437 0.196750 0.523375
0.618021 0.200687 0.527250
0.730604 0.204625 0.531125
0.843187 0.208562 0.535000
0.955771 0.212500 0.538875
0.059125 0.291250 0.511750
0.171708 0.295187 0.515625
0.284292 0.299125 0.519500
0.396875 0.303063 0.523375
0.509458 0.307000 0.527250
0.622042 0.310937 0.531125
0.734625 0.314875 0.535000
0.847208 0.318812 0.538875
0.959792 0.322750 0.542750
0.063146 0.401500 0.515625
0.175729 0.405438 0.519500
0.288312 0.409375 0.523375
0.400896 0.413312 0.527250
0.513479 0.417250 0.531125
0.626063 0.421187 0.535000
0.738646 0.425125 0.538875
0.851229 0.429062 0.542750
0.963813 0.433000 0.546625
0.067167 0.511750 0.519500
0.179750 0.515687 0.523375
0.292333 0.519625 0.527250
0.404917 0.523563 0.531125
0.517500 0.527500 0.535000
0.630083 0.531438 0.538875
0.742667 0.535375 0.542750
0.855250 0.539312 0.546625
0.967833 0.543250 0.550500
0.071188 0.622000 0.523375
0.183771 0.625938 0.527250
0.296354 0.629875 0.531125
0.408937 0.633813 0.535000
0.521521 0.637750 0.538875
0.634104 0.641688 0.542750
0.746688 0.645625 0.546625
0.859271 0.649563 0.550500
0.971854 0.653500 0.554375
0.075208 0.732250 0.527250
0.187792 0.736187 0.531125
0.300375 0.740125 0.535000
0.412958 0.744062 0.538875
0.525542 0.748000 0.542750
0.638125 0.751938 0.546625
0.750708 0.755875 0.550500
0.863292 0.759813 0.554375
0.975875 0.763750 0.558250
0.079229 0.842500 0.531125
0.191812 0.846438 0.535000
0.304396 0.850375 0.538875
0.416979 0.854313 0.542750
0.529562 0.858250 0.546625
0.642146 0.862187 0.550500
0.754729 0.866125 0.554375
0.867313 0.870063 0.558250
0.979896 0.874000 0.562125
0.083250 0.952750 0.535000
0.195833 0.956687 0.538875
0.308417 0.960625 0.542750
0.421000 0.964562 0.546625
0.533583 0.968500 0.550500
0.646167 0.972437 0.554375
0.758750 0.976375 0.558250
0.871333 0.980312 0.562125
0.983917 0.984250 0.566000
0.055104 0.074688 0.612500
0.167688 0.078625 0.616375
0.280271 0.082563 0.620250
0.392854 0.086500 0.624125
0.505437 0.090438 0.628000
0.618021 0.094375 0.631875
0.730604 0.098312 0.635750
0.843187 0.102250 0.639625
0.955771 0.106187 0.643500
0.059125 0.184938 0.616375
0.171708 0.188875 0.620250
0.284292 0.192812 0.624125
0.396875 0.196750 0.628000
0.509458 0.200687 0.631875
0.622042 0.204625 0.635750
0.734625 0.208562 0.639625
0.847208 0.212500 0.643500
0.959792 0.216437 0.647375
0.063146 0.295187 0.620250
0.175729 0.299125 0.624125
0.288312 0.303063 0.628000
0.400896 0.307000 0.631875
0.513479 0.310937 0.635750
0.626063 0.314875 0.639625
0.738646 0.318812 0.643500
0.851229 0.322750 0.647375
0.963813 0.326687 0.651250
0.067167 0.405438 0.624125
0.179750 0.409375 0.628000
0.292333 0.413312 0.631875
0.404917 0.417250 0.635750
0.517500 0.421187 0.639625
0.630083 0.425125 0.643500
0.742667 0.429062 0.647375
0.855250 0.433000 0.651250
0.967833 0.436937 0.655125
0.071188 0.515687 0.628000
0.183771 0.519625 0.631875
0.296354 0.523563 0.635750
0.408937 0.527500 0.639625
0.521521 0.531438 0.643500
0.634104 0.535375 0.647375
0.746688 0.539312 0.651250
0.859271 0.543250 0.655125
0.971854 0.547188 0.659000
0.075208 0.625938 0.631875
0.187792 0.629875 0.635750
0.300375 0.633813 0.639625
0.412958 0.637750 0.643500
0.525542 0.641688 0.647375
0.638125 0.645625 0.651250
0.750708 0.649563 0.655125
0.863292 0.653500 0.659000
0.975875 0.657438 0.662875
0.079229 0.736187 0.635750
0.191812 0.740125 0.639625
0.304396 0.744062 0.643500
0.416979 0.748000 0.647375
0.529562 0.751938 0.651250
0.642146 0.755875 0.655125
0.754729 0.759813 0.659000
0.867313 0.763750 0.662875
0.979896 0.767687 0.666750
0.083250 0.846438 0.639625
0.195833 0.850375 0.643500
0.308417 0.854313 0.647375
0.421000 0.858250 0.651250
0.533583 0.862187 0.655125
0.646167 0.866125 0.659000
0.758750 0.870063 0.662875
0.871333 0.874000 0.666750
0.983917 0.877938 0.670625
0.087271 0.956687 0.643500
0.199854 0.960625 0.647375
0.312437 0.964562 0.651250
0.425021 0.968500 0.655125
0.537604 0.972437 0.659000
0.650187 0.976375 0.662875
0.762771 0.980312 0.666750
0.875354 0.984250 0.670625
0.987938 0.988187 0.674500
0.059125 0.078625 0.721000
0.171708 0.082563 0.724875
0.284292 0.086500 0.728750
0.396875 0.090438 0.732625
0.509458 0.094375 0.736500
0.622042 0.098312 0.740375
0.734625 0.102250 0.744250
0.847208 0.106187 0.748125
0.959792 0.110125 0.752000
0.063146 0.188875 0.724875
0.175729 0.192812 0.728750
0.288312 0.196750 0.732625
0.400896 0.200687 0.736500
0.513479 0.204625 0.740375
0.626063 0.208562 0.744250
0.738646 0.212500 0.748125
0.851229 0.216437 0.752000
0.963813 0.220375 0.755875
0.067167 0.299125 0.728750
0.179750 0.303063 0.732625
0.292333 0.307000 0.736500
0.404917 0.310937 0.740375
0.517500 0.314875 0.744250
0.630083 0.318812 0.748125
0.742667 0.322750 0.752000
0.855250 0.326687 0.755875
0.967833 0.330625 0.759750
0.071188 0.409375 0.732625
0.183771 0.413312 0.736500
0.296354 0.417250 0.740375
0.408937 0.421187 0.744250
0.521521 0.425125 0.748125
0.634104 0.429062 0.752000
0.746688 0.433000 0.755875
0.859271 0.436937 0.759750
0.971854 0.440875 0.763625
0.075208 0.519625 0.736500
0.187792 0.523563 0.740375
0.300375 0.527500 0.744250
0.412958 0.531438 0.748125
0.525542 0.535375 0.752000
0.638125 0.539312 0.755875
0.750708 0.543250 0.759750
0.863292 0.547188 0.763625
0.975875 0.551125 0.767500
0.079229 0.629875 0.740375
0.191812 0.633813 0.744250
0.304396 0.637750 0.748125
0.416979 0.641688 0.752000
0.529562 0.645625 0.755875
0.642146 0.649563 0.759750
0.754729 0.653500 0.763625
0.867313 0.657438 0.767500
0.979896 0.661375 0.771375
0.083250 0.740125 0.744250
0.195833 0.744062 0.748125
0.308417 0.748000 0.752000
0.421000 0.751938 0.755875
0.533583 0.755875 0.759750
0.646167 0.759813 0.763625
0.758750 0.763750 0.767500
0.871333 0.767687 0.771375
0.983917 0.771625 0.775250
0.087271 0.850375 0.748125
0.199854 0.854313 0.752000
0.312437 0.858250 0.755875
0.425021 0.862187 0.759750
0.537604 0.866125 0.763625
0.650187 0.870063 0.767500
0.762771 0.874000 0.771375
0.875354 0.877938 0.775250
0.987938 0.881875 0.779125
0.091292 0.960625 0.752000
0.203875 0.964562 0.755875
0.316458 0.968500 0.759750
0.429042 0.972437 0.763625
0.541625 0.976375 0.767500
0.654208 0.980312 0.771375
0.766792 0.984250 0.775250
0.879375 0.988187 0.779125
0.991958 0.992125 0.783000
0.063146 0.082563 0.829500
0.175729 0.086500 0.833375
0.288312 0.090438 0.837250
0.400896 0.094375 0.841125
0.513479 0.098312 0.845000
0.626063 0.102250 0.848875
0.738646 0.106187 0.852750
0.851229 0.110125 0.856625
0.963813 0.114062 0.860500
0.067167 0.192812 0.833375
0.179750 0.196750 0.837250
0.292333 0.200687 0.841125
0.404917 0.204625 0.845000
0.517500 0.208562 0.848875
0.630083 0.212500 0.852750
0.742667 0.216437 0.856625
0.855250 0.220375 0.860500
0.967833 0.224312 0.864375
0.071188 0.303063 0.837250
0.183771 0.307000 0.841125
0.296354 0.310937 0.845000
0.408937 0.314875 0.848875
0.521521 0.318812 0.852750
0.634104 0.322750 0.856625
0.746688 0.326687 0.860500
0.859271 0.330625 0.864375
0.971854 0.334562 0.868250
0.075208 0.413312 0.841125
0.187792 0.417250 0.845000
0.300375 0.421187 0.848875
0.412958 0.425125 0.852750
0.525542 0.429062 0.856625
0.638125 0.433000 0.860500
0.750708 0.436937 0.864375
0.863292 0.440875 0.868250
0.975875 0.444812 0.872125
0.079229 0.523563 0.845000
0.191812 0.527500 0.848875
0.304396 0.531438 0.852750
0.416979 0.535375 0.856625
0.529562 0.539312 0.860500
0.642146 0.543250 0.864375
0.754729 0.547188 0.868250
0.867313 0.551125 0.872125
0.979896 0.555063 0.876000
0.083250 0.633813 0.848875
0.195833 0.637750 0.852750
0.308417 0.641688 0.856625
0.421000 0.645625 0.860500
0.533583 0.649563 0.864375
0.646167 0.653500 0.868250
0.758750 0.657438 0.872125
0.871333 0.661375 0.876000
0.983917 0.665313 0.879875
0.087271 0.744062 0.852750
0.199854 0.748000 0.856625
0.312437 0.751938 0.860500
0.425021 0.755875 0.864375
0.537604 0.759813 0.868250
0.650187 0.763750 0.872125
0.762771 0.767687 0.876000
0.875354 0.771625 0.879875
0.987938 0.775562 0.883750
0.091292 0.854313 0.856625
0.203875 0.858250 0.860500
0.316458 0.862187 0.864375
0.429042 0.866125 0.868250
0.541625 0.870063 0.872125
0.654208 0.874000 0.876000
0.766792 0.877938 0.879875
0.879375 0.881875 0.883750
0.991958 0.885813 0.887625
0.095312 0.964562 0.860500
0.207896 0.968500 0.864375
0.320479 0.972437 0.868250
0.433063 0.976375 0.872125
0.545646 0.980312 0.876000
0.658229 0.984250 0.879875
0.770813 0.988187 0.883750
0.883396 0.992125 0.887625
0.995979 0.996062 0.891500
0.067167 0.086500 0.938000
0.179750 0.090438 0.941875
0.292333 0.094375 0.945750
0.404917 0.098312 0.949625
0.517500 0.102250 0.953500
0.630083 0.106187 0.957375
0.742667 0.110125 0.961250
0.855250 0.114062 0.965125
0.967833 0.118000 0.969000
0.071188 0.196750 0.941875
0.183771 0.200687 0.945750
0.296354 0.204625 0.949625
0.408937 0.208562 0.953500
0.521521 0.212500 0.957375
0.634104 0.216437 0.961250
0.746688 0.220375 0.965125
0.859271 0.224312 0.969000
0.971854 0.228250 0.972875
0.075208 0.307000 0.945750
0.187792 0.310937 0.949625
0.300375 0.314875 0.953500
0.412958 0.318812 0.957375
0.525542 0.322750 0.961250
0.638125 0.326687 0.965125
0.750708 0.330625 0.969000
0.863292 0.334562 0.972875
0.975875 0.338500 0.976750
0.079229 0.417250 0.949625
0.191812 0.421187 0.953500
0.304396 0.425125 0.957375
0.416979 0.429062 0.961250
0.529562 0.433000 0.965125
0.642146 0.436937 0.969000
0.754729 0.440875 0.972875
0.867313 0.444812 0.976750
0.979896 0.448750 0.980625
0.083250 0.527500 0.953500
0.195833 0.531438 0.957375
0.308417 0.535375 0.961250
0.421000 0.539312 0.965125
0.533583 0.543250 0.969000
0.646167 0.547188 0.972875
0.758750 0.551125 0.976750
0.871333 0.555063 0.980625
0.983917 0.559000 0.984500
0.087271 0.637750 0.957375
0.199854 0.641688 0.961250
0.312437 0.645625 0.965125
0.425021 0.649563 0.969000
0.537604 0.653500 0.972875
0.650187 0.657438 0.976750
0.762771 0.661375 0.980625
0.875354 0.665313 0.984500
0.987938 0.669250 0.988375
0.091292 0.748000 0.961250
0.203875 0.751938 0.965125
0.316458 0.755875 0.969000
0.429042 0.759813 0.972875
0.541625 0.763750 0.976750
0.654208 0.767687 0.980625
0.766792 0.771625 0.984500
0.879375 0.775562 0.988375
0.991958 0.779500 0.992250
0.095312 0.858250 0.965125
0.207896 0.862187 0.969000
0.320479 0.866125 0.972875
0.433063 0.870063 0.976750
0.545646 0.874000 0.980625
0.658229 0.877938 0.984500
0.770813 0.881875 0.988375
0.883396 0.885813 0.992250
0.995979 0.889750 0.996125
0.099333 0.968500 0.969000
0.211917 0.972437 0.972875
0.324500 0.976375 0.976750
0.437083 0.980312 0.980625
0.549667 0.984250 0.984500
0.662250 0.988187 0.988375
0.774833 0.992125 0.992250
0.887417 0.996062 0.996125
1.000000 1.000000 1.000000
