src/nazca/luts/faded-film.cube
# nazca bundled look — CC0
TITLE "faded-film"
LUT_3D_SIZE 9
0.080000 0.080000 0.078000
0.210094 0.080000 0.078000
0.327250 0.080000 0.078000
0.435781 0.080000 0.078000
0.540000 0.080000 0.078000
0.644219 0.080000 0.078000
0.752750 0.080000 0.078000
0.869906 0.080000 0.078000
1.000000 0.080000 0.078000
0.080000 0.212549 0.078000
0.210094 0.212549 0.078000
0.327250 0.212549 0.078000
0.435781 0.212549 0.078000
0.540000 0.212549 0.078000
0.644219 0.212549 0.078000
0.752750 0.212549 0.078000
0.869906 0.212549 0.078000
1.000000 0.212549 0.078000
0.080000 0.331728 0.078000
0.210094 0.331728 0.078000
0.327250 0.331728 0.078000
0.435781 0.331728 0.078000
0.540000 0.331728 0.078000
0.644219 0.331728 0.078000
0.752750 0.331728 0.078000
0.869906 0.331728 0.078000
1.000000 0.331728 0.078000
0.080000 0.442113 0.078000
0.210094 0.442113 0.078000
0.327250 0.442113 0.078000
0.435781 0.442113 0.078000
0.540000 0.442113 0.078000
0.644219 0.442113 0.078000
0.752750 0.442113 0.078000
0.869906 0.442113 0.078000
1.000000 0.442113 0.078000
0.080000 0.548280 0.078000
0.210094 0.548280 0.078000
0.327250 0.548280 0.078000
0.435781 0.548280 0.078000
0.540000 0.548280 0.078000
0.644219 0.548280 0.078000
0.752750 0.548280 0.078000
0.869906 0.548280 0.078000
1.000000 0.548280 0.078000
0.080000 0.654807 0.078000
0.210094 0.654807 0.078000
0.327250 0.654807 0.078000
0.435781 0.654807 0.078000
0.540000 0.654807 0.078000
0.644219 0.654807 0.078000
0.752750 0.654807 0.078000
0.869906 0.654807 0.078000
1.000000 0.654807 0.078000
0.080000 0.766268 0.078000
0.210094 0.766268 0.078000
0.327250 0.766268 0.078000
0.435781 0.766268 0.078000
0.540000 0.766268 0.078000
0.644219 0.766268 0.078000
0.752750 0.766268 0.078000
0.869906 0.766268 0.078000
1.000000 0.766268 0.078000
0.080000 0.887242 0.078000
0.210094 0.887242 0.078000
0.327250 0.887242 0.078000
0.435781 0.887242 0.078000
0.540000 0.887242 0.078000
0.644219 0.887242 0.078000
0.752750 0.887242 0.078000
0.869906 0.887242 0.078000
1.000000 0.887242 0.078000
0.080000 1.000000 0.078000
0.210094 1.000000 0.078000
0.327250 1.000000 0.078000
0.435781 1.000000 0.078000
0.540000 1.000000 0.078000
0.644219 1.000000 0.078000
0.752750 1.000000 0.078000
0.869906 1.000000 0.078000
1.000000 1.000000 0.078000
0.080000 0.080000 0.204676
0.210094 0.080000 0.204676
0.327250 0.080000 0.204676
0.435781 0.080000 0.204676
0.540000 0.080000 0.204676
0.644219 0.080000 0.204676
0.752750 0.080000 0.204676
0.869906 0.080000 0.204676
1.000000 0.080000 0.204676
0.080000 0.212549 0.204676
0.210094 0.212549 0.204676
0.327250 0.212549 0.204676
0.435781 0.212549 0.204676
0.540000 0.212549 0.204676
0.644219 0.212549 0.204676
0.752750 0.212549 0.204676
0.869906 0.212549 0.204676
1.000000 0.212549 0.204676
0.080000 0.331728 0.204676
0.210094 0.331728 0.204676
0.327250 0.331728 0.204676
0.435781 0.331728 0.204676
0.540000 0.331728 0.204676
0.644219 0.331728 0.204676
0.752750 0.331728 0.204676
0.869906 0.331728 0.204676
1.000000 0.331728 0.204676
0.080000 0.442113 0.204676
0.210094 0.442113 0.204676
0.327250 0.442113 0.204676
0.435781 0.442113 0.204676
0.540000 0.442113 0.204676
0.644219 0.442113 0.204676
0.752750 0.442113 0.204676
0.869906 0.442113 0.204676
1.000000 0.442113 0.204676
0.080000 0.548280 0.204676
0.210094 0.548280 0.204676
0.327250 0.548280 0.204676
0.435781 0.548280 0.204676
0.540000 0.548280 0.204676
0.644219 0.548280 0.204676
0.752750 0.548280 0.204676
0.869906 0.548280 0.204676
1.000000 0.548280 0.204676
0.080000 0.654807 0.204676
0.210094 0.654807 0.204676
0.327250 0.654807 0.204676
0.435781 0.654807 0.204676
0.540000 0.654807 0.204676
0.644219 0.654807 0.204676
0.752750 0.654807 0.204676
0.869906 0.654807 0.204676
1.000000 0.654807 0.204676
0.080000 0.766268 0.204676
0.210094 0.766268 0.204676
0.327250 0.766268 0.204676
0.435781 0.766268 0.204676
0.540000 0.766268 0.204676
0.644219 0.766268 0.204676
0.752750 0.766268 0.204676
0.869906 0.766268 0.204676
1.000000 0.766268 0.204676
0.080000 0.887242 0.204676
0.210094 0.887242 0.204676
0.327250 0.887242 0.204676
0.435781 0.887242 0.204676
0.540000 0.887242 0.204676
0.644219 0.887242 0.204676
0.752750 0.887242 0.204676
0.869906 0.887242 0.204676
1.000000 0.887242 0.204676
0.080000 1.000000 0.204676
0.210094 1.000000 0.204676
0.327250 1.000000 0.204676
0.435781 1.000000 0.204676
0.540000 1.000000 0.204676
0.644219 1.000000 0.204676
0.752750 1.000000 0.204676
0.869906 1.000000 0.204676
1.000000 1.000000 0.204676
0.080000 0.080000 0.319030
0.210094 0.080000 0.319030
0.327250 0.080000 0.319030
0.435781 0.080000 0.319030
0.540000 0.080000 0.319030
0.644219 0.080000 0.319030
0.752750 0.080000 0.319030
0.869906 0.080000 0.319030
1.000000 0.080000 0.319030
0.080000 0.212549 0.319030
0.210094 0.212549 0.319030
0.327250 0.212549 0.319030
0.435781 0.212549 0.319030
0.540000 0.212549 0.319030
0.644219 0.212549 0.319030
0.752750 0.212549 0.319030
0.869906 0.212549 0.319030
1.000000 0.212549 0.319030
0.080000 0.331728 0.319030
0.210094 0.331728 0.319030
0.327250 0.331728 0.319030
0.435781 0.331728 0.319030
0.540000 0.331728 0.319030
0.644219 0.331728 0.319030
0.752750 0.331728 0.319030
0.869906 0.331728 0.319030
1.000000 0.331728 0.319030
0.080000 0.442113 0.319030
0.210094 0.442113 0.319030
0.327250 0.442113 0.319030
0.435781 0.442113 0.319030
0.540000 0.442113 0.319030
0.644219 0.442113 0.319030
0.752750 0.442113 0.319030
0.869906 0.442113 0.319030
1.000000 0.442113 0.319030
0.080000 0.548280 0.319030
0.210094 0.548280 0.319030
0.327250 0.548280 0.319030
0.435781 0.548280 0.319030
0.540000 0.548280 0.319030
0.644219 0.548280 0.319030
0.752750 0.548280 0.319030
0.869906 0.548280 0.319030
1.000000 0.548280 0.319030
0.080000 0.654807 0.319030
0.210094 0.654807 0.319030
0.327250 0.654807 0.319030
0.435781 0.654807 0.319030
0.540000 0.654807 0.319030
0.644219 0.654807 0.319030
0.752750 0.654807 0.319030
0.869906 0.654807 0.319030
1.000000 0.654807 0.319030
0.080000 0.766268 0.319030
0.210094 0.766268 0.319030
0.327250 0.766268 0.319030
0.435781 0.766268 0.319030
0.540000 0.766268 0.319030
0.644219 0.766268 0.319030
0.752750 0.766268 0.319030
0.869906 0.766268 0.319030
1.000000 0.766268 0.319030
0.080000 0.887242 0.319030
0.210094 0.887242 0.319030
0.327250 0.887242 0.319030
0.435781 0.887242 0.319030
0.540000 0.887242 0.319030
0.644219 0.887242 0.319030
0.752750 0.887242 0.319030
0.869906 0.887242 0.319030
1.000000 0.887242 0.319030
0.080000 1.000000 0.319030
0.210094 1.000000 0.319030
0.327250 1.000000 0.319030
0.435781 1.000000 0.319030
0.540000 1.000000 0.319030
0.644219 1.000000 0.319030
0.752750 1.000000 0.319030
0.869906 1.000000 0.319030
1.000000 1.000000 0.319030
0.080000 0.080000 0.425007
0.210094 0.080000 0.425007
0.327250 0.080000 0.425007
0.435781 0.080000 0.425007
0.540000 0.080000 0.425007
0.644219 0.080000 0.425007
0.752750 0.080000 0.425007
0.869906 0.080000 0.425007
1.000000 0.080000 0.425007
0.080000 0.212549 0.425007
0.210094 0.212549 0.425007
0.327250 0.212549 0.425007
0.435781 0.212549 0.425007
0.540000 0.212549 0.425007
0.644219 0.212549 0.425007
0.752750 0.212549 0.425007
0.869906 0.212549 0.425007
1.000000 0.212549 0.425007
0.080000 0.331728 0.425007
0.210094 0.331728 0.425007
0.327250 0.331728 0.425007
0.435781 0.331728 0.425007
0.540000 0.331728 0.425007
0.644219 0.331728 0.425007
0.752750 0.331728 0.425007
0.869906 0.331728 0.425007
1.000000 0.331728 0.425007
0.080000 0.442113 0.425007
0.210094 0.442113 0.425007
0.327250 0.442113 0.425007
0.435781 0.442113 0.425007
0.540000 0.442113 0.425007
0.644219 0.442113 0.425007
0.752750 0.442113 0.425007
0.869906 0.442113 0.425007
1.000000 0.442113 0.425007
0.080000 0.548280 0.425007
0.210094 0.548280 0.425007
0.327250 0.548280 0.425007
0.435781 0.548280 0.425007
0.540000 0.548280 0.425007
0.644219 0.548280 0.425007
0.752750 0.548280 0.425007
0.869906 0.548280 0.425007
1.000000 0.548280 0.425007
0.080000 0.654807 0.425007
0.210094 0.654807 0.425007
0.327250 0.654807 0.425007
0.435781 0.654807 0.425007
0.540000 0.654807 0.425007
0.644219 0.654807 0.425007
0.752750 0.654807 0.425007
0.869906 0.654807 0.425007
1.000000 0.654807 0.425007
0.080000 0.766268 0.425007
0.210094 0.766268 0.425007
0.327250 0.766268 0.425007
0.435781 0.766268 0.425007
0.540000 0.766268 0.425007
0.644219 0.766268 0.425007
0.752750 0.766268 0.425007
0.869906 0.766268 0.425007
1.000000 0.766268 0.425007
0.080000 0.887242 0.425007
0.210094 0.887242 0.425007
0.327250 0.887242 0.425007
0.435781 0.887242 0.425007
0.540000 0.887242 0.425007
0.644219 0.887242 0.425007
0.752750 0.887242 0.425007
0.869906 0.887242 0.425007
1.000000 0.887242 0.425007
0.080000 1.000000 0.425007
0.210094 1.000000 0.425007
0.327250 1.000000 0.425007
0.435781 1.000000 0.425007
0.540000 1.000000 0.425007
0.644219 1.000000 0.425007
0.752750 1.000000 0.425007
0.869906 1.000000 0.425007
1.000000 1.000000 0.425007
0.080000 0.080000 0.526552
0.210094 0.080000 0.526552
0.327250 0.080000 0.526552
0.435781 0.080000 0.526552
0.540000 0.080000 0.526552
0.644219 0.080000 0.526552
0.752750 0.080000 0.526552
0.869906 0.080000 0.526552
1.000000 0.080000 0.526552
0.080000 0.212549 0.526552
0.210094 0.212549 0.526552
0.327250 0.212549 0.526552
0.435781 0.212549 0.526552
0.540000 0.212549 0.526552
0.644219 0.212549 0.526552
0.752750 0.212549 0.526552
0.869906 0.212549 0.526552
1.000000 0.212549 0.526552
0.080000 0.331728 0.526552
0.210094 0.331728 0.526552
0.327250 0.331728 0.526552
0.435781 0.331728 0.526552
0.540000 0.331728 0.526552
0.644219 0.331728 0.526552
0.752750 0.331728 0.526552
0.869906 0.331728 0.526552
1.000000 0.331728 0.526552
0.080000 0.442113 0.526552
0.210094 0.442113 0.526552
0.327250 0.442113 0.526552
0.435781 0.442113 0.526552
0.540000 0.442113 0.526552
0.644219 0.442113 0.526552
0.752750 0.442113 0.526552
0.869906 0.442113 0.526552
1.000000 0.442113 0.526552
0.080000 0.548280 0.526552
0.210094 0.548280 0.526552
0.327250 0.548280 0.526552
0.435781 0.548280 0.526552
0.540000 0.548280 0.526552
0.644219 0.548280 0.526552
0.752750 0.548280 0.526552
0.869906 0.548280 0.526552
1.000000 0.548280 0.526552
0.080000 0.654807 0.526552
0.210094 0.654807 0.526552
0.327250 0.654807 0.526552
0.435781 0.654807 0.526552
0.540000 0.654807 0.526552
0.644219 0.654807 0.526552
0.752750 0.654807 0.526552
0.869906 0.654807 0.526552
1.000000 0.654807 0.526552
0.080000 0.766268 0.526552
0.210094 0.766268 0.526552
0.327250 0.766268 0.526552
0.435781 0.766268 0.526552
0.540000 0.766268 0.526552
0.644219 0.766268 0.526552
0.752750 0.766268 0.526552
0.869906 0.766268 0.526552
1.000000 0.766268 0.526552
0.080000 0.887242 0.526552
0.210094 0.887242 0.526552
0.327250 0.887242 0.526552
0.435781 0.887242 0.526552
0.540000 0.887242 0.526552
0.644219 0.887242 0.526552
0.752750 0.887242 0.526552
0.869906 0.887242 0.526552
1.000000 0.887242 0.526552
0.080000 1.000000 0.526552
0.210094 1.000000 0.526552
0.327250 1.000000 0.526552
0.435781 1.000000 0.526552
0.540000 1.000000 0.526552
0.644219 1.000000 0.526552
0.752750 1.000000 0.526552
0.869906 1.000000 0.526552
1.000000 1.000000 0.526552
0.080000 0.080000 0.627609
0.210094 0.080000 0.627609
0.327250 0.080000 0.627609
0.435781 0.080000 0.627609
0.540000 0.080000 0.627609
0.644219 0.080000 0.627609
0.752750 0.080000 0.627609
0.869906 0.080000 0.627609
1.000000 0.080000 0.627609
0.080000 0.212549 0.627609
0.210094 0.212549 0.627609
0.327250 0.212549 0.627609
0.435781 0.212549 0.627609
0.540000 0.212549 0.627609
0.644219 0.212549 0.627609
0.752750 0.212549 0.627609
0.869906 0.212549 0.627609
1.000000 0.212549 0.627609
0.080000 0.331728 0.627609
0.210094 0.331728 0.627609
0.327250 0.331728 0.627609
0.435781 0.331728 0.627609
0.540000 0.331728 0.627609
0.644219 0.331728 0.627609
0.752750 0.331728 0.627609
0.869906 0.331728 0.627609
1.000000 0.331728 0.627609
0.080000 0.442113 0.627609
0.210094 0.442113 0.627609
0.327250 0.442113 0.627609
0.435781 0.442113 0.627609
0.540000 0.442113 0.627609
0.644219 0.442113 0.627609
0.752750 0.442113 0.627609
0.869906 0.442113 0.627609
1.000000 0.442113 0.627609
0.080000 0.548280 0.627609
0.210094 0.548280 0.627609
0.327250 0.548280 0.627609
0.435781 0.548280 0.627609
0.540000 0.548280 0.627609
0.644219 0.548280 0.627609
0.752750 0.548280 0.627609
0.869906 0.548280 0.627609
1.000000 0.548280 0.627609
0.080000 0.654807 0.627609
0.210094 0.654807 0.627609
0.327250 0.654807 0.627609
0.435781 0.654807 0.627609
0.540000 0.654807 0.627609
0.644219 0.654807 0.627609
0.752750 0.654807 0.627609
0.869906 0.654807 0.627609
1.000000 0.654807 0.627609
0.080000 0.766268 0.627609
0.210094 0.766268 0.627609
0.327250 0.766268 0.627609
0.435781 0.766268 0.627609
0.540000 0.766268 0.627609
0.644219 0.766268 0.627609
0.752750 0.766268 0.627609
0.869906 0.766268 0.627609
1.000000 0.766268 0.627609
0.080000 0.887242 0.627609
0.210094 0.887242 0.627609
0.327250 0.887242 0.627609
0.435781 0.887242 0.627609
0.540000 0.887242 0.627609
0.644219 0.887242 0.627609
0.752750 0.887242 0.627609
0.869906 0.887242 0.627609
1.000000 0.887242 0.627609
0.080000 1.000000 0.627609
0.210094 1.000000 0.627609
0.327250 1.000000 0.627609
0.435781 1.000000 0.627609
0.540000 1.000000 0.627609
0.644219 1.000000 0.627609
0.752750 1.000000 0.627609
0.869906 1.000000 0.627609
1.000000 1.000000 0.627609
0.080000 0.080000 0.732122
0.210094 0.080000 0.732122
0.327250 0.080000 0.732122
0.435781 0.080000 0.732122
0.540000 0.080000 0.732122
0.644219 0.080000 0.732122
0.752750 0.080000 0.732122
0.869906 0.080000 0.732122
1.000000 0.080000 0.732122
0.080000 0.212549 0.732122
0.210094 0.212549 0.732122
0.327250 0.212549 0.732122
0.435781 0.212549 0.732122
0.540000 0.212549 0.732122
0.644219 0.212549 0.732122
0.752750 0.212549 0.732122
0.869906 0.212549 0.732122
1.000000 0.212549 0.732122
0.080000 0.331728 0.732122
0.210094 0.331728 0.732122
0.327250 0.331728 0.732122
0.435781 0.331728 0.732122
0.540000 0.331728 0.732122
0.644219 0.331728 0.732122
0.752750 0.331728 0.732122
0.869906 0.331728 0.732122
1.000000 0.331728 0.732122
0.080000 0.442113 0.732122
0.210094 0.442113 0.732122
0.327250 0.442113 0.732122
0.435781 0.442113 0.732122
0.540000 0.442113 0.732122
0.644219 0.442113 0.732122
0.752750 0.442113 0.732122
0.869906 0.442113 0.732122
1.000000 0.442113 0.732122
0.080000 0.548280 0.732122
0.210094 0.548280 0.732122
0.327250 0.548280 0.732122
0.435781 0.548280 0.732122
0.540000 0.548280 0.732122
0.644219 0.548280 0.732122
0.752750 0.548280 0.732122
0.869906 0.548280 0.732122
1.000000 0.548280 0.732122
0.080000 0.654807 0.732122
0.210094 0.654807 0.732122
0.327250 0.654807 0.732122
0.435781 0.654807 0.732122
0.540000 0.654807 0.732122
0.644219 0.654807 0.732122
0.752750 0.654807 0.732122
0.869906 0.654807 0.732122
1.000000 0.654807 0.732122
0.080000 0.766268 0.732122
0.210094 0.766268 0.732122
0.327250 0.766268 0.732122
0.435781 0.766268 0.732122
0.540000 0.766268 0.732122
0.644219 0.766268 0.732122
0.752750 0.766268 0.732122
0.869906 0.766268 0.732122
1.000000 0.766268 0.732122
0.080000 0.887242 0.732122
0.210094 0.887242 0.732122
0.327250 0.887242 0.732122
0.435781 0.887242 0.732122
0.540000 0.887242 0.732122
0.644219 0.887242 0.732122
0.752750 0.887242 0.732122
0.869906 0.887242 0.732122
1.000000 0.887242 0.732122
0.080000 1.000000 0.732122
0.210094 1.000000 0.732122
0.327250 1.000000 0.732122
0.435781 1.000000 0.732122
0.540000 1.000000 0.732122
0.644219 1.000000 0.732122
0.752750 1.000000 0.732122
0.869906 1.000000 0.732122
1.000000 1.000000 0.732122
0.080000 0.080000 0.844036
0.210094 0.080000 0.844036
0.327250 0.080000 0.844036
0.435781 0.080000 0.844036
0.540000 0.080000 0.844036
0.644219 0.080000 0.844036
0.752750 0.080000 0.844036
0.869906 0.080000 0.844036
1.000000 0.080000 0.844036
0.080000 0.212549 0.844036
0.210094 0.212549 0.844036
0.327250 0.212549 0.844036
0.435781 0.212549 0.844036
0.540000 0.212549 0.844036
0.644219 0.212549 0.844036
0.752750 0.212549 0.844036
0.869906 0.212549 0.844036
1.000000 0.212549 0.844036
0.080000 0.331728 0.844036
0.210094 0.331728 0.844036
0.327250 0.331728 0.844036
0.435781 0.331728 0.844036
0.540000 0.331728 0.844036
0.644219 0.331728 0.844036
0.752750 0.331728 0.844036
0.869906 0.331728 0.844036
1.000000 0.331728 0.844036
0.080000 0.442113 0.844036
0.210094 0.442113 0.844036
0.327250 0.442113 0.844036
0.435781 0.442113 0.844036
0.540000 0.442113 0.844036
0.644219 0.442113 0.844036
0.752750 0.442113 0.844036
0.869906 0.442113 0.844036
1.000000 0.442113 0.844036
0.080000 0.548280 0.844036
0.210094 0.548280 0.844036
0.327250 0.548280 0.844036
0.435781 0.548280 0.844036
0.540000 0.548280 0.844036
0.644219 0.548280 0.844036
0.752750 0.548280 0.844036
0.869906 0.548280 0.844036
1.000000 0.548280 0.844036
0.080000 0.654807 0.844036
0.210094 0.654807 0.844036
0.327250 0.654807 0.844036
0.435781 0.654807 0.844036
0.540000 0.654807 0.844036
0.644219 0.654807 0.844036
0.752750 0.654807 0.844036
0.869906 0.654807 0.844036
1.000000 0.654807 0.844036
0.080000 0.766268 0.844036
0.210094 0.766268 0.844036
0.327250 0.766268 0.844036
0.435781 0.766268 0.844036
0.540000 0.766268 0.844036
0.644219 0.766268 0.844036
0.752750 0.766268 0.844036
0.869906 0.766268 0.844036
1.000000 0.766268 0.844036
0.080000 0.887242 0.844036
0.210094 0.887242 0.844036
0.327250 0.887242 0.844036
0.435781 0.887242 0.844036
0.540000 0.887242 0.844036
0.644219 0.887242 0.844036
0.752750 0.887242 0.844036
0.869906 0.887242 0.844036
1.000000 0.887242 0.844036
0.080000 1.000000 0.844036
0.210094 1.000000 0.844036
0.327250 1.000000 0.844036
0.435781 1.000000 0.844036
0.540000 1.000000 0.844036
0.644219 1.000000 0.844036
0.752750 1.000000 0.844036
0.869906 1.000000 0.844036
1.000000 1.000000 0.844036
0.080000 0.080000 0.967296
0.210094 0.080000 0.967296
0.327250 0.080000 0.967296
0.435781 0.080000 0.967296
0.540000 0.080000 0.967296
0.644219 0.080000 0.967296
0.752750 0.080000 0.967296
0.869906 0.080000 0.967296
1.000000 0.080000 0.967296
0.080000 0.212549 0.967296
0.210094 0.212549 0.967296
0.327250 0.212549 0.967296
0.435781 0.212549 0.967296
0.540000 0.212549 0.967296
0.644219 0.212549 0.967296
0.752750 0.212549 0.967296
0.869906 0.212549 0.967296
1.000000 0.212549 0.967296
0.080000 0.331728 0.967296
0.210094 0.331728 0.967296
0.327250 0.331728 0.967296
0.435781 0.331728 0.967296
0.540000 0.331728 0.967296
0.644219 0.331728 0.967296
0.752750 0.331728 0.967296
0.869906 0.331728 0.967296
1.000000 0.331728 0.967296
0.080000 0.442113 0.967296
0.210094 0.442113 0.967296
0.327250 0.442113 0.967296
0.435781 0.442113 0.967296
0.540000 0.442113 0.967296
0.644219 0.442113 0.967296
0.752750 0.442113 0.967296
0.869906 0.442113 0.967296
1.000000 0.442113 0.967296
0.080000 0.548280 0.967296
0.210094 0.548280 0.967296
0.327250 0.548280 0.967296
0.435781 0.548280 0.967296
0.540000 0.548280 0.967296
0.644219 0.548280 0.967296
0.752750 0.548280 0.967296
0.869906 0.548280 0.967296
1.000000 0.548280 0.967296
0.080000 0.654807 0.967296
0.210094 0.654807 0.967296
0.327250 0.654807 0.967296
0.435781 0.654807 0.967296
0.540000 0.654807 0.967296
0.644219 0.654807 0.967296
0.752750 0.654807 0.967296
0.869906 0.654807 0.967296
1.000000 0.654807 0.967296
0.080000 0.766268 0.967296
0.210094 0.766268 0.967296
0.327250 0.766268 0.967296
0.435781 0.766268 0.967296
0.540000 0.766268 0.967296
0.644219 0.766268 0.967296
0.752750 0.766268 0.967296
0.869906 0.766268 0.967296
1.000000 0.766268 0.967296
0.080000 0.887242 0.967296
0.210094 0.887242 0.967296
0.327250 0.887242 0.967296
0.435781 0.887242 0.967296
0.540000 0.887242 0.967296
0.644219 0.887242 0.967296
0.752750 0.887242 0.967296
0.869906 0.887242 0.967296
1.000000 0.887242 0.967296
0.080000 1.000000 0.967296
0.210094 1.000000 0.967296
0.327250 1.000000 0.967296
0.435781 1.000000 0.967296
0.540000 1.000000 0.967296
0.644219 1.000000 0.967296
0.752750 1.000000 0.967296
0.869906 1.000000 0.967296
1.000000 1.000000 0.967296
