src/nazca/luts/faded-film.cube
# nazca bundled look — CC0
TITLE "faded-film"
LUT_3D_SIZE 17
0.080000 0.080000 0.078000
0.146934 0.080000 0.078000
0.210094 0.080000 0.078000
0.270020 0.080000 0.078000
0.327250 0.080000 0.078000
0.382324 0.080000 0.078000
0.435781 0.080000 0.078000
0.488160 0.080000 0.078000
0.540000 0.080000 0.078000
0.591840 0.080000 0.078000
0.644219 0.080000 0.078000
0.697676 0.080000 0.078000
0.752750 0.080000 0.078000
0.809980 0.080000 0.078000
0.869906 0.080000 0.078000
0.933066 0.080000 0.078000
1.000000 0.080000 0.078000
0.080000 0.148232 0.078000
0.146934 0.148232 0.078000
0.210094 0.148232 0.078000
0.270020 0.148232 0.078000
0.327250 0.148232 0.078000
0.382324 0.148232 0.078000
0.435781 0.148232 0.078000
0.488160 0.148232 0.078000
0.540000 0.148232 0.078000
0.591840 0.148232 0.078000
0.644219 0.148232 0.078000
0.697676 0.148232 0.078000
0.752750 0.148232 0.078000
0.809980 0.148232 0.078000
0.869906 0.148232 0.078000
0.933066 0.148232 0.078000
1.000000 0.148232 0.078000
0.080000 0.212549 0.078000
0.146934 0.212549 0.078000
0.210094 0.212549 0.078000
0.270020 0.212549 0.078000
0.327250 0.212549 0.078000
0.382324 0.212549 0.078000
0.435781 0.212549 0.078000
0.488160 0.212549 0.078000
0.540000 0.212549 0.078000
0.591840 0.212549 0.078000
0.644219 0.212549 0.078000
0.697676 0.212549 0.078000
0.752750 0.212549 0.078000
0.809980 0.212549 0.078000
0.869906 0.212549 0.078000
0.933066 0.212549 0.078000
1.000000 0.212549 0.078000
0.080000 0.273524 0.078000
0.146934 0.273524 0.078000
0.210094 0.273524 0.078000
0.270020 0.273524 0.078000
0.327250 0.273524 0.078000
0.382324 0.273524 0.078000
0.435781 0.273524 0.078000
0.488160 0.273524 0.078000
0.540000 0.273524 0.078000
0.591840 0.273524 0.078000
0.644219 0.273524 0.078000
0.697676 0.273524 0.078000
0.752750 0.273524 0.078000
0.809980 0.273524 0.078000
0.869906 0.273524 0.078000
0.933066 0.273524 0.078000
1.000000 0.273524 0.078000
0.080000 0.331728 0.078000
0.146934 0.331728 0.078000
0.210094 0.331728 0.078000
0.270020 0.331728 0.078000
0.327250 0.331728 0.078000
0.382324 0.331728 0.078000
0.435781 0.331728 0.078000
0.488160 0.331728 0.078000
0.540000 0.331728 0.078000
0.591840 0.331728 0.078000
0.644219 0.331728 0.078000
0.697676 0.331728 0.078000
0.752750 0.331728 0.078000
0.809980 0.331728 0.078000
0.869906 0.331728 0.078000
0.933066 0.331728 0.078000
1.000000 0.331728 0.078000
0.080000 0.387734 0.078000
0.146934 0.387734 0.078000
0.210094 0.387734 0.078000
0.270020 0.387734 0.078000
0.327250 0.387734 0.078000
0.382324 0.387734 0.078000
0.435781 0.387734 0.078000
0.488160 0.387734 0.078000
0.540000 0.387734 0.078000
0.591840 0.387734 0.078000
0.644219 0.387734 0.078000
0.697676 0.387734 0.078000
0.752750 0.387734 0.078000
0.809980 0.387734 0.078000
0.869906 0.387734 0.078000
0.933066 0.387734 0.078000
1.000000 0.387734 0.078000
0.080000 0.442113 0.078000
0.146934 0.442113 0.078000
0.210094 0.442113 0.078000
0.270020 0.442113 0.078000
0.327250 0.442113 0.078000
0.382324 0.442113 0.078000
0.435781 0.442113 0.078000
0.488160 0.442113 0.078000
0.540000 0.442113 0.078000
0.591840 0.442113 0.078000
0.644219 0.442113 0.078000
0.697676 0.442113 0.078000
0.752750 0.442113 0.078000
0.809980 0.442113 0.078000
0.869906 0.442113 0.078000
0.933066 0.442113 0.078000
1.000000 0.442113 0.078000
0.080000 0.495438 0.078000
0.146934 0.495438 0.078000
0.210094 0.495438 0.078000
0.270020 0.495438 0.078000
0.327250 0.495438 0.078000
0.382324 0.495438 0.078000
0.435781 0.495438 0.078000
0.488160 0.495438 0.078000
0.540000 0.495438 0.078000
0.591840 0.495438 0.078000
0.644219 0.495438 0.078000
0.697676 0.495438 0.078000
0.752750 0.495438 0.078000
0.809980 0.495438 0.078000
0.869906 0.495438 0.078000
0.933066 0.495438 0.078000
1.000000 0.495438 0.078000
0.080000 0.548280 0.078000
0.146934 0.548280 0.078000
0.210094 0.548280 0.078000
0.270020 0.548280 0.078000
0.327250 0.548280 0.078000
0.382324 0.548280 0.078000
0.435781 0.548280 0.078000
0.488160 0.548280 0.078000
0.540000 0.548280 0.078000
0.591840 0.548280 0.078000
0.644219 0.548280 0.078000
0.697676 0.548280 0.078000
0.752750 0.548280 0.078000
0.809980 0.548280 0.078000
0.869906 0.548280 0.078000
0.933066 0.548280 0.078000
1.000000 0.548280 0.078000
0.080000 0.601213 0.078000
0.146934 0.601213 0.078000
0.210094 0.601213 0.078000
0.270020 0.601213 0.078000
0.327250 0.601213 0.078000
0.382324 0.601213 0.078000
0.435781 0.601213 0.078000
0.488160 0.601213 0.078000
0.540000 0.601213 0.078000
0.591840 0.601213 0.078000
0.644219 0.601213 0.078000
0.697676 0.601213 0.078000
0.752750 0.601213 0.078000
0.809980 0.601213 0.078000
0.869906 0.601213 0.078000
0.933066 0.601213 0.078000
1.000000 0.601213 0.078000
0.080000 0.654807 0.078000
0.146934 0.654807 0.078000
0.210094 0.654807 0.078000
0.270020 0.654807 0.078000
0.327250 0.654807 0.078000
0.382324 0.654807 0.078000
0.435781 0.654807 0.078000
0.488160 0.654807 0.078000
0.540000 0.654807 0.078000
0.591840 0.654807 0.078000
0.644219 0.654807 0.078000
0.697676 0.654807 0.078000
0.752750 0.654807 0.078000
0.809980 0.654807 0.078000
0.869906 0.654807 0.078000
0.933066 0.654807 0.078000
1.000000 0.654807 0.078000
0.080000 0.709635 0.078000
0.146934 0.709635 0.078000
0.210094 0.709635 0.078000
0.270020 0.709635 0.078000
0.327250 0.709635 0.078000
0.382324 0.709635 0.078000
0.435781 0.709635 0.078000
0.488160 0.709635 0.078000
0.540000 0.709635 0.078000
0.591840 0.709635 0.078000
0.644219 0.709635 0.078000
0.697676 0.709635 0.078000
0.752750 0.709635 0.078000
0.809980 0.709635 0.078000
0.869906 0.709635 0.078000
0.933066 0.709635 0.078000
1.000000 0.709635 0.078000
0.080000 0.766268 0.078000
0.146934 0.766268 0.078000
0.210094 0.766268 0.078000
0.270020 0.766268 0.078000
0.327250 0.766268 0.078000
0.382324 0.766268 0.078000
0.435781 0.766268 0.078000
0.488160 0.766268 0.078000
0.540000 0.766268 0.078000
0.591840 0.766268 0.078000
0.644219 0.766268 0.078000
0.697676 0.766268 0.078000
0.752750 0.766268 0.078000
0.809980 0.766268 0.078000
0.869906 0.766268 0.078000
0.933066 0.766268 0.078000
1.000000 0.766268 0.078000
0.080000 0.825280 0.078000
0.146934 0.825280 0.078000
0.210094 0.825280 0.078000
0.270020 0.825280 0.078000
0.327250 0.825280 0.078000
0.382324 0.825280 0.078000
0.435781 0.825280 0.078000
0.488160 0.825280 0.078000
0.540000 0.825280 0.078000
0.591840 0.825280 0.078000
0.644219 0.825280 0.078000
0.697676 0.825280 0.078000
0.752750 0.825280 0.078000
0.809980 0.825280 0.078000
0.869906 0.825280 0.078000
0.933066 0.825280 0.078000
1.000000 0.825280 0.078000
0.080000 0.887242 0.078000
0.146934 0.887242 0.078000
0.210094 0.887242 0.078000
0.270020 0.887242 0.078000
0.327250 0.887242 0.078000
0.382324 0.887242 0.078000
0.435781 0.887242 0.078000
0.488160 0.887242 0.078000
0.540000 0.887242 0.078000
0.591840 0.887242 0.078000
0.644219 0.887242 0.078000
0.697676 0.887242 0.078000
0.752750 0.887242 0.078000
0.809980 0.887242 0.078000
0.869906 0.887242 0.078000
0.933066 0.887242 0.078000
1.000000 0.887242 0.078000
0.080000 0.952726 0.078000
0.146934 0.952726 0.078000
0.210094 0.952726 0.078000
0.270020 0.952726 0.078000
0.327250 0.952726 0.078000
0.382324 0.952726 0.078000
0.435781 0.952726 0.078000
0.488160 0.952726 0.078000
0.540000 0.952726 0.078000
0.591840 0.952726 0.078000
0.644219 0.952726 0.078000
0.697676 0.952726 0.078000
0.752750 0.952726 0.078000
0.809980 0.952726 0.078000
0.869906 0.952726 0.078000
0.933066 0.952726 0.078000
1.000000 0.952726 0.078000
0.080000 1.000000 0.078000
0.146934 1.000000 0.078000
0.210094 1.000000 0.078000
0.270020 1.000000 0.078000
0.327250 1.000000 0.078000
0.382324 1.000000 0.078000
0.435781 1.000000 0.078000
0.488160 1.000000 0.078000
0.540000 1.000000 0.078000
0.591840 1.000000 0.078000
0.644219 1.000000 0.078000
0.697676 1.000000 0.078000
0.752750 1.000000 0.078000
0.809980 1.000000 0.078000
0.869906 1.000000 0.078000
0.933066 1.000000 0.078000
1.000000 1.000000 0.078000
0.080000 0.080000 0.143124
0.146934 0.080000 0.143124
0.210094 0.080000 0.143124
0.270020 0.080000 0.143124
0.327250 0.080000 0.143124
0.382324 0.080000 0.143124
0.435781 0.080000 0.143124
0.488160 0.080000 0.143124
0.540000 0.080000 0.143124
0.591840 0.080000 0.143124
0.644219 0.080000 0.143124
0.697676 0.080000 0.143124
0.752750 0.080000 0.143124
0.809980 0.080000 0.143124
0.869906 0.080000 0.143124
0.933066 0.080000 0.143124
1.000000 0.080000 0.143124
0.080000 0.148232 0.143124
0.146934 0.148232 0.143124
0.210094 0.148232 0.143124
0.270020 0.148232 0.143124
0.327250 0.148232 0.143124
0.382324 0.148232 0.143124
0.435781 0.148232 0.143124
0.488160 0.148232 0.143124
0.540000 0.148232 0.143124
0.591840 0.148232 0.143124
0.644219 0.148232 0.143124
0.697676 0.148232 0.143124
0.752750 0.148232 0.143124
0.809980 0.148232 0.143124
0.869906 0.148232 0.143124
0.933066 0.148232 0.143124
1.000000 0.148232 0.143124
0.080000 0.212549 0.143124
0.146934 0.212549 0.143124
0.210094 0.212549 0.143124
0.270020 0.212549 0.143124
0.327250 0.212549 0.143124
0.382324 0.212549 0.143124
0.435781 0.212549 0.143124
0.488160 0.212549 0.143124
0.540000 0.212549 0.143124
0.591840 0.212549 0.143124
0.644219 0.212549 0.143124
0.697676 0.212549 0.143124
0.752750 0.212549 0.143124
0.809980 0.212549 0.143124
0.869906 0.212549 0.143124
0.933066 0.212549 0.143124
1.000000 0.212549 0.143124
0.080000 0.273524 0.143124
0.146934 0.273524 0.143124
0.210094 0.273524 0.143124
0.270020 0.273524 0.143124
0.327250 0.273524 0.143124
0.382324 0.273524 0.143124
0.435781 0.273524 0.143124
0.488160 0.273524 0.143124
0.540000 0.273524 0.143124
0.591840 0.273524 0.143124
0.644219 0.273524 0.143124
0.697676 0.273524 0.143124
0.752750 0.273524 0.143124
0.809980 0.273524 0.143124
0.869906 0.273524 0.143124
0.933066 0.273524 0.143124
1.000000 0.273524 0.143124
0.080000 0.331728 0.143124
0.146934 0.331728 0.143124
0.210094 0.331728 0.143124
0.270020 0.331728 0.143124
0.327250 0.331728 0.143124
0.382324 0.331728 0.143124
0.435781 0.331728 0.143124
0.488160 0.331728 0.143124
0.540000 0.331728 0.143124
0.591840 0.331728 0.143124
0.644219 0.331728 0.143124
0.697676 0.331728 0.143124
0.752750 0.331728 0.143124
0.809980 0.331728 0.143124
0.869906 0.331728 0.143124
0.933066 0.331728 0.143124
1.000000 0.331728 0.143124
0.080000 0.387734 0.143124
0.146934 0.387734 0.143124
0.210094 0.387734 0.143124
0.270020 0.387734 0.143124
0.327250 0.387734 0.143124
0.382324 0.387734 0.143124
0.435781 0.387734 0.143124
0.488160 0.387734 0.143124
0.540000 0.387734 0.143124
0.591840 0.387734 0.143124
0.644219 0.387734 0.143124
0.697676 0.387734 0.143124
0.752750 0.387734 0.143124
0.809980 0.387734 0.143124
0.869906 0.387734 0.143124
0.933066 0.387734 0.143124
1.000000 0.387734 0.143124
0.080000 0.442113 0.143124
0.146934 0.442113 0.143124
0.210094 0.442113 0.143124
0.270020 0.442113 0.143124
0.327250 0.442113 0.143124
0.382324 0.442113 0.143124
0.435781 0.442113 0.143124
0.488160 0.442113 0.143124
0.540000 0.442113 0.143124
0.591840 0.442113 0.143124
0.644219 0.442113 0.143124
0.697676 0.442113 0.143124
0.752750 0.442113 0.143124
0.809980 0.442113 0.143124
0.869906 0.442113 0.143124
0.933066 0.442113 0.143124
1.000000 0.442113 0.143124
0.080000 0.495438 0.143124
0.146934 0.495438 0.143124
0.210094 0.495438 0.143124
0.270020 0.495438 0.143124
0.327250 0.495438 0.143124
0.382324 0.495438 0.143124
0.435781 0.495438 0.143124
0.488160 0.495438 0.143124
0.540000 0.495438 0.143124
0.591840 0.495438 0.143124
0.644219 0.495438 0.143124
0.697676 0.495438 0.143124
0.752750 0.495438 0.143124
0.809980 0.495438 0.143124
0.869906 0.495438 0.143124
0.933066 0.495438 0.143124
1.000000 0.495438 0.143124
0.080000 0.548280 0.143124
0.146934 0.548280 0.143124
0.210094 0.548280 0.143124
0.270020 0.548280 0.143124
0.327250 0.548280 0.143124
0.382324 0.548280 0.143124
0.435781 0.548280 0.143124
0.488160 0.548280 0.143124
0.540000 0.548280 0.143124
0.591840 0.548280 0.143124
0.644219 0.548280 0.143124
0.697676 0.548280 0.143124
0.752750 0.548280 0.143124
0.809980 0.548280 0.143124
0.869906 0.548280 0.143124
0.933066 0.548280 0.143124
1.000000 0.548280 0.143124
0.080000 0.601213 0.143124
0.146934 0.601213 0.143124
0.210094 0.601213 0.143124
0.270020 0.601213 0.143124
0.327250 0.601213 0.143124
0.382324 0.601213 0.143124
0.435781 0.601213 0.143124
0.488160 0.601213 0.143124
0.540000 0.601213 0.143124
0.591840 0.601213 0.143124
0.644219 0.601213 0.143124
0.697676 0.601213 0.143124
0.752750 0.601213 0.143124
0.809980 0.601213 0.143124
0.869906 0.601213 0.143124
0.933066 0.601213 0.143124
1.000000 0.601213 0.143124
0.080000 0.654807 0.143124
0.146934 0.654807 0.143124
0.210094 0.654807 0.143124
0.270020 0.654807 0.143124
0.327250 0.654807 0.143124
0.382324 0.654807 0.143124
0.435781 0.654807 0.143124
0.488160 0.654807 0.143124
0.540000 0.654807 0.143124
0.591840 0.654807 0.143124
0.644219 0.654807 0.143124
0.697676 0.654807 0.143124
0.752750 0.654807 0.143124
0.809980 0.654807 0.143124
0.869906 0.654807 0.143124
0.933066 0.654807 0.143124
1.000000 0.654807 0.143124
0.080000 0.709635 0.143124
0.146934 0.709635 0.143124
0.210094 0.709635 0.143124
0.270020 0.709635 0.143124
0.327250 0.709635 0.143124
0.382324 0.709635 0.143124
0.435781 0.709635 0.143124
0.488160 0.709635 0.143124
0.540000 0.709635 0.143124
0.591840 0.709635 0.143124
0.644219 0.709635 0.143124
0.697676 0.709635 0.143124
0.752750 0.709635 0.143124
0.809980 0.709635 0.143124
0.869906 0.709635 0.143124
0.933066 0.709635 0.143124
1.000000 0.709635 0.143124
0.080000 0.766268 0.143124
0.146934 0.766268 0.143124
0.210094 0.766268 0.143124
0.270020 0.766268 0.143124
0.327250 0.766268 0.143124
0.382324 0.766268 0.143124
0.435781 0.766268 0.143124
0.488160 0.766268 0.143124
0.540000 0.766268 0.143124
0.591840 0.766268 0.143124
0.644219 0.766268 0.143124
0.697676 0.766268 0.143124
0.752750 0.766268 0.143124
0.809980 0.766268 0.143124
0.869906 0.766268 0.143124
0.933066 0.766268 0.143124
1.000000 0.766268 0.143124
0.080000 0.825280 0.143124
0.146934 0.825280 0.143124
0.210094 0.825280 0.143124
0.270020 0.825280 0.143124
0.327250 0.825280 0.143124
0.382324 0.825280 0.143124
0.435781 0.825280 0.143124
0.488160 0.825280 0.143124
0.540000 0.825280 0.143124
0.591840 0.825280 0.143124
0.644219 0.825280 0.143124
0.697676 0.825280 0.143124
0.752750 0.825280 0.143124
0.809980 0.825280 0.143124
0.869906 0.825280 0.143124
0.933066 0.825280 0.143124
1.000000 0.825280 0.143124
0.080000 0.887242 0.143124
0.146934 0.887242 0.143124
0.210094 0.887242 0.143124
0.270020 0.887242 0.143124
0.327250 0.887242 0.143124
0.382324 0.887242 0.143124
0.435781 0.887242 0.143124
0.488160 0.887242 0.143124
0.540000 0.887242 0.143124
0.591840 0.887242 0.143124
0.644219 0.887242 0.143124
0.697676 0.887242 0.143124
0.752750 0.887242 0.143124
0.809980 0.887242 0.143124
0.869906 0.887242 0.143124
0.933066 0.887242 0.143124
1.000000 0.887242 0.143124
0.080000 0.952726 0.143124
0.146934 0.952726 0.143124
0.210094 0.952726 0.143124
0.270020 0.952726 0.143124
0.327250 0.952726 0.143124
0.382324 0.952726 0.143124
0.435781 0.952726 0.143124
0.488160 0.952726 0.143124
0.540000 0.952726 0.143124
0.591840 0.952726 0.143124
0.644219 0.952726 0.143124
0.697676 0.952726 0.143124
0.752750 0.952726 0.143124
0.809980 0.952726 0.143124
0.869906 0.952726 0.143124
0.933066 0.952726 0.143124
1.000000 0.952726 0.143124
0.080000 1.000000 0.143124
0.146934 1.000000 0.143124
0.210094 1.000000 0.143124
0.270020 1.000000 0.143124
0.327250 1.000000 0.143124
0.382324 1.000000 0.143124
0.435781 1.000000 0.143124
0.488160 1.000000 0.143124
0.540000 1.000000 0.143124
0.591840 1.000000 0.143124
0.644219 1.000000 0.143124
0.697676 1.000000 0.143124
0.752750 1.000000 0.143124
0.809980 1.000000 0.143124
0.869906 1.000000 0.143124
0.933066 1.000000 0.143124
1.000000 1.000000 0.143124
0.080000 0.080000 0.204676
0.146934 0.080000 0.204676
0.210094 0.080000 0.204676
0.270020 0.080000 0.204676
0.327250 0.080000 0.204676
0.382324 0.080000 0.204676
0.435781 0.080000 0.204676
0.488160 0.080000 0.204676
0.540000 0.080000 0.204676
0.591840 0.080000 0.204676
0.644219 0.080000 0.204676
0.697676 0.080000 0.204676
0.752750 0.080000 0.204676
0.809980 0.080000 0.204676
0.869906 0.080000 0.204676
0.933066 0.080000 0.204676
1.000000 0.080000 0.204676
0.080000 0.148232 0.204676
0.146934 0.148232 0.204676
0.210094 0.148232 0.204676
0.270020 0.148232 0.204676
0.327250 0.148232 0.204676
0.382324 0.148232 0.204676
0.435781 0.148232 0.204676
0.488160 0.148232 0.204676
0.540000 0.148232 0.204676
0.591840 0.148232 0.204676
0.644219 0.148232 0.204676
0.697676 0.148232 0.204676
0.752750 0.148232 0.204676
0.809980 0.148232 0.204676
0.869906 0.148232 0.204676
0.933066 0.148232 0.204676
1.000000 0.148232 0.204676
0.080000 0.212549 0.204676
0.146934 0.212549 0.204676
0.210094 0.212549 0.204676
0.270020 0.212549 0.204676
0.327250 0.212549 0.204676
0.382324 0.212549 0.204676
0.435781 0.212549 0.204676
0.488160 0.212549 0.204676
0.540000 0.212549 0.204676
0.591840 0.212549 0.204676
0.644219 0.212549 0.204676
0.697676 0.212549 0.204676
0.752750 0.212549 0.204676
0.809980 0.212549 0.204676
0.869906 0.212549 0.204676
0.933066 0.212549 0.204676
1.000000 0.212549 0.204676
0.080000 0.273524 0.204676
0.146934 0.273524 0.204676
0.210094 0.273524 0.204676
0.270020 0.273524 0.204676
0.327250 0.273524 0.204676
0.382324 0.273524 0.204676
0.435781 0.273524 0.204676
0.488160 0.273524 0.204676
0.540000 0.273524 0.204676
0.591840 0.273524 0.204676
0.644219 0.273524 0.204676
0.697676 0.273524 0.204676
0.752750 0.273524 0.204676
0.809980 0.273524 0.204676
0.869906 0.273524 0.204676
0.933066 0.273524 0.204676
1.000000 0.273524 0.204676
0.080000 0.331728 0.204676
0.146934 0.331728 0.204676
0.210094 0.331728 0.204676
0.270020 0.331728 0.204676
0.327250 0.331728 0.204676
0.382324 0.331728 0.204676
0.435781 0.331728 0.204676
0.488160 0.331728 0.204676
0.540000 0.331728 0.204676
0.591840 0.331728 0.204676
0.644219 0.331728 0.204676
0.697676 0.331728 0.204676
0.752750 0.331728 0.204676
0.809980 0.331728 0.204676
0.869906 0.331728 0.204676
0.933066 0.331728 0.204676
1.000000 0.331728 0.204676
0.080000 0.387734 0.204676
0.146934 0.387734 0.204676
0.210094 0.387734 0.204676
0.270020 0.387734 0.204676
0.327250 0.387734 0.204676
0.382324 0.387734 0.204676
0.435781 0.387734 0.204676
0.488160 0.387734 0.204676
0.540000 0.387734 0.204676
0.591840 0.387734 0.204676
0.644219 0.387734 0.204676
0.697676 0.387734 0.204676
0.752750 0.387734 0.204676
0.809980 0.387734 0.204676
0.869906 0.387734 0.204676
0.933066 0.387734 0.204676
1.000000 0.387734 0.204676
0.080000 0.442113 0.204676
0.146934 0.442113 0.204676
0.210094 0.442113 0.204676
0.270020 0.442113 0.204676
0.327250 0.442113 0.204676
0.382324 0.442113 0.204676
0.435781 0.442113 0.204676
0.488160 0.442113 0.204676
0.540000 0.442113 0.204676
0.591840 0.442113 0.204676
0.644219 0.442113 0.204676
0.697676 0.442113 0.204676
0.752750 0.442113 0.204676
0.809980 0.442113 0.204676
0.869906 0.442113 0.204676
0.933066 0.442113 0.204676
1.000000 0.442113 0.204676
0.080000 0.495438 0.204676
0.146934 0.495438 0.204676
0.210094 0.495438 0.204676
0.270020 0.495438 0.204676
0.327250 0.495438 0.204676
0.382324 0.495438 0.204676
0.435781 0.495438 0.204676
0.488160 0.495438 0.204676
0.540000 0.495438 0.204676
0.591840 0.495438 0.204676
0.644219 0.495438 0.204676
0.697676 0.495438 0.204676
0.752750 0.495438 0.204676
0.809980 0.495438 0.204676
0.869906 0.495438 0.204676
0.933066 0.495438 0.204676
1.000000 0.495438 0.204676
0.080000 0.548280 0.204676
0.146934 0.548280 0.204676
0.210094 0.548280 0.204676
0.270020 0.548280 0.204676
0.327250 0.548280 0.204676
0.382324 0.548280 0.204676
0.435781 0.548280 0.204676
0.488160 0.548280 0.204676
0.540000 0.548280 0.204676
0.591840 0.548280 0.204676
0.644219 0.548280 0.204676
0.697676 0.548280 0.204676
0.752750 0.548280 0.204676
0.809980 0.548280 0.204676
0.869906 0.548280 0.204676
0.933066 0.548280 0.204676
1.000000 0.548280 0.204676
0.080000 0.601213 0.204676
0.146934 0.601213 0.204676
0.210094 0.601213 0.204676
0.270020 0.601213 0.204676
0.327250 0.601213 0.204676
0.382324 0.601213 0.204676
0.435781 0.601213 0.204676
0.488160 0.601213 0.204676
0.540000 0.601213 0.204676
0.591840 0.601213 0.204676
0.644219 0.601213 0.204676
0.697676 0.601213 0.204676
0.752750 0.601213 0.204676
0.809980 0.601213 0.204676
0.869906 0.601213 0.204676
0.933066 0.601213 0.204676
1.000000 0.601213 0.204676
0.080000 0.654807 0.204676
0.146934 0.654807 0.204676
0.210094 0.654807 0.204676
0.270020 0.654807 0.204676
0.327250 0.654807 0.204676
0.382324 0.654807 0.204676
0.435781 0.654807 0.204676
0.488160 0.654807 0.204676
0.540000 0.654807 0.204676
0.591840 0.654807 0.204676
0.644219 0.654807 0.204676
0.697676 0.654807 0.204676
0.752750 0.654807 0.204676
0.809980 0.654807 0.204676
0.869906 0.654807 0.204676
0.933066 0.654807 0.204676
1.000000 0.654807 0.204676
0.080000 0.709635 0.204676
0.146934 0.709635 0.204676
0.210094 0.709635 0.204676
0.270020 0.709635 0.204676
0.327250 0.709635 0.204676
0.382324 0.709635 0.204676
0.435781 0.709635 0.204676
0.488160 0.709635 0.204676
0.540000 0.709635 0.204676
0.591840 0.709635 0.204676
0.644219 0.709635 0.204676
0.697676 0.709635 0.204676
0.752750 0.709635 0.204676
0.809980 0.709635 0.204676
0.869906 0.709635 0.204676
0.933066 0.709635 0.204676
1.000000 0.709635 0.204676
0.080000 0.766268 0.204676
0.146934 0.766268 0.204676
0.210094 0.766268 0.204676
0.270020 0.766268 0.204676
0.327250 0.766268 0.204676
0.382324 0.766268 0.204676
0.435781 0.766268 0.204676
0.488160 0.766268 0.204676
0.540000 0.766268 0.204676
0.591840 0.766268 0.204676
0.644219 0.766268 0.204676
0.697676 0.766268 0.204676
0.752750 0.766268 0.204676
0.809980 0.766268 0.204676
0.869906 0.766268 0.204676
0.933066 0.766268 0.204676
1.000000 0.766268 0.204676
0.080000 0.825280 0.204676
0.146934 0.825280 0.204676
0.210094 0.825280 0.204676
0.270020 0.825280 0.204676
0.327250 0.825280 0.204676
0.382324 0.825280 0.204676
0.435781 0.825280 0.204676
0.488160 0.825280 0.204676
0.540000 0.825280 0.204676
0.591840 0.825280 0.204676
0.644219 0.825280 0.204676
0.697676 0.825280 0.204676
0.752750 0.825280 0.204676
0.809980 0.825280 0.204676
0.869906 0.825280 0.204676
0.933066 0.825280 0.204676
1.000000 0.825280 0.204676
0.080000 0.887242 0.204676
0.146934 0.887242 0.204676
0.210094 0.887242 0.204676
0.270020 0.887242 0.204676
0.327250 0.887242 0.204676
0.382324 0.887242 0.204676
0.435781 0.887242 0.204676
0.488160 0.887242 0.204676
0.540000 0.887242 0.204676
0.591840 0.887242 0.204676
0.644219 0.887242 0.204676
0.697676 0.887242 0.204676
0.752750 0.887242 0.204676
0.809980 0.887242 0.204676
0.869906 0.887242 0.204676
0.933066 0.887242 0.204676
1.000000 0.887242 0.204676
0.080000 0.952726 0.204676
0.146934 0.952726 0.204676
0.210094 0.952726 0.204676
0.270020 0.952726 0.204676
0.327250 0.952726 0.204676
0.382324 0.952726 0.204676
0.435781 0.952726 0.204676
0.488160 0.952726 0.204676
0.540000 0.952726 0.204676
0.591840 0.952726 0.204676
0.644219 0.952726 0.204676
0.697676 0.952726 0.204676
0.752750 0.952726 0.204676
0.809980 0.952726 0.204676
0.869906 0.952726 0.204676
0.933066 0.952726 0.204676
1.000000 0.952726 0.204676
0.080000 1.000000 0.204676
0.146934 1.000000 0.204676
0.210094 1.000000 0.204676
0.270020 1.000000 0.204676
0.327250 1.000000 0.204676
0.382324 1.000000 0.204676
0.435781 1.000000 0.204676
0.488160 1.000000 0.204676
0.540000 1.000000 0.204676
0.591840 1.000000 0.204676
0.644219 1.000000 0.204676
0.697676 1.000000 0.204676
0.752750 1.000000 0.204676
0.809980 1.000000 0.204676
0.869906 1.000000 0.204676
0.933066 1.000000 0.204676
1.000000 1.000000 0.204676
0.080000 0.080000 0.263146
0.146934 0.080000 0.263146
0.210094 0.080000 0.263146
0.270020 0.080000 0.263146
0.327250 0.080000 0.263146
0.382324 0.080000 0.263146
0.435781 0.080000 0.263146
0.488160 0.080000 0.263146
0.540000 0.080000 0.263146
0.591840 0.080000 0.263146
0.644219 0.080000 0.263146
0.697676 0.080000 0.263146
0.752750 0.080000 0.263146
0.809980 0.080000 0.263146
0.869906 0.080000 0.263146
0.933066 0.080000 0.263146
1.000000 0.080000 0.263146
0.080000 0.148232 0.263146
0.146934 0.148232 0.263146
