src/nazca/luts/faded-film.cube
# nazca bundled look — CC0
TITLE "faded-film"
LUT_3D_SIZE 5
0.080000 0.080000 0.078000
0.327250 0.080000 0.078000
0.540000 0.080000 0.078000
0.752750 0.080000 0.078000
1.000000 0.080000 0.078000
0.080000 0.331728 0.078000
0.327250 0.331728 0.078000
0.540000 0.331728 0.078000
0.752750 0.331728 0.078000
1.000000 0.331728 0.078000
0.080000 0.548280 0.078000
0.327250 0.548280 0.078000
0.540000 0.548280 0.078000
0.752750 0.548280 0.078000
1.000000 0.548280 0.078000
0.080000 0.766268 0.078000
0.327250 0.766268 0.078000
0.540000 0.766268 0.078000
0.752750 0.766268 0.078000
1.000000 0.766268 0.078000
0.080000 1.000000 0.078000
0.327250 1.000000 0.078000
0.540000 1.000000 0.078000
0.752750 1.000000 0.078000
1.000000 1.000000 0.078000
0.080000 0.080000 0.319030
0.327250 0.080000 0.319030
0.540000 0.080000 0.319030
0.752750 0.080000 0.319030
1.000000 0.080000 0.319030
0.080000 0.331728 0.319030
0.327250 0.331728 0.319030
0.540000 0.331728 0.319030
0.752750 0.331728 0.319030
1.000000 0.331728 0.319030
0.080000 0.548280 0.319030
0.327250 0.548280 0.319030
0.540000 0.548280 0.319030
0.752750 0.548280 0.319030
1.000000 0.548280 0.319030
0.080000 0.766268 0.319030
0.327250 0.766268 0.319030
0.540000 0.766268 0.319030
0.752750 0.766268 0.319030
1.000000 0.766268 0.319030
0.080000 1.000000 0.319030
0.327250 1.000000 0.319030
0.540000 1.000000 0.319030
0.752750 1.000000 0.319030
1.000000 1.000000 0.319030
0.080000 0.080000 0.526552
0.327250 0.080000 0.526552
0.540000 0.080000 0.526552
0.752750 0.080000 0.526552
1.000000 0.080000 0.526552
0.080000 0.331728 0.526552
0.327250 0.331728 0.526552
0.540000 0.331728 0.526552
0.752750 0.331728 0.526552
1.000000 0.331728 0.526552
0.080000 0.548280 0.526552
0.327250 0.548280 0.526552
0.540000 0.548280 0.526552
0.752750 0.548280 0.526552
1.000000 0.548280 0.526552
0.080000 0.766268 0.526552
0.327250 0.766268 0.526552
0.540000 0.766268 0.526552
0.752750 0.766268 0.526552
1.000000 0.766268 0.526552
0.080000 1.000000 0.526552
0.327250 1.000000 0.526552
0.540000 1.000000 0.526552
0.752750 1.000000 0.526552
1.000000 1.000000 0.526552
0.080000 0.080000 0.732122
0.327250 0.080000 0.732122
0.540000 0.080000 0.732122
0.752750 0.080000 0.732122
1.000000 0.080000 0.732122
0.080000 0.331728 0.732122
0.327250 0.331728 0.732122
0.540000 0.331728 0.732122
0.752750 0.331728 0.732122
1.000000 0.331728 0.732122
0.080000 0.548280 0.732122
0.327250 0.548280 0.732122
0.540000 0.548280 0.732122
0.752750 0.548280 0.732122
1.000000 0.548280 0.732122
0.080000 0.766268 0.732122
0.327250 0.766268 0.732122
0.540000 0.766268 0.732122
0.752750 0.766268 0.732122
1.000000 0.766268 0.732122
0.080000 1.000000 0.732122
0.327250 1.000000 0.732122
0.540000 1.000000 0.732122
0.752750 1.000000 0.732122
1.000000 1.000000 0.732122
0.080000 0.080000 0.967296
0.327250 0.080000 0.967296
0.540000 0.080000 0.967296
0.752750 0.080000 0.967296
1.000000 0.080000 0.967296
0.080000 0.331728 0.967296
0.327250 0.331728 0.967296
0.540000 0.331728 0.967296
0.752750 0.331728 0.967296
1.000000 0.331728 0.967296
0.080000 0.548280 0.967296
0.327250 0.548280 0.967296
0.540000 0.548280 0.967296
0.752750 0.548280 0.967296
1.000000 0.548280 0.967296
0.080000 0.766268 0.967296
0.327250 0.766268 0.967296
0.540000 0.766268 0.967296
0.752750 0.766268 0.967296
1.000000 0.766268 0.967296
0.080000 1.000000 0.967296
0.327250 1.000000 0.967296
0.540000 1.000000 0.967296
0.752750 1.000000 0.967296
1.000000 1.000000 0.967296
