src/nazca/luts/golden-hour.cube
# nazca bundled look — CC0
TITLE "golden-hour"
LUT_3D_SIZE 5
0.018000 0.010000 0.004000
0.257214 0.010000 0.004000
0.566607 0.010000 0.004000
0.860404 0.010000 0.004000
1.000000 0.010000 0.004000
0.018000 0.225016 0.004000
0.257214 0.225016 0.004000
0.566607 0.225016 0.004000
0.860404 0.225016 0.004000
1.000000 0.225016 0.004000
0.018000 0.505000 0.004000
0.257214 0.505000 0.004000
0.566607 0.505000 0.004000
0.860404 0.505000 0.004000
1.000000 0.505000 0.004000
0.018000 0.784984 0.004000
0.257214 0.784984 0.004000
0.566607 0.784984 0.004000
0.860404 0.784984 0.004000
1.000000 0.784984 0.004000
0.018000 1.000000 0.004000
0.257214 1.000000 0.004000
0.566607 1.000000 0.004000
0.860404 1.000000 0.004000
1.000000 1.000000 0.004000
0.018000 0.010000 0.169734
0.257214 0.010000 0.169734
0.566607 0.010000 0.169734
0.860404 0.010000 0.169734
1.000000 0.010000 0.169734
0.018000 0.225016 0.169734
0.257214 0.225016 0.169734
0.566607 0.225016 0.169734
0.860404 0.225016 0.169734
1.000000 0.225016 0.169734
0.018000 0.505000 0.169734
0.257214 0.505000 0.169734
0.566607 0.505000 0.169734
0.860404 0.505000 0.169734
1.000000 0.505000 0.169734
0.018000 0.784984 0.169734
0.257214 0.784984 0.169734
0.566607 0.784984 0.169734
0.860404 0.784984 0.169734
1.000000 0.784984 0.169734
0.018000 1.000000 0.169734
0.257214 1.000000 0.169734
0.566607 1.000000 0.169734
0.860404 1.000000 0.169734
1.000000 1.000000 0.169734
0.018000 0.010000 0.385667
0.257214 0.010000 0.385667
0.566607 0.010000 0.385667
0.860404 0.010000 0.385667
1.000000 0.010000 0.385667
0.018000 0.225016 0.385667
0.257214 0.225016 0.385667
0.566607 0.225016 0.385667
0.860404 0.225016 0.385667
1.000000 0.225016 0.385667
0.018000 0.505000 0.385667
0.257214 0.505000 0.385667
0.566607 0.505000 0.385667
0.860404 0.505000 0.385667
1.000000 0.505000 0.385667
0.018000 0.784984 0.385667
0.257214 0.784984 0.385667
0.566607 0.784984 0.385667
0.860404 0.784984 0.385667
1.000000 0.784984 0.385667
0.018000 1.000000 0.385667
0.257214 1.000000 0.385667
0.566607 1.000000 0.385667
0.860404 1.000000 0.385667
1.000000 1.000000 0.385667
0.018000 0.010000 0.618333
0.257214 0.010000 0.618333
0.566607 0.010000 0.618333
0.860404 0.010000 0.618333
1.000000 0.010000 0.618333
0.018000 0.225016 0.618333
0.257214 0.225016 0.618333
0.566607 0.225016 0.618333
0.860404 0.225016 0.618333
1.000000 0.225016 0.618333
0.018000 0.505000 0.618333
0.257214 0.505000 0.618333
0.566607 0.505000 0.618333
0.860404 0.505000 0.618333
1.000000 0.505000 0.618333
0.018000 0.784984 0.618333
0.257214 0.784984 0.618333
0.566607 0.784984 0.618333
0.860404 0.784984 0.618333
1.000000 0.784984 0.618333
0.018000 1.000000 0.618333
0.257214 1.000000 0.618333
0.566607 1.000000 0.618333
0.860404 1.000000 0.618333
1.000000 1.000000 0.618333
0.018000 0.010000 0.834266
0.257214 0.010000 0.834266
0.566607 0.010000 0.834266
0.860404 0.010000 0.834266
1.000000 0.010000 0.834266
0.018000 0.225016 0.834266
0.257214 0.225016 0.834266
0.566607 0.225016 0.834266
0.860404 0.225016 0.834266
1.000000 0.225016 0.834266
0.018000 0.505000 0.834266
0.257214 0.505000 0.834266
0.566607 0.505000 0.834266
0.860404 0.505000 0.834266
1.000000 0.505000 0.834266
0.018000 0.784984 0.834266
0.257214 0.784984 0.834266
0.566607 0.784984 0.834266
0.860404 0.784984 0.834266
1.000000 0.784984 0.834266
0.018000 1.000000 0.834266
0.257214 1.000000 0.834266
0.566607 1.000000 0.834266
0.860404 1.000000 0.834266
1.000000 1.000000 0.834266
