src/nazca/luts/golden-hour.cube
# nazca bundled look — CC0
TITLE "golden-hour"
LUT_3D_SIZE 9
0.018000 0.010000 0.004000
0.123474 0.010000 0.004000
0.257214 0.010000 0.004000
0.408499 0.010000 0.004000
0.566607 0.010000 0.004000
0.720816 0.010000 0.004000
0.860404 0.010000 0.004000
0.974650 0.010000 0.004000
1.000000 0.010000 0.004000
0.018000 0.105326 0.004000
0.123474 0.105326 0.004000
0.257214 0.105326 0.004000
0.408499 0.105326 0.004000
0.566607 0.105326 0.004000
0.720816 0.105326 0.004000
0.860404 0.105326 0.004000
0.974650 0.105326 0.004000
1.000000 0.105326 0.004000
0.018000 0.225016 0.004000
0.123474 0.225016 0.004000
0.257214 0.225016 0.004000
0.408499 0.225016 0.004000
0.566607 0.225016 0.004000
0.720816 0.225016 0.004000
0.860404 0.225016 0.004000
0.974650 0.225016 0.004000
1.000000 0.225016 0.004000
0.018000 0.360947 0.004000
0.123474 0.360947 0.004000
0.257214 0.360947 0.004000
0.408499 0.360947 0.004000
0.566607 0.360947 0.004000
0.720816 0.360947 0.004000
0.860404 0.360947 0.004000
0.974650 0.360947 0.004000
1.000000 0.360947 0.004000
0.018000 0.505000 0.004000
0.123474 0.505000 0.004000
0.257214 0.505000 0.004000
0.408499 0.505000 0.004000
0.566607 0.505000 0.004000
0.720816 0.505000 0.004000
0.860404 0.505000 0.004000
0.974650 0.505000 0.004000
1.000000 0.505000 0.004000
0.018000 0.649053 0.004000
0.123474 0.649053 0.004000
0.257214 0.649053 0.004000
0.408499 0.649053 0.004000
0.566607 0.649053 0.004000
0.720816 0.649053 0.004000
0.860404 0.649053 0.004000
0.974650 0.649053 0.004000
1.000000 0.649053 0.004000
0.018000 0.784984 0.004000
0.123474 0.784984 0.004000
0.257214 0.784984 0.004000
0.408499 0.784984 0.004000
0.566607 0.784984 0.004000
0.720816 0.784984 0.004000
0.860404 0.784984 0.004000
0.974650 0.784984 0.004000
1.000000 0.784984 0.004000
0.018000 0.904674 0.004000
0.123474 0.904674 0.004000
0.257214 0.904674 0.004000
0.408499 0.904674 0.004000
0.566607 0.904674 0.004000
0.720816 0.904674 0.004000
0.860404 0.904674 0.004000
0.974650 0.904674 0.004000
1.000000 0.904674 0.004000
0.018000 1.000000 0.004000
0.123474 1.000000 0.004000
0.257214 1.000000 0.004000
0.408499 1.000000 0.004000
0.566607 1.000000 0.004000
0.720816 1.000000 0.004000
0.860404 1.000000 0.004000
0.974650 1.000000 0.004000
1.000000 1.000000 0.004000
0.018000 0.010000 0.078501
0.123474 0.010000 0.078501
0.257214 0.010000 0.078501
0.408499 0.010000 0.078501
0.566607 0.010000 0.078501
0.720816 0.010000 0.078501
0.860404 0.010000 0.078501
0.974650 0.010000 0.078501
1.000000 0.010000 0.078501
0.018000 0.105326 0.078501
0.123474 0.105326 0.078501
0.257214 0.105326 0.078501
0.408499 0.105326 0.078501
0.566607 0.105326 0.078501
0.720816 0.105326 0.078501
0.860404 0.105326 0.078501
0.974650 0.105326 0.078501
1.000000 0.105326 0.078501
0.018000 0.225016 0.078501
0.123474 0.225016 0.078501
0.257214 0.225016 0.078501
0.408499 0.225016 0.078501
0.566607 0.225016 0.078501
0.720816 0.225016 0.078501
0.860404 0.225016 0.078501
0.974650 0.225016 0.078501
1.000000 0.225016 0.078501
0.018000 0.360947 0.078501
0.123474 0.360947 0.078501
0.257214 0.360947 0.078501
0.408499 0.360947 0.078501
0.566607 0.360947 0.078501
0.720816 0.360947 0.078501
0.860404 0.360947 0.078501
0.974650 0.360947 0.078501
1.000000 0.360947 0.078501
0.018000 0.505000 0.078501
0.123474 0.505000 0.078501
0.257214 0.505000 0.078501
0.408499 0.505000 0.078501
0.566607 0.505000 0.078501
0.720816 0.505000 0.078501
0.860404 0.505000 0.078501
0.974650 0.505000 0.078501
1.000000 0.505000 0.078501
0.018000 0.649053 0.078501
0.123474 0.649053 0.078501
0.257214 0.649053 0.078501
0.408499 0.649053 0.078501
0.566607 0.649053 0.078501
0.720816 0.649053 0.078501
0.860404 0.649053 0.078501
0.974650 0.649053 0.078501
1.000000 0.649053 0.078501
0.018000 0.784984 0.078501
0.123474 0.784984 0.078501
0.257214 0.784984 0.078501
0.408499 0.784984 0.078501
0.566607 0.784984 0.078501
0.720816 0.784984 0.078501
0.860404 0.784984 0.078501
0.974650 0.784984 0.078501
1.000000 0.784984 0.078501
0.018000 0.904674 0.078501
0.123474 0.904674 0.078501
0.257214 0.904674 0.078501
0.408499 0.904674 0.078501
0.566607 0.904674 0.078501
0.720816 0.904674 0.078501
0.860404 0.904674 0.078501
0.974650 0.904674 0.078501
1.000000 0.904674 0.078501
0.018000 1.000000 0.078501
0.123474 1.000000 0.078501
0.257214 1.000000 0.078501
0.408499 1.000000 0.078501
0.566607 1.000000 0.078501
0.720816 1.000000 0.078501
0.860404 1.000000 0.078501
0.974650 1.000000 0.078501
1.000000 1.000000 0.078501
0.018000 0.010000 0.169734
0.123474 0.010000 0.169734
0.257214 0.010000 0.169734
0.408499 0.010000 0.169734
0.566607 0.010000 0.169734
0.720816 0.010000 0.169734
0.860404 0.010000 0.169734
0.974650 0.010000 0.169734
1.000000 0.010000 0.169734
0.018000 0.105326 0.169734
0.123474 0.105326 0.169734
0.257214 0.105326 0.169734
0.408499 0.105326 0.169734
0.566607 0.105326 0.169734
0.720816 0.105326 0.169734
0.860404 0.105326 0.169734
0.974650 0.105326 0.169734
1.000000 0.105326 0.169734
0.018000 0.225016 0.169734
0.123474 0.225016 0.169734
0.257214 0.225016 0.169734
0.408499 0.225016 0.169734
0.566607 0.225016 0.169734
0.720816 0.225016 0.169734
0.860404 0.225016 0.169734
0.974650 0.225016 0.169734
1.000000 0.225016 0.169734
0.018000 0.360947 0.169734
0.123474 0.360947 0.169734
0.257214 0.360947 0.169734
0.408499 0.360947 0.169734
0.566607 0.360947 0.169734
0.720816 0.360947 0.169734
0.860404 0.360947 0.169734
0.974650 0.360947 0.169734
1.000000 0.360947 0.169734
0.018000 0.505000 0.169734
0.123474 0.505000 0.169734
0.257214 0.505000 0.169734
0.408499 0.505000 0.169734
0.566607 0.505000 0.169734
0.720816 0.505000 0.169734
0.860404 0.505000 0.169734
0.974650 0.505000 0.169734
1.000000 0.505000 0.169734
0.018000 0.649053 0.169734
0.123474 0.649053 0.169734
0.257214 0.649053 0.169734
0.408499 0.649053 0.169734
0.566607 0.649053 0.169734
0.720816 0.649053 0.169734
0.860404 0.649053 0.169734
0.974650 0.649053 0.169734
1.000000 0.649053 0.169734
0.018000 0.784984 0.169734
0.123474 0.784984 0.169734
0.257214 0.784984 0.169734
0.408499 0.784984 0.169734
0.566607 0.784984 0.169734
0.720816 0.784984 0.169734
0.860404 0.784984 0.169734
0.974650 0.784984 0.169734
1.000000 0.784984 0.169734
0.018000 0.904674 0.169734
0.123474 0.904674 0.169734
0.257214 0.904674 0.169734
0.408499 0.904674 0.169734
0.566607 0.904674 0.169734
0.720816 0.904674 0.169734
0.860404 0.904674 0.169734
0.974650 0.904674 0.169734
1.000000 0.904674 0.169734
0.018000 1.000000 0.169734
0.123474 1.000000 0.169734
0.257214 1.000000 0.169734
0.408499 1.000000 0.169734
0.566607 1.000000 0.169734
0.720816 1.000000 0.169734
0.860404 1.000000 0.169734
0.974650 1.000000 0.169734
1.000000 1.000000 0.169734
0.018000 0.010000 0.273518
0.123474 0.010000 0.273518
0.257214 0.010000 0.273518
0.408499 0.010000 0.273518
0.566607 0.010000 0.273518
0.720816 0.010000 0.273518
0.860404 0.010000 0.273518
0.974650 0.010000 0.273518
1.000000 0.010000 0.273518
0.018000 0.105326 0.273518
0.123474 0.105326 0.273518
0.257214 0.105326 0.273518
0.408499 0.105326 0.273518
0.566607 0.105326 0.273518
0.720816 0.105326 0.273518
0.860404 0.105326 0.273518
0.974650 0.105326 0.273518
1.000000 0.105326 0.273518
0.018000 0.225016 0.273518
0.123474 0.225016 0.273518
0.257214 0.225016 0.273518
0.408499 0.225016 0.273518
0.566607 0.225016 0.273518
0.720816 0.225016 0.273518
0.860404 0.225016 0.273518
0.974650 0.225016 0.273518
1.000000 0.225016 0.273518
0.018000 0.360947 0.273518
0.123474 0.360947 0.273518
0.257214 0.360947 0.273518
0.408499 0.360947 0.273518
0.566607 0.360947 0.273518
0.720816 0.360947 0.273518
0.860404 0.360947 0.273518
0.974650 0.360947 0.273518
1.000000 0.360947 0.273518
0.018000 0.505000 0.273518
0.123474 0.505000 0.273518
0.257214 0.505000 0.273518
0.408499 0.505000 0.273518
0.566607 0.505000 0.273518
0.720816 0.505000 0.273518
0.860404 0.505000 0.273518
0.974650 0.505000 0.273518
1.000000 0.505000 0.273518
0.018000 0.649053 0.273518
0.123474 0.649053 0.273518
0.257214 0.649053 0.273518
0.408499 0.649053 0.273518
0.566607 0.649053 0.273518
0.720816 0.649053 0.273518
0.860404 0.649053 0.273518
0.974650 0.649053 0.273518
1.000000 0.649053 0.273518
0.018000 0.784984 0.273518
0.123474 0.784984 0.273518
0.257214 0.784984 0.273518
0.408499 0.784984 0.273518
0.566607 0.784984 0.273518
0.720816 0.784984 0.273518
0.860404 0.784984 0.273518
0.974650 0.784984 0.273518
1.000000 0.784984 0.273518
0.018000 0.904674 0.273518
0.123474 0.904674 0.273518
0.257214 0.904674 0.273518
0.408499 0.904674 0.273518
0.566607 0.904674 0.273518
0.720816 0.904674 0.273518
0.860404 0.904674 0.273518
0.974650 0.904674 0.273518
1.000000 0.904674 0.273518
0.018000 1.000000 0.273518
0.123474 1.000000 0.273518
0.257214 1.000000 0.273518
0.408499 1.000000 0.273518
0.566607 1.000000 0.273518
0.720816 1.000000 0.273518
0.860404 1.000000 0.273518
0.974650 1.000000 0.273518
1.000000 1.000000 0.273518
0.018000 0.010000 0.385667
0.123474 0.010000 0.385667
0.257214 0.010000 0.385667
0.408499 0.010000 0.385667
0.566607 0.010000 0.385667
0.720816 0.010000 0.385667
0.860404 0.010000 0.385667
0.974650 0.010000 0.385667
1.000000 0.010000 0.385667
0.018000 0.105326 0.385667
0.123474 0.105326 0.385667
0.257214 0.105326 0.385667
0.408499 0.105326 0.385667
0.566607 0.105326 0.385667
0.720816 0.105326 0.385667
0.860404 0.105326 0.385667
0.974650 0.105326 0.385667
1.000000 0.105326 0.385667
0.018000 0.225016 0.385667
0.123474 0.225016 0.385667
0.257214 0.225016 0.385667
0.408499 0.225016 0.385667
0.566607 0.225016 0.385667
0.720816 0.225016 0.385667
0.860404 0.225016 0.385667
0.974650 0.225016 0.385667
1.000000 0.225016 0.385667
0.018000 0.360947 0.385667
0.123474 0.360947 0.385667
0.257214 0.360947 0.385667
0.408499 0.360947 0.385667
0.566607 0.360947 0.385667
0.720816 0.360947 0.385667
0.860404 0.360947 0.385667
0.974650 0.360947 0.385667
1.000000 0.360947 0.385667
0.018000 0.505000 0.385667
0.123474 0.505000 0.385667
0.257214 0.505000 0.385667
0.408499 0.505000 0.385667
0.566607 0.505000 0.385667
0.720816 0.505000 0.385667
0.860404 0.505000 0.385667
0.974650 0.505000 0.385667
1.000000 0.505000 0.385667
0.018000 0.649053 0.385667
0.123474 0.649053 0.385667
0.257214 0.649053 0.385667
0.408499 0.649053 0.385667
0.566607 0.649053 0.385667
0.720816 0.649053 0.385667
0.860404 0.649053 0.385667
0.974650 0.649053 0.385667
1.000000 0.649053 0.385667
0.018000 0.784984 0.385667
0.123474 0.784984 0.385667
0.257214 0.784984 0.385667
0.408499 0.784984 0.385667
0.566607 0.784984 0.385667
0.720816 0.784984 0.385667
0.860404 0.784984 0.385667
0.974650 0.784984 0.385667
1.000000 0.784984 0.385667
0.018000 0.904674 0.385667
0.123474 0.904674 0.385667
0.257214 0.904674 0.385667
0.408499 0.904674 0.385667
0.566607 0.904674 0.385667
0.720816 0.904674 0.385667
0.860404 0.904674 0.385667
0.974650 0.904674 0.385667
1.000000 0.904674 0.385667
0.018000 1.000000 0.385667
0.123474 1.000000 0.385667
0.257214 1.000000 0.385667
0.408499 1.000000 0.385667
0.566607 1.000000 0.385667
0.720816 1.000000 0.385667
0.860404 1.000000 0.385667
0.974650 1.000000 0.385667
1.000000 1.000000 0.385667
0.018000 0.010000 0.502000
0.123474 0.010000 0.502000
0.257214 0.010000 0.502000
0.408499 0.010000 0.502000
0.566607 0.010000 0.502000
0.720816 0.010000 0.502000
0.860404 0.010000 0.502000
0.974650 0.010000 0.502000
1.000000 0.010000 0.502000
0.018000 0.105326 0.502000
0.123474 0.105326 0.502000
0.257214 0.105326 0.502000
0.408499 0.105326 0.502000
0.566607 0.105326 0.502000
0.720816 0.105326 0.502000
0.860404 0.105326 0.502000
0.974650 0.105326 0.502000
1.000000 0.105326 0.502000
0.018000 0.225016 0.502000
0.123474 0.225016 0.502000
0.257214 0.225016 0.502000
0.408499 0.225016 0.502000
0.566607 0.225016 0.502000
0.720816 0.225016 0.502000
0.860404 0.225016 0.502000
0.974650 0.225016 0.502000
1.000000 0.225016 0.502000
0.018000 0.360947 0.502000
0.123474 0.360947 0.502000
0.257214 0.360947 0.502000
0.408499 0.360947 0.502000
0.566607 0.360947 0.502000
0.720816 0.360947 0.502000
0.860404 0.360947 0.502000
0.974650 0.360947 0.502000
1.000000 0.360947 0.502000
0.018000 0.505000 0.502000
0.123474 0.505000 0.502000
0.257214 0.505000 0.502000
0.408499 0.505000 0.502000
0.566607 0.505000 0.502000
0.720816 0.505000 0.502000
0.860404 0.505000 0.502000
0.974650 0.505000 0.502000
1.000000 0.505000 0.502000
0.018000 0.649053 0.502000
0.123474 0.649053 0.502000
0.257214 0.649053 0.502000
0.408499 0.649053 0.502000
0.566607 0.649053 0.502000
0.720816 0.649053 0.502000
0.860404 0.649053 0.502000
0.974650 0.649053 0.502000
1.000000 0.649053 0.502000
0.018000 0.784984 0.502000
0.123474 0.784984 0.502000
0.257214 0.784984 0.502000
0.408499 0.784984 0.502000
0.566607 0.784984 0.502000
0.720816 0.784984 0.502000
0.860404 0.784984 0.502000
0.974650 0.784984 0.502000
1.000000 0.784984 0.502000
0.018000 0.904674 0.502000
0.123474 0.904674 0.502000
0.257214 0.904674 0.502000
0.408499 0.904674 0.502000
0.566607 0.904674 0.502000
0.720816 0.904674 0.502000
0.860404 0.904674 0.502000
0.974650 0.904674 0.502000
1.000000 0.904674 0.502000
0.018000 1.000000 0.502000
0.123474 1.000000 0.502000
0.257214 1.000000 0.502000
0.408499 1.000000 0.502000
0.566607 1.000000 0.502000
0.720816 1.000000 0.502000
0.860404 1.000000 0.502000
0.974650 1.000000 0.502000
1.000000 1.000000 0.502000
0.018000 0.010000 0.618333
0.123474 0.010000 0.618333
0.257214 0.010000 0.618333
0.408499 0.010000 0.618333
0.566607 0.010000 0.618333
0.720816 0.010000 0.618333
0.860404 0.010000 0.618333
0.974650 0.010000 0.618333
1.000000 0.010000 0.618333
0.018000 0.105326 0.618333
0.123474 0.105326 0.618333
0.257214 0.105326 0.618333
0.408499 0.105326 0.618333
0.566607 0.105326 0.618333
0.720816 0.105326 0.618333
0.860404 0.105326 0.618333
0.974650 0.105326 0.618333
1.000000 0.105326 0.618333
0.018000 0.225016 0.618333
0.123474 0.225016 0.618333
0.257214 0.225016 0.618333
0.408499 0.225016 0.618333
0.566607 0.225016 0.618333
0.720816 0.225016 0.618333
0.860404 0.225016 0.618333
0.974650 0.225016 0.618333
1.000000 0.225016 0.618333
0.018000 0.360947 0.618333
0.123474 0.360947 0.618333
0.257214 0.360947 0.618333
0.408499 0.360947 0.618333
0.566607 0.360947 0.618333
0.720816 0.360947 0.618333
0.860404 0.360947 0.618333
0.974650 0.360947 0.618333
1.000000 0.360947 0.618333
0.018000 0.505000 0.618333
0.123474 0.505000 0.618333
0.257214 0.505000 0.618333
0.408499 0.505000 0.618333
0.566607 0.505000 0.618333
0.720816 0.505000 0.618333
0.860404 0.505000 0.618333
0.974650 0.505000 0.618333
1.000000 0.505000 0.618333
0.018000 0.649053 0.618333
0.123474 0.649053 0.618333
0.257214 0.649053 0.618333
0.408499 0.649053 0.618333
0.566607 0.649053 0.618333
0.720816 0.649053 0.618333
0.860404 0.649053 0.618333
0.974650 0.649053 0.618333
1.000000 0.649053 0.618333
0.018000 0.784984 0.618333
0.123474 0.784984 0.618333
0.257214 0.784984 0.618333
0.408499 0.784984 0.618333
0.566607 0.784984 0.618333
0.720816 0.784984 0.618333
0.860404 0.784984 0.618333
0.974650 0.784984 0.618333
1.000000 0.784984 0.618333
0.018000 0.904674 0.618333
0.123474 0.904674 0.618333
0.257214 0.904674 0.618333
0.408499 0.904674 0.618333
0.566607 0.904674 0.618333
0.720816 0.904674 0.618333
0.860404 0.904674 0.618333
0.974650 0.904674 0.618333
1.000000 0.904674 0.618333
0.018000 1.000000 0.618333
0.123474 1.000000 0.618333
0.257214 1.000000 0.618333
0.408499 1.000000 0.618333
0.566607 1.000000 0.618333
0.720816 1.000000 0.618333
0.860404 1.000000 0.618333
0.974650 1.000000 0.618333
1.000000 1.000000 0.618333
0.018000 0.010000 0.730482
0.123474 0.010000 0.730482
0.257214 0.010000 0.730482
0.408499 0.010000 0.730482
0.566607 0.010000 0.730482
0.720816 0.010000 0.730482
0.860404 0.010000 0.730482
0.974650 0.010000 0.730482
1.000000 0.010000 0.730482
0.018000 0.105326 0.730482
0.123474 0.105326 0.730482
0.257214 0.105326 0.730482
0.408499 0.105326 0.730482
0.566607 0.105326 0.730482
0.720816 0.105326 0.730482
0.860404 0.105326 0.730482
0.974650 0.105326 0.730482
1.000000 0.105326 0.730482
0.018000 0.225016 0.730482
0.123474 0.225016 0.730482
0.257214 0.225016 0.730482
0.408499 0.225016 0.730482
0.566607 0.225016 0.730482
0.720816 0.225016 0.730482
0.860404 0.225016 0.730482
0.974650 0.225016 0.730482
1.000000 0.225016 0.730482
0.018000 0.360947 0.730482
0.123474 0.360947 0.730482
0.257214 0.360947 0.730482
0.408499 0.360947 0.730482
0.566607 0.360947 0.730482
0.720816 0.360947 0.730482
0.860404 0.360947 0.730482
0.974650 0.360947 0.730482
1.000000 0.360947 0.730482
0.018000 0.505000 0.730482
0.123474 0.505000 0.730482
0.257214 0.505000 0.730482
0.408499 0.505000 0.730482
0.566607 0.505000 0.730482
0.720816 0.505000 0.730482
0.860404 0.505000 0.730482
0.974650 0.505000 0.730482
1.000000 0.505000 0.730482
0.018000 0.649053 0.730482
0.123474 0.649053 0.730482
0.257214 0.649053 0.730482
0.408499 0.649053 0.730482
0.566607 0.649053 0.730482
0.720816 0.649053 0.730482
0.860404 0.649053 0.730482
0.974650 0.649053 0.730482
1.000000 0.649053 0.730482
0.018000 0.784984 0.730482
0.123474 0.784984 0.730482
0.257214 0.784984 0.730482
0.408499 0.784984 0.730482
0.566607 0.784984 0.730482
0.720816 0.784984 0.730482
0.860404 0.784984 0.730482
0.974650 0.784984 0.730482
1.000000 0.784984 0.730482
0.018000 0.904674 0.730482
0.123474 0.904674 0.730482
0.257214 0.904674 0.730482
0.408499 0.904674 0.730482
0.566607 0.904674 0.730482
0.720816 0.904674 0.730482
0.860404 0.904674 0.730482
0.974650 0.904674 0.730482
1.000000 0.904674 0.730482
0.018000 1.000000 0.730482
0.123474 1.000000 0.730482
0.257214 1.000000 0.730482
0.408499 1.000000 0.730482
0.566607 1.000000 0.730482
0.720816 1.000000 0.730482
0.860404 1.000000 0.730482
0.974650 1.000000 0.730482
1.000000 1.000000 0.730482
0.018000 0.010000 0.834266
0.123474 0.010000 0.834266
0.257214 0.010000 0.834266
0.408499 0.010000 0.834266
0.566607 0.010000 0.834266
0.720816 0.010000 0.834266
0.860404 0.010000 0.834266
0.974650 0.010000 0.834266
1.000000 0.010000 0.834266
0.018000 0.105326 0.834266
0.123474 0.105326 0.834266
0.257214 0.105326 0.834266
0.408499 0.105326 0.834266
0.566607 0.105326 0.834266
0.720816 0.105326 0.834266
0.860404 0.105326 0.834266
0.974650 0.105326 0.834266
1.000000 0.105326 0.834266
0.018000 0.225016 0.834266
0.123474 0.225016 0.834266
0.257214 0.225016 0.834266
0.408499 0.225016 0.834266
0.566607 0.225016 0.834266
0.720816 0.225016 0.834266
0.860404 0.225016 0.834266
0.974650 0.225016 0.834266
1.000000 0.225016 0.834266
0.018000 0.360947 0.834266
0.123474 0.360947 0.834266
0.257214 0.360947 0.834266
0.408499 0.360947 0.834266
0.566607 0.360947 0.834266
0.720816 0.360947 0.834266
0.860404 0.360947 0.834266
0.974650 0.360947 0.834266
1.000000 0.360947 0.834266
0.018000 0.505000 0.834266
0.123474 0.505000 0.834266
0.257214 0.505000 0.834266
0.408499 0.505000 0.834266
0.566607 0.505000 0.834266
0.720816 0.505000 0.834266
0.860404 0.505000 0.834266
0.974650 0.505000 0.834266
1.000000 0.505000 0.834266
0.018000 0.649053 0.834266
0.123474 0.649053 0.834266
0.257214 0.649053 0.834266
0.408499 0.649053 0.834266
0.566607 0.649053 0.834266
0.720816 0.649053 0.834266
0.860404 0.649053 0.834266
0.974650 0.649053 0.834266
1.000000 0.649053 0.834266
0.018000 0.784984 0.834266
0.123474 0.784984 0.834266
0.257214 0.784984 0.834266
0.408499 0.784984 0.834266
0.566607 0.784984 0.834266
0.720816 0.784984 0.834266
0.860404 0.784984 0.834266
0.974650 0.784984 0.834266
1.000000 0.784984 0.834266
0.018000 0.904674 0.834266
0.123474 0.904674 0.834266
0.257214 0.904674 0.834266
0.408499 0.904674 0.834266
0.566607 0.904674 0.834266
0.720816 0.904674 0.834266
0.860404 0.904674 0.834266
0.974650 0.904674 0.834266
1.000000 0.904674 0.834266
0.018000 1.000000 0.834266
0.123474 1.000000 0.834266
0.257214 1.000000 0.834266
0.408499 1.000000 0.834266
0.566607 1.000000 0.834266
0.720816 1.000000 0.834266
0.860404 1.000000 0.834266
0.974650 1.000000 0.834266
1.000000 1.000000 0.834266
