src/nazca/luts/golden-hour.cube
# nazca bundled look — CC0
TITLE "golden-hour"
LUT_3D_SIZE 17
0.018000 0.010000 0.004000
0.066533 0.010000 0.004000
0.123474 0.010000 0.004000
0.187480 0.010000 0.004000
0.257214 0.010000 0.004000
0.331333 0.010000 0.004000
0.408499 0.010000 0.004000
0.487370 0.010000 0.004000
0.566607 0.010000 0.004000
0.644869 0.010000 0.004000
0.720816 0.010000 0.004000
0.793108 0.010000 0.004000
0.860404 0.010000 0.004000
0.921365 0.010000 0.004000
0.974650 0.010000 0.004000
1.000000 0.010000 0.004000
1.000000 0.010000 0.004000
0.018000 0.054110 0.004000
0.066533 0.054110 0.004000
0.123474 0.054110 0.004000
0.187480 0.054110 0.004000
0.257214 0.054110 0.004000
0.331333 0.054110 0.004000
0.408499 0.054110 0.004000
0.487370 0.054110 0.004000
0.566607 0.054110 0.004000
0.644869 0.054110 0.004000
0.720816 0.054110 0.004000
0.793108 0.054110 0.004000
0.860404 0.054110 0.004000
0.921365 0.054110 0.004000
0.974650 0.054110 0.004000
1.000000 0.054110 0.004000
1.000000 0.054110 0.004000
0.018000 0.105326 0.004000
0.066533 0.105326 0.004000
0.123474 0.105326 0.004000
0.187480 0.105326 0.004000
0.257214 0.105326 0.004000
0.331333 0.105326 0.004000
0.408499 0.105326 0.004000
0.487370 0.105326 0.004000
0.566607 0.105326 0.004000
0.644869 0.105326 0.004000
0.720816 0.105326 0.004000
0.793108 0.105326 0.004000
0.860404 0.105326 0.004000
0.921365 0.105326 0.004000
0.974650 0.105326 0.004000
1.000000 0.105326 0.004000
1.000000 0.105326 0.004000
0.018000 0.162633 0.004000
0.066533 0.162633 0.004000
0.123474 0.162633 0.004000
0.187480 0.162633 0.004000
0.257214 0.162633 0.004000
0.331333 0.162633 0.004000
0.408499 0.162633 0.004000
0.487370 0.162633 0.004000
0.566607 0.162633 0.004000
0.644869 0.162633 0.004000
0.720816 0.162633 0.004000
0.793108 0.162633 0.004000
0.860404 0.162633 0.004000
0.921365 0.162633 0.004000
0.974650 0.162633 0.004000
1.000000 0.162633 0.004000
1.000000 0.162633 0.004000
0.018000 0.225016 0.004000
0.066533 0.225016 0.004000
0.123474 0.225016 0.004000
0.187480 0.225016 0.004000
0.257214 0.225016 0.004000
0.331333 0.225016 0.004000
0.408499 0.225016 0.004000
0.487370 0.225016 0.004000
0.566607 0.225016 0.004000
0.644869 0.225016 0.004000
0.720816 0.225016 0.004000
0.793108 0.225016 0.004000
0.860404 0.225016 0.004000
0.921365 0.225016 0.004000
0.974650 0.225016 0.004000
1.000000 0.225016 0.004000
1.000000 0.225016 0.004000
0.018000 0.291459 0.004000
0.066533 0.291459 0.004000
0.123474 0.291459 0.004000
0.187480 0.291459 0.004000
0.257214 0.291459 0.004000
0.331333 0.291459 0.004000
0.408499 0.291459 0.004000
0.487370 0.291459 0.004000
0.566607 0.291459 0.004000
0.644869 0.291459 0.004000
0.720816 0.291459 0.004000
0.793108 0.291459 0.004000
0.860404 0.291459 0.004000
0.921365 0.291459 0.004000
0.974650 0.291459 0.004000
1.000000 0.291459 0.004000
1.000000 0.291459 0.004000
0.018000 0.360947 0.004000
0.066533 0.360947 0.004000
0.123474 0.360947 0.004000
0.187480 0.360947 0.004000
0.257214 0.360947 0.004000
0.331333 0.360947 0.004000
0.408499 0.360947 0.004000
0.487370 0.360947 0.004000
0.566607 0.360947 0.004000
0.644869 0.360947 0.004000
0.720816 0.360947 0.004000
0.793108 0.360947 0.004000
0.860404 0.360947 0.004000
0.921365 0.360947 0.004000
0.974650 0.360947 0.004000
1.000000 0.360947 0.004000
1.000000 0.360947 0.004000
0.018000 0.432466 0.004000
0.066533 0.432466 0.004000
0.123474 0.432466 0.004000
0.187480 0.432466 0.004000
0.257214 0.432466 0.004000
0.331333 0.432466 0.004000
0.408499 0.432466 0.004000
0.487370 0.432466 0.004000
0.566607 0.432466 0.004000
0.644869 0.432466 0.004000
0.720816 0.432466 0.004000
0.793108 0.432466 0.004000
0.860404 0.432466 0.004000
0.921365 0.432466 0.004000
0.974650 0.432466 0.004000
1.000000 0.432466 0.004000
1.000000 0.432466 0.004000
0.018000 0.505000 0.004000
0.066533 0.505000 0.004000
0.123474 0.505000 0.004000
0.187480 0.505000 0.004000
0.257214 0.505000 0.004000
0.331333 0.505000 0.004000
0.408499 0.505000 0.004000
0.487370 0.505000 0.004000
0.566607 0.505000 0.004000
0.644869 0.505000 0.004000
0.720816 0.505000 0.004000
0.793108 0.505000 0.004000
0.860404 0.505000 0.004000
0.921365 0.505000 0.004000
0.974650 0.505000 0.004000
1.000000 0.505000 0.004000
1.000000 0.505000 0.004000
0.018000 0.577534 0.004000
0.066533 0.577534 0.004000
0.123474 0.577534 0.004000
0.187480 0.577534 0.004000
0.257214 0.577534 0.004000
0.331333 0.577534 0.004000
0.408499 0.577534 0.004000
0.487370 0.577534 0.004000
0.566607 0.577534 0.004000
0.644869 0.577534 0.004000
0.720816 0.577534 0.004000
0.793108 0.577534 0.004000
0.860404 0.577534 0.004000
0.921365 0.577534 0.004000
0.974650 0.577534 0.004000
1.000000 0.577534 0.004000
1.000000 0.577534 0.004000
0.018000 0.649053 0.004000
0.066533 0.649053 0.004000
0.123474 0.649053 0.004000
0.187480 0.649053 0.004000
0.257214 0.649053 0.004000
0.331333 0.649053 0.004000
0.408499 0.649053 0.004000
0.487370 0.649053 0.004000
0.566607 0.649053 0.004000
0.644869 0.649053 0.004000
0.720816 0.649053 0.004000
0.793108 0.649053 0.004000
0.860404 0.649053 0.004000
0.921365 0.649053 0.004000
0.974650 0.649053 0.004000
1.000000 0.649053 0.004000
1.000000 0.649053 0.004000
0.018000 0.718541 0.004000
0.066533 0.718541 0.004000
0.123474 0.718541 0.004000
0.187480 0.718541 0.004000
0.257214 0.718541 0.004000
0.331333 0.718541 0.004000
0.408499 0.718541 0.004000
0.487370 0.718541 0.004000
0.566607 0.718541 0.004000
0.644869 0.718541 0.004000
0.720816 0.718541 0.004000
0.793108 0.718541 0.004000
0.860404 0.718541 0.004000
0.921365 0.718541 0.004000
0.974650 0.718541 0.004000
1.000000 0.718541 0.004000
1.000000 0.718541 0.004000
0.018000 0.784984 0.004000
0.066533 0.784984 0.004000
0.123474 0.784984 0.004000
0.187480 0.784984 0.004000
0.257214 0.784984 0.004000
0.331333 0.784984 0.004000
0.408499 0.784984 0.004000
0.487370 0.784984 0.004000
0.566607 0.784984 0.004000
0.644869 0.784984 0.004000
0.720816 0.784984 0.004000
0.793108 0.784984 0.004000
0.860404 0.784984 0.004000
0.921365 0.784984 0.004000
0.974650 0.784984 0.004000
1.000000 0.784984 0.004000
1.000000 0.784984 0.004000
0.018000 0.847367 0.004000
0.066533 0.847367 0.004000
0.123474 0.847367 0.004000
0.187480 0.847367 0.004000
0.257214 0.847367 0.004000
0.331333 0.847367 0.004000
0.408499 0.847367 0.004000
0.487370 0.847367 0.004000
0.566607 0.847367 0.004000
0.644869 0.847367 0.004000
0.720816 0.847367 0.004000
0.793108 0.847367 0.004000
0.860404 0.847367 0.004000
0.921365 0.847367 0.004000
0.974650 0.847367 0.004000
1.000000 0.847367 0.004000
1.000000 0.847367 0.004000
0.018000 0.904674 0.004000
0.066533 0.904674 0.004000
0.123474 0.904674 0.004000
0.187480 0.904674 0.004000
0.257214 0.904674 0.004000
0.331333 0.904674 0.004000
0.408499 0.904674 0.004000
0.487370 0.904674 0.004000
0.566607 0.904674 0.004000
0.644869 0.904674 0.004000
0.720816 0.904674 0.004000
0.793108 0.904674 0.004000
0.860404 0.904674 0.004000
0.921365 0.904674 0.004000
0.974650 0.904674 0.004000
1.000000 0.904674 0.004000
1.000000 0.904674 0.004000
0.018000 0.955890 0.004000
0.066533 0.955890 0.004000
0.123474 0.955890 0.004000
0.187480 0.955890 0.004000
0.257214 0.955890 0.004000
0.331333 0.955890 0.004000
0.408499 0.955890 0.004000
0.487370 0.955890 0.004000
0.566607 0.955890 0.004000
0.644869 0.955890 0.004000
0.720816 0.955890 0.004000
0.793108 0.955890 0.004000
0.860404 0.955890 0.004000
0.921365 0.955890 0.004000
0.974650 0.955890 0.004000
1.000000 0.955890 0.004000
1.000000 0.955890 0.004000
0.018000 1.000000 0.004000
0.066533 1.000000 0.004000
0.123474 1.000000 0.004000
0.187480 1.000000 0.004000
0.257214 1.000000 0.004000
0.331333 1.000000 0.004000
0.408499 1.000000 0.004000
0.487370 1.000000 0.004000
0.566607 1.000000 0.004000
0.644869 1.000000 0.004000
0.720816 1.000000 0.004000
0.793108 1.000000 0.004000
0.860404 1.000000 0.004000
0.921365 1.000000 0.004000
0.974650 1.000000 0.004000
1.000000 1.000000 0.004000
1.000000 1.000000 0.004000
0.018000 0.010000 0.038897
0.066533 0.010000 0.038897
0.123474 0.010000 0.038897
0.187480 0.010000 0.038897
0.257214 0.010000 0.038897
0.331333 0.010000 0.038897
0.408499 0.010000 0.038897
0.487370 0.010000 0.038897
0.566607 0.010000 0.038897
0.644869 0.010000 0.038897
0.720816 0.010000 0.038897
0.793108 0.010000 0.038897
0.860404 0.010000 0.038897
0.921365 0.010000 0.038897
0.974650 0.010000 0.038897
1.000000 0.010000 0.038897
1.000000 0.010000 0.038897
0.018000 0.054110 0.038897
0.066533 0.054110 0.038897
0.123474 0.054110 0.038897
0.187480 0.054110 0.038897
0.257214 0.054110 0.038897
0.331333 0.054110 0.038897
0.408499 0.054110 0.038897
0.487370 0.054110 0.038897
0.566607 0.054110 0.038897
0.644869 0.054110 0.038897
0.720816 0.054110 0.038897
0.793108 0.054110 0.038897
0.860404 0.054110 0.038897
0.921365 0.054110 0.038897
0.974650 0.054110 0.038897
1.000000 0.054110 0.038897
1.000000 0.054110 0.038897
0.018000 0.105326 0.038897
0.066533 0.105326 0.038897
0.123474 0.105326 0.038897
0.187480 0.105326 0.038897
0.257214 0.105326 0.038897
0.331333 0.105326 0.038897
0.408499 0.105326 0.038897
0.487370 0.105326 0.038897
0.566607 0.105326 0.038897
0.644869 0.105326 0.038897
0.720816 0.105326 0.038897
0.793108 0.105326 0.038897
0.860404 0.105326 0.038897
0.921365 0.105326 0.038897
0.974650 0.105326 0.038897
1.000000 0.105326 0.038897
1.000000 0.105326 0.038897
0.018000 0.162633 0.038897
0.066533 0.162633 0.038897
0.123474 0.162633 0.038897
0.187480 0.162633 0.038897
0.257214 0.162633 0.038897
0.331333 0.162633 0.038897
0.408499 0.162633 0.038897
0.487370 0.162633 0.038897
0.566607 0.162633 0.038897
0.644869 0.162633 0.038897
0.720816 0.162633 0.038897
0.793108 0.162633 0.038897
0.860404 0.162633 0.038897
0.921365 0.162633 0.038897
0.974650 0.162633 0.038897
1.000000 0.162633 0.038897
1.000000 0.162633 0.038897
0.018000 0.225016 0.038897
0.066533 0.225016 0.038897
0.123474 0.225016 0.038897
0.187480 0.225016 0.038897
0.257214 0.225016 0.038897
0.331333 0.225016 0.038897
0.408499 0.225016 0.038897
0.487370 0.225016 0.038897
0.566607 0.225016 0.038897
0.644869 0.225016 0.038897
0.720816 0.225016 0.038897
0.793108 0.225016 0.038897
0.860404 0.225016 0.038897
0.921365 0.225016 0.038897
0.974650 0.225016 0.038897
1.000000 0.225016 0.038897
1.000000 0.225016 0.038897
0.018000 0.291459 0.038897
0.066533 0.291459 0.038897
0.123474 0.291459 0.038897
0.187480 0.291459 0.038897
0.257214 0.291459 0.038897
0.331333 0.291459 0.038897
0.408499 0.291459 0.038897
0.487370 0.291459 0.038897
0.566607 0.291459 0.038897
0.644869 0.291459 0.038897
0.720816 0.291459 0.038897
0.793108 0.291459 0.038897
0.860404 0.291459 0.038897
0.921365 0.291459 0.038897
0.974650 0.291459 0.038897
1.000000 0.291459 0.038897
1.000000 0.291459 0.038897
0.018000 0.360947 0.038897
0.066533 0.360947 0.038897
0.123474 0.360947 0.038897
0.187480 0.360947 0.038897
0.257214 0.360947 0.038897
0.331333 0.360947 0.038897
0.408499 0.360947 0.038897
0.487370 0.360947 0.038897
0.566607 0.360947 0.038897
0.644869 0.360947 0.038897
0.720816 0.360947 0.038897
0.793108 0.360947 0.038897
0.860404 0.360947 0.038897
0.921365 0.360947 0.038897
0.974650 0.360947 0.038897
1.000000 0.360947 0.038897
1.000000 0.360947 0.038897
0.018000 0.432466 0.038897
0.066533 0.432466 0.038897
0.123474 0.432466 0.038897
0.187480 0.432466 0.038897
0.257214 0.432466 0.038897
0.331333 0.432466 0.038897
0.408499 0.432466 0.038897
0.487370 0.432466 0.038897
0.566607 0.432466 0.038897
0.644869 0.432466 0.038897
0.720816 0.432466 0.038897
0.793108 0.432466 0.038897
0.860404 0.432466 0.038897
0.921365 0.432466 0.038897
0.974650 0.432466 0.038897
1.000000 0.432466 0.038897
1.000000 0.432466 0.038897
0.018000 0.505000 0.038897
0.066533 0.505000 0.038897
0.123474 0.505000 0.038897
0.187480 0.505000 0.038897
0.257214 0.505000 0.038897
0.331333 0.505000 0.038897
0.408499 0.505000 0.038897
0.487370 0.505000 0.038897
0.566607 0.505000 0.038897
0.644869 0.505000 0.038897
0.720816 0.505000 0.038897
0.793108 0.505000 0.038897
0.860404 0.505000 0.038897
0.921365 0.505000 0.038897
0.974650 0.505000 0.038897
1.000000 0.505000 0.038897
1.000000 0.505000 0.038897
0.018000 0.577534 0.038897
0.066533 0.577534 0.038897
0.123474 0.577534 0.038897
0.187480 0.577534 0.038897
0.257214 0.577534 0.038897
0.331333 0.577534 0.038897
0.408499 0.577534 0.038897
0.487370 0.577534 0.038897
0.566607 0.577534 0.038897
0.644869 0.577534 0.038897
0.720816 0.577534 0.038897
0.793108 0.577534 0.038897
0.860404 0.577534 0.038897
0.921365 0.577534 0.038897
0.974650 0.577534 0.038897
1.000000 0.577534 0.038897
1.000000 0.577534 0.038897
0.018000 0.649053 0.038897
0.066533 0.649053 0.038897
0.123474 0.649053 0.038897
0.187480 0.649053 0.038897
0.257214 0.649053 0.038897
0.331333 0.649053 0.038897
0.408499 0.649053 0.038897
0.487370 0.649053 0.038897
0.566607 0.649053 0.038897
0.644869 0.649053 0.038897
0.720816 0.649053 0.038897
0.793108 0.649053 0.038897
0.860404 0.649053 0.038897
0.921365 0.649053 0.038897
0.974650 0.649053 0.038897
1.000000 0.649053 0.038897
1.000000 0.649053 0.038897
0.018000 0.718541 0.038897
0.066533 0.718541 0.038897
0.123474 0.718541 0.038897
0.187480 0.718541 0.038897
0.257214 0.718541 0.038897
0.331333 0.718541 0.038897
0.408499 0.718541 0.038897
0.487370 0.718541 0.038897
0.566607 0.718541 0.038897
0.644869 0.718541 0.038897
0.720816 0.718541 0.038897
0.793108 0.718541 0.038897
0.860404 0.718541 0.038897
0.921365 0.718541 0.038897
0.974650 0.718541 0.038897
1.000000 0.718541 0.038897
1.000000 0.718541 0.038897
0.018000 0.784984 0.038897
0.066533 0.784984 0.038897
0.123474 0.784984 0.038897
0.187480 0.784984 0.038897
0.257214 0.784984 0.038897
0.331333 0.784984 0.038897
0.408499 0.784984 0.038897
0.487370 0.784984 0.038897
0.566607 0.784984 0.038897
0.644869 0.784984 0.038897
0.720816 0.784984 0.038897
0.793108 0.784984 0.038897
0.860404 0.784984 0.038897
0.921365 0.784984 0.038897
0.974650 0.784984 0.038897
1.000000 0.784984 0.038897
1.000000 0.784984 0.038897
0.018000 0.847367 0.038897
0.066533 0.847367 0.038897
0.123474 0.847367 0.038897
0.187480 0.847367 0.038897
0.257214 0.847367 0.038897
0.331333 0.847367 0.038897
0.408499 0.847367 0.038897
0.487370 0.847367 0.038897
0.566607 0.847367 0.038897
0.644869 0.847367 0.038897
0.720816 0.847367 0.038897
0.793108 0.847367 0.038897
0.860404 0.847367 0.038897
0.921365 0.847367 0.038897
0.974650 0.847367 0.038897
1.000000 0.847367 0.038897
1.000000 0.847367 0.038897
0.018000 0.904674 0.038897
0.066533 0.904674 0.038897
0.123474 0.904674 0.038897
0.187480 0.904674 0.038897
0.257214 0.904674 0.038897
0.331333 0.904674 0.038897
0.408499 0.904674 0.038897
0.487370 0.904674 0.038897
0.566607 0.904674 0.038897
0.644869 0.904674 0.038897
0.720816 0.904674 0.038897
0.793108 0.904674 0.038897
0.860404 0.904674 0.038897
0.921365 0.904674 0.038897
0.974650 0.904674 0.038897
1.000000 0.904674 0.038897
1.000000 0.904674 0.038897
0.018000 0.955890 0.038897
0.066533 0.955890 0.038897
0.123474 0.955890 0.038897
0.187480 0.955890 0.038897
0.257214 0.955890 0.038897
0.331333 0.955890 0.038897
0.408499 0.955890 0.038897
0.487370 0.955890 0.038897
0.566607 0.955890 0.038897
0.644869 0.955890 0.038897
0.720816 0.955890 0.038897
0.793108 0.955890 0.038897
0.860404 0.955890 0.038897
0.921365 0.955890 0.038897
0.974650 0.955890 0.038897
1.000000 0.955890 0.038897
1.000000 0.955890 0.038897
0.018000 1.000000 0.038897
0.066533 1.000000 0.038897
0.123474 1.000000 0.038897
0.187480 1.000000 0.038897
0.257214 1.000000 0.038897
0.331333 1.000000 0.038897
0.408499 1.000000 0.038897
0.487370 1.000000 0.038897
0.566607 1.000000 0.038897
0.644869 1.000000 0.038897
0.720816 1.000000 0.038897
0.793108 1.000000 0.038897
0.860404 1.000000 0.038897
0.921365 1.000000 0.038897
0.974650 1.000000 0.038897
1.000000 1.000000 0.038897
1.000000 1.000000 0.038897
0.018000 0.010000 0.078501
0.066533 0.010000 0.078501
0.123474 0.010000 0.078501
0.187480 0.010000 0.078501
0.257214 0.010000 0.078501
0.331333 0.010000 0.078501
0.408499 0.010000 0.078501
0.487370 0.010000 0.078501
0.566607 0.010000 0.078501
0.644869 0.010000 0.078501
0.720816 0.010000 0.078501
0.793108 0.010000 0.078501
0.860404 0.010000 0.078501
0.921365 0.010000 0.078501
0.974650 0.010000 0.078501
1.000000 0.010000 0.078501
1.000000 0.010000 0.078501
0.018000 0.054110 0.078501
0.066533 0.054110 0.078501
0.123474 0.054110 0.078501
0.187480 0.054110 0.078501
0.257214 0.054110 0.078501
0.331333 0.054110 0.078501
0.408499 0.054110 0.078501
0.487370 0.054110 0.078501
0.566607 0.054110 0.078501
0.644869 0.054110 0.078501
0.720816 0.054110 0.078501
0.793108 0.054110 0.078501
0.860404 0.054110 0.078501
0.921365 0.054110 0.078501
0.974650 0.054110 0.078501
1.000000 0.054110 0.078501
1.000000 0.054110 0.078501
0.018000 0.105326 0.078501
0.066533 0.105326 0.078501
0.123474 0.105326 0.078501
0.187480 0.105326 0.078501
0.257214 0.105326 0.078501
0.331333 0.105326 0.078501
0.408499 0.105326 0.078501
0.487370 0.105326 0.078501
0.566607 0.105326 0.078501
0.644869 0.105326 0.078501
0.720816 0.105326 0.078501
0.793108 0.105326 0.078501
0.860404 0.105326 0.078501
0.921365 0.105326 0.078501
0.974650 0.105326 0.078501
1.000000 0.105326 0.078501
1.000000 0.105326 0.078501
0.018000 0.162633 0.078501
0.066533 0.162633 0.078501
0.123474 0.162633 0.078501
0.187480 0.162633 0.078501
0.257214 0.162633 0.078501
0.331333 0.162633 0.078501
0.408499 0.162633 0.078501
0.487370 0.162633 0.078501
0.566607 0.162633 0.078501
0.644869 0.162633 0.078501
0.720816 0.162633 0.078501
0.793108 0.162633 0.078501
0.860404 0.162633 0.078501
0.921365 0.162633 0.078501
0.974650 0.162633 0.078501
1.000000 0.162633 0.078501
1.000000 0.162633 0.078501
0.018000 0.225016 0.078501
0.066533 0.225016 0.078501
0.123474 0.225016 0.078501
0.187480 0.225016 0.078501
0.257214 0.225016 0.078501
0.331333 0.225016 0.078501
0.408499 0.225016 0.078501
0.487370 0.225016 0.078501
0.566607 0.225016 0.078501
0.644869 0.225016 0.078501
0.720816 0.225016 0.078501
0.793108 0.225016 0.078501
0.860404 0.225016 0.078501
0.921365 0.225016 0.078501
0.974650 0.225016 0.078501
1.000000 0.225016 0.078501
1.000000 0.225016 0.078501
0.018000 0.291459 0.078501
0.066533 0.291459 0.078501
0.123474 0.291459 0.078501
0.187480 0.291459 0.078501
0.257214 0.291459 0.078501
0.331333 0.291459 0.078501
0.408499 0.291459 0.078501
0.487370 0.291459 0.078501
0.566607 0.291459 0.078501
0.644869 0.291459 0.078501
0.720816 0.291459 0.078501
0.793108 0.291459 0.078501
0.860404 0.291459 0.078501
0.921365 0.291459 0.078501
0.974650 0.291459 0.078501
1.000000 0.291459 0.078501
1.000000 0.291459 0.078501
0.018000 0.360947 0.078501
0.066533 0.360947 0.078501
0.123474 0.360947 0.078501
0.187480 0.360947 0.078501
0.257214 0.360947 0.078501
0.331333 0.360947 0.078501
0.408499 0.360947 0.078501
0.487370 0.360947 0.078501
0.566607 0.360947 0.078501
0.644869 0.360947 0.078501
0.720816 0.360947 0.078501
0.793108 0.360947 0.078501
0.860404 0.360947 0.078501
0.921365 0.360947 0.078501
0.974650 0.360947 0.078501
1.000000 0.360947 0.078501
1.000000 0.360947 0.078501
0.018000 0.432466 0.078501
0.066533 0.432466 0.078501
0.123474 0.432466 0.078501
0.187480 0.432466 0.078501
0.257214 0.432466 0.078501
0.331333 0.432466 0.078501
0.408499 0.432466 0.078501
0.487370 0.432466 0.078501
0.566607 0.432466 0.078501
0.644869 0.432466 0.078501
0.720816 0.432466 0.078501
0.793108 0.432466 0.078501
0.860404 0.432466 0.078501
0.921365 0.432466 0.078501
0.974650 0.432466 0.078501
1.000000 0.432466 0.078501
1.000000 0.432466 0.078501
0.018000 0.505000 0.078501
0.066533 0.505000 0.078501
0.123474 0.505000 0.078501
0.187480 0.505000 0.078501
0.257214 0.505000 0.078501
0.331333 0.505000 0.078501
0.408499 0.505000 0.078501
0.487370 0.505000 0.078501
0.566607 0.505000 0.078501
0.644869 0.505000 0.078501
0.720816 0.505000 0.078501
0.793108 0.505000 0.078501
0.860404 0.505000 0.078501
0.921365 0.505000 0.078501
0.974650 0.505000 0.078501
1.000000 0.505000 0.078501
1.000000 0.505000 0.078501
0.018000 0.577534 0.078501
0.066533 0.577534 0.078501
0.123474 0.577534 0.078501
0.187480 0.577534 0.078501
0.257214 0.577534 0.078501
0.331333 0.577534 0.078501
0.408499 0.577534 0.078501
0.487370 0.577534 0.078501
0.566607 0.577534 0.078501
0.644869 0.577534 0.078501
0.720816 0.577534 0.078501
0.793108 0.577534 0.078501
0.860404 0.577534 0.078501
0.921365 0.577534 0.078501
0.974650 0.577534 0.078501
1.000000 0.577534 0.078501
1.000000 0.577534 0.078501
0.018000 0.649053 0.078501
0.066533 0.649053 0.078501
0.123474 0.649053 0.078501
0.187480 0.649053 0.078501
0.257214 0.649053 0.078501
0.331333 0.649053 0.078501
0.408499 0.649053 0.078501
0.487370 0.649053 0.078501
0.566607 0.649053 0.078501
0.644869 0.649053 0.078501
0.720816 0.649053 0.078501
0.793108 0.649053 0.078501
0.860404 0.649053 0.078501
0.921365 0.649053 0.078501
0.974650 0.649053 0.078501
1.000000 0.649053 0.078501
1.000000 0.649053 0.078501
0.018000 0.718541 0.078501
0.066533 0.718541 0.078501
0.123474 0.718541 0.078501
0.187480 0.718541 0.078501
0.257214 0.718541 0.078501
0.331333 0.718541 0.078501
0.408499 0.718541 0.078501
0.487370 0.718541 0.078501
0.566607 0.718541 0.078501
0.644869 0.718541 0.078501
0.720816 0.718541 0.078501
0.793108 0.718541 0.078501
0.860404 0.718541 0.078501
0.921365 0.718541 0.078501
0.974650 0.718541 0.078501
1.000000 0.718541 0.078501
1.000000 0.718541 0.078501
0.018000 0.784984 0.078501
0.066533 0.784984 0.078501
0.123474 0.784984 0.078501
0.187480 0.784984 0.078501
0.257214 0.784984 0.078501
0.331333 0.784984 0.078501
0.408499 0.784984 0.078501
0.487370 0.784984 0.078501
0.566607 0.784984 0.078501
0.644869 0.784984 0.078501
0.720816 0.784984 0.078501
0.793108 0.784984 0.078501
0.860404 0.784984 0.078501
0.921365 0.784984 0.078501
0.974650 0.784984 0.078501
1.000000 0.784984 0.078501
1.000000 0.784984 0.078501
0.018000 0.847367 0.078501
0.066533 0.847367 0.078501
0.123474 0.847367 0.078501
0.187480 0.847367 0.078501
0.257214 0.847367 0.078501
0.331333 0.847367 0.078501
0.408499 0.847367 0.078501
0.487370 0.847367 0.078501
0.566607 0.847367 0.078501
0.644869 0.847367 0.078501
0.720816 0.847367 0.078501
0.793108 0.847367 0.078501
0.860404 0.847367 0.078501
0.921365 0.847367 0.078501
0.974650 0.847367 0.078501
1.000000 0.847367 0.078501
1.000000 0.847367 0.078501
0.018000 0.904674 0.078501
0.066533 0.904674 0.078501
0.123474 0.904674 0.078501
0.187480 0.904674 0.078501
0.257214 0.904674 0.078501
0.331333 0.904674 0.078501
0.408499 0.904674 0.078501
0.487370 0.904674 0.078501
0.566607 0.904674 0.078501
0.644869 0.904674 0.078501
0.720816 0.904674 0.078501
0.793108 0.904674 0.078501
0.860404 0.904674 0.078501
0.921365 0.904674 0.078501
0.974650 0.904674 0.078501
1.000000 0.904674 0.078501
1.000000 0.904674 0.078501
0.018000 0.955890 0.078501
0.066533 0.955890 0.078501
0.123474 0.955890 0.078501
0.187480 0.955890 0.078501
0.257214 0.955890 0.078501
0.331333 0.955890 0.078501
0.408499 0.955890 0.078501
0.487370 0.955890 0.078501
0.566607 0.955890 0.078501
0.644869 0.955890 0.078501
0.720816 0.955890 0.078501
0.793108 0.955890 0.078501
0.860404 0.955890 0.078501
0.921365 0.955890 0.078501
0.974650 0.955890 0.078501
1.000000 0.955890 0.078501
1.000000 0.955890 0.078501
0.018000 1.000000 0.078501
0.066533 1.000000 0.078501
0.123474 1.000000 0.078501
0.187480 1.000000 0.078501
0.257214 1.000000 0.078501
0.331333 1.000000 0.078501
0.408499 1.000000 0.078501
0.487370 1.000000 0.078501
0.566607 1.000000 0.078501
0.644869 1.000000 0.078501
0.720816 1.000000 0.078501
0.793108 1.000000 0.078501
0.860404 1.000000 0.078501
0.921365 1.000000 0.078501
0.974650 1.000000 0.078501
1.000000 1.000000 0.078501
1.000000 1.000000 0.078501
0.018000 0.010000 0.122287
0.066533 0.010000 0.122287
0.123474 0.010000 0.122287
0.187480 0.010000 0.122287
0.257214 0.010000 0.122287
0.331333 0.010000 0.122287
0.408499 0.010000 0.122287
0.487370 0.010000 0.122287
0.566607 0.010000 0.122287
0.644869 0.010000 0.122287
0.720816 0.010000 0.122287
0.793108 0.010000 0.122287
0.860404 0.010000 0.122287
0.921365 0.010000 0.122287
0.974650 0.010000 0.122287
1.000000 0.010000 0.122287
1.000000 0.010000 0.122287
0.018000 0.054110 0.122287
0.066533 0.054110 0.122287
