src/nazca/luts/neutral-contrast.cube
# nazca bundled look — CC0
TITLE "neutral-contrast"
LUT_3D_SIZE 5
0.000000 0.000000 0.000000
0.207813 0.000000 0.000000
0.500000 0.000000 0.000000
0.792188 0.000000 0.000000
1.000000 0.000000 0.000000
0.000000 0.207813 0.000000
0.207813 0.207813 0.000000
0.500000 0.207813 0.000000
0.792188 0.207813 0.000000
1.000000 0.207813 0.000000
0.000000 0.500000 0.000000
0.207813 0.500000 0.000000
0.500000 0.500000 0.000000
0.792188 0.500000 0.000000
1.000000 0.500000 0.000000
0.000000 0.792188 0.000000
0.207813 0.792188 0.000000
0.500000 0.792188 0.000000
0.792188 0.792188 0.000000
1.000000 0.792188 0.000000
0.000000 1.000000 0.000000
0.207813 1.000000 0.000000
0.500000 1.000000 0.000000
0.792188 1.000000 0.000000
1.000000 1.000000 0.000000
0.000000 0.000000 0.207813
0.207813 0.000000 0.207813
0.500000 0.000000 0.207813
0.792188 0.000000 0.207813
1.000000 0.000000 0.207813
0.000000 0.207813 0.207813
0.207813 0.207813 0.207813
0.500000 0.207813 0.207813
0.792188 0.207813 0.207813
1.000000 0.207813 0.207813
0.000000 0.500000 0.207813
0.207813 0.500000 0.207813
0.500000 0.500000 0.207813
0.792188 0.500000 0.207813
1.000000 0.500000 0.207813
0.000000 0.792188 0.207813
0.207813 0.792188 0.207813
0.500000 0.792188 0.207813
0.792188 0.792188 0.207813
1.000000 0.792188 0.207813
0.000000 1.000000 0.207813
0.207813 1.000000 0.207813
0.500000 1.000000 0.207813
0.792188 1.000000 0.207813
1.000000 1.000000 0.207813
0.000000 0.000000 0.500000
0.207813 0.000000 0.500000
0.500000 0.000000 0.500000
0.792188 0.000000 0.500000
1.000000 0.000000 0.500000
0.000000 0.207813 0.500000
0.207813 0.207813 0.500000
0.500000 0.207813 0.500000
0.792188 0.207813 0.500000
1.000000 0.207813 0.500000
0.000000 0.500000 0.500000
0.207813 0.500000 0.500000
0.500000 0.500000 0.500000
0.792188 0.500000 0.500000
1.000000 0.500000 0.500000
0.000000 0.792188 0.500000
0.207813 0.792188 0.500000
0.500000 0.792188 0.500000
0.792188 0.792188 0.500000
1.000000 0.792188 0.500000
0.000000 1.000000 0.500000
0.207813 1.000000 0.500000
0.500000 1.000000 0.500000
0.792188 1.000000 0.500000
1.000000 1.000000 0.500000
0.000000 0.000000 0.792188
0.207813 0.000000 0.792188
0.500000 0.000000 0.792188
0.792188 0.000000 0.792188
1.000000 0.000000 0.792188
0.000000 0.207813 0.792188
0.207813 0.207813 0.792188
0.500000 0.207813 0.792188
0.792188 0.207813 0.792188
1.000000 0.207813 0.792188
0.000000 0.500000 0.792188
0.207813 0.500000 0.792188
0.500000 0.500000 0.792188
0.792188 0.500000 0.792188
1.000000 0.500000 0.792188
0.000000 0.792188 0.792188
0.207813 0.792188 0.792188
0.500000 0.792188 0.792188
0.792188 0.792188 0.792188
1.000000 0.792188 0.792188
0.000000 1.000000 0.792188
0.207813 1.000000 0.792188
0.500000 1.000000 0.792188
0.792188 1.000000 0.792188
1.000000 1.000000 0.792188
0.000000 0.000000 1.000000
0.207813 0.000000 1.000000
0.500000 0.000000 1.000000
0.792188 0.000000 1.000000
1.000000 0.000000 1.000000
0.000000 0.207813 1.000000
0.207813 0.207813 1.000000
0.500000 0.207813 1.000000
0.792188 0.207813 1.000000
1.000000 0.207813 1.000000
0.000000 0.500000 1.000000
0.207813 0.500000 1.000000
0.500000 0.500000 1.000000
0.792188 0.500000 1.000000
1.000000 0.500000 1.000000
0.000000 0.792188 1.000000
0.207813 0.792188 1.000000
0.500000 0.792188 1.000000
0.792188 0.792188 1.000000
1.000000 0.792188 1.000000
0.000000 1.000000 1.000000
0.207813 1.000000 1.000000
0.500000 1.000000 1.000000
0.792188 1.000000 1.000000
1.000000 1.000000 1.000000
