src/nazca/luts/neutral-contrast.cube
# nazca bundled look — CC0
TITLE "neutral-contrast"
LUT_3D_SIZE 17
0.000000 0.000000 0.000000
0.039429 0.000000 0.000000
0.088086 0.000000 0.000000
0.144653 0.000000 0.000000
0.207813 0.000000 0.000000
0.276245 0.000000 0.000000
0.348633 0.000000 0.000000
0.423657 0.000000 0.000000
0.500000 0.000000 0.000000
0.576343 0.000000 0.000000
0.651367 0.000000 0.000000
0.723755 0.000000 0.000000
0.792188 0.000000 0.000000
0.855347 0.000000 0.000000
0.911914 0.000000 0.000000
0.960571 0.000000 0.000000
1.000000 0.000000 0.000000
0.000000 0.039429 0.000000
0.039429 0.039429 0.000000
0.088086 0.039429 0.000000
0.144653 0.039429 0.000000
0.207813 0.039429 0.000000
0.276245 0.039429 0.000000
0.348633 0.039429 0.000000
0.423657 0.039429 0.000000
0.500000 0.039429 0.000000
0.576343 0.039429 0.000000
0.651367 0.039429 0.000000
0.723755 0.039429 0.000000
0.792188 0.039429 0.000000
0.855347 0.039429 0.000000
0.911914 0.039429 0.000000
0.960571 0.039429 0.000000
1.000000 0.039429 0.000000
0.000000 0.088086 0.000000
0.039429 0.088086 0.000000
0.088086 0.088086 0.000000
0.144653 0.088086 0.000000
0.207813 0.088086 0.000000
0.276245 0.088086 0.000000
0.348633 0.088086 0.000000
0.423657 0.088086 0.000000
0.500000 0.088086 0.000000
0.576343 0.088086 0.000000
0.651367 0.088086 0.000000
0.723755 0.088086 0.000000
0.792188 0.088086 0.000000
0.855347 0.088086 0.000000
0.911914 0.088086 0.000000
0.960571 0.088086 0.000000
1.000000 0.088086 0.000000
0.000000 0.144653 0.000000
0.039429 0.144653 0.000000
0.088086 0.144653 0.000000
0.144653 0.144653 0.000000
0.207813 0.144653 0.000000
0.276245 0.144653 0.000000
0.348633 0.144653 0.000000
0.423657 0.144653 0.000000
0.500000 0.144653 0.000000
0.576343 0.144653 0.000000
0.651367 0.144653 0.000000
0.723755 0.144653 0.000000
0.792188 0.144653 0.000000
0.855347 0.144653 0.000000
0.911914 0.144653 0.000000
0.960571 0.144653 0.000000
1.000000 0.144653 0.000000
0.000000 0.207813 0.000000
0.039429 0.207813 0.000000
0.088086 0.207813 0.000000
0.144653 0.207813 0.000000
0.207813 0.207813 0.000000
0.276245 0.207813 0.000000
0.348633 0.207813 0.000000
0.423657 0.207813 0.000000
0.500000 0.207813 0.000000
0.576343 0.207813 0.000000
0.651367 0.207813 0.000000
0.723755 0.207813 0.000000
0.792188 0.207813 0.000000
0.855347 0.207813 0.000000
0.911914 0.207813 0.000000
0.960571 0.207813 0.000000
1.000000 0.207813 0.000000
0.000000 0.276245 0.000000
0.039429 0.276245 0.000000
0.088086 0.276245 0.000000
0.144653 0.276245 0.000000
0.207813 0.276245 0.000000
0.276245 0.276245 0.000000
0.348633 0.276245 0.000000
0.423657 0.276245 0.000000
0.500000 0.276245 0.000000
0.576343 0.276245 0.000000
0.651367 0.276245 0.000000
0.723755 0.276245 0.000000
0.792188 0.276245 0.000000
0.855347 0.276245 0.000000
0.911914 0.276245 0.000000
0.960571 0.276245 0.000000
1.000000 0.276245 0.000000
0.000000 0.348633 0.000000
0.039429 0.348633 0.000000
0.088086 0.348633 0.000000
0.144653 0.348633 0.000000
0.207813 0.348633 0.000000
0.276245 0.348633 0.000000
0.348633 0.348633 0.000000
0.423657 0.348633 0.000000
0.500000 0.348633 0.000000
0.576343 0.348633 0.000000
0.651367 0.348633 0.000000
0.723755 0.348633 0.000000
0.792188 0.348633 0.000000
0.855347 0.348633 0.000000
0.911914 0.348633 0.000000
0.960571 0.348633 0.000000
1.000000 0.348633 0.000000
0.000000 0.423657 0.000000
0.039429 0.423657 0.000000
0.088086 0.423657 0.000000
0.144653 0.423657 0.000000
0.207813 0.423657 0.000000
0.276245 0.423657 0.000000
0.348633 0.423657 0.000000
0.423657 0.423657 0.000000
0.500000 0.423657 0.000000
0.576343 0.423657 0.000000
0.651367 0.423657 0.000000
0.723755 0.423657 0.000000
0.792188 0.423657 0.000000
0.855347 0.423657 0.000000
0.911914 0.423657 0.000000
0.960571 0.423657 0.000000
1.000000 0.423657 0.000000
0.000000 0.500000 0.000000
0.039429 0.500000 0.000000
0.088086 0.500000 0.000000
0.144653 0.500000 0.000000
0.207813 0.500000 0.000000
0.276245 0.500000 0.000000
0.348633 0.500000 0.000000
0.423657 0.500000 0.000000
0.500000 0.500000 0.000000
0.576343 0.500000 0.000000
0.651367 0.500000 0.000000
0.723755 0.500000 0.000000
0.792188 0.500000 0.000000
0.855347 0.500000 0.000000
0.911914 0.500000 0.000000
0.960571 0.500000 0.000000
1.000000 0.500000 0.000000
0.000000 0.576343 0.000000
0.039429 0.576343 0.000000
0.088086 0.576343 0.000000
0.144653 0.576343 0.000000
0.207813 0.576343 0.000000
0.276245 0.576343 0.000000
0.348633 0.576343 0.000000
0.423657 0.576343 0.000000
0.500000 0.576343 0.000000
0.576343 0.576343 0.000000
0.651367 0.576343 0.000000
0.723755 0.576343 0.000000
0.792188 0.576343 0.000000
0.855347 0.576343 0.000000
0.911914 0.576343 0.000000
0.960571 0.576343 0.000000
1.000000 0.576343 0.000000
0.000000 0.651367 0.000000
0.039429 0.651367 0.000000
0.088086 0.651367 0.000000
0.144653 0.651367 0.000000
0.207813 0.651367 0.000000
0.276245 0.651367 0.000000
0.348633 0.651367 0.000000
0.423657 0.651367 0.000000
0.500000 0.651367 0.000000
0.576343 0.651367 0.000000
0.651367 0.651367 0.000000
0.723755 0.651367 0.000000
0.792188 0.651367 0.000000
0.855347 0.651367 0.000000
0.911914 0.651367 0.000000
0.960571 0.651367 0.000000
1.000000 0.651367 0.000000
0.000000 0.723755 0.000000
0.039429 0.723755 0.000000
0.088086 0.723755 0.000000
0.144653 0.723755 0.000000
0.207813 0.723755 0.000000
0.276245 0.723755 0.000000
0.348633 0.723755 0.000000
0.423657 0.723755 0.000000
0.500000 0.723755 0.000000
0.576343 0.723755 0.000000
0.651367 0.723755 0.000000
0.723755 0.723755 0.000000
0.792188 0.723755 0.000000
0.855347 0.723755 0.000000
0.911914 0.723755 0.000000
0.960571 0.723755 0.000000
1.000000 0.723755 0.000000
0.000000 0.792188 0.000000
0.039429 0.792188 0.000000
0.088086 0.792188 0.000000
0.144653 0.792188 0.000000
0.207813 0.792188 0.000000
0.276245 0.792188 0.000000
0.348633 0.792188 0.000000
0.423657 0.792188 0.000000
0.500000 0.792188 0.000000
0.576343 0.792188 0.000000
0.651367 0.792188 0.000000
0.723755 0.792188 0.000000
0.792188 0.792188 0.000000
0.855347 0.792188 0.000000
0.911914 0.792188 0.000000
0.960571 0.792188 0.000000
1.000000 0.792188 0.000000
0.000000 0.855347 0.000000
0.039429 0.855347 0.000000
0.088086 0.855347 0.000000
0.144653 0.855347 0.000000
0.207813 0.855347 0.000000
0.276245 0.855347 0.000000
0.348633 0.855347 0.000000
0.423657 0.855347 0.000000
0.500000 0.855347 0.000000
0.576343 0.855347 0.000000
0.651367 0.855347 0.000000
0.723755 0.855347 0.000000
0.792188 0.855347 0.000000
0.855347 0.855347 0.000000
0.911914 0.855347 0.000000
0.960571 0.855347 0.000000
1.000000 0.855347 0.000000
0.000000 0.911914 0.000000
0.039429 0.911914 0.000000
0.088086 0.911914 0.000000
0.144653 0.911914 0.000000
0.207813 0.911914 0.000000
0.276245 0.911914 0.000000
0.348633 0.911914 0.000000
0.423657 0.911914 0.000000
0.500000 0.911914 0.000000
0.576343 0.911914 0.000000
0.651367 0.911914 0.000000
0.723755 0.911914 0.000000
0.792188 0.911914 0.000000
0.855347 0.911914 0.000000
0.911914 0.911914 0.000000
0.960571 0.911914 0.000000
1.000000 0.911914 0.000000
0.000000 0.960571 0.000000
0.039429 0.960571 0.000000
0.088086 0.960571 0.000000
0.144653 0.960571 0.000000
0.207813 0.960571 0.000000
0.276245 0.960571 0.000000
0.348633 0.960571 0.000000
0.423657 0.960571 0.000000
0.500000 0.960571 0.000000
0.576343 0.960571 0.000000
0.651367 0.960571 0.000000
0.723755 0.960571 0.000000
0.792188 0.960571 0.000000
0.855347 0.960571 0.000000
0.911914 0.960571 0.000000
0.960571 0.960571 0.000000
1.000000 0.960571 0.000000
0.000000 1.000000 0.000000
0.039429 1.000000 0.000000
0.088086 1.000000 0.000000
0.144653 1.000000 0.000000
0.207813 1.000000 0.000000
0.276245 1.000000 0.000000
0.348633 1.000000 0.000000
0.423657 1.000000 0.000000
0.500000 1.000000 0.000000
0.576343 1.000000 0.000000
0.651367 1.000000 0.000000
0.723755 1.000000 0.000000
0.792188 1.000000 0.000000
0.855347 1.000000 0.000000
0.911914 1.000000 0.000000
0.960571 1.000000 0.000000
1.000000 1.000000 0.000000
0.000000 0.000000 0.039429
0.039429 0.000000 0.039429
0.088086 0.000000 0.039429
0.144653 0.000000 0.039429
0.207813 0.000000 0.039429
0.276245 0.000000 0.039429
0.348633 0.000000 0.039429
0.423657 0.000000 0.039429
0.500000 0.000000 0.039429
0.576343 0.000000 0.039429
0.651367 0.000000 0.039429
0.723755 0.000000 0.039429
0.792188 0.000000 0.039429
0.855347 0.000000 0.039429
0.911914 0.000000 0.039429
0.960571 0.000000 0.039429
1.000000 0.000000 0.039429
0.000000 0.039429 0.039429
0.039429 0.039429 0.039429
0.088086 0.039429 0.039429
0.144653 0.039429 0.039429
0.207813 0.039429 0.039429
0.276245 0.039429 0.039429
0.348633 0.039429 0.039429
0.423657 0.039429 0.039429
0.500000 0.039429 0.039429
0.576343 0.039429 0.039429
0.651367 0.039429 0.039429
0.723755 0.039429 0.039429
0.792188 0.039429 0.039429
0.855347 0.039429 0.039429
0.911914 0.039429 0.039429
0.960571 0.039429 0.039429
1.000000 0.039429 0.039429
0.000000 0.088086 0.039429
0.039429 0.088086 0.039429
0.088086 0.088086 0.039429
0.144653 0.088086 0.039429
0.207813 0.088086 0.039429
0.276245 0.088086 0.039429
0.348633 0.088086 0.039429
0.423657 0.088086 0.039429
0.500000 0.088086 0.039429
0.576343 0.088086 0.039429
0.651367 0.088086 0.039429
0.723755 0.088086 0.039429
0.792188 0.088086 0.039429
0.855347 0.088086 0.039429
0.911914 0.088086 0.039429
0.960571 0.088086 0.039429
1.000000 0.088086 0.039429
0.000000 0.144653 0.039429
0.039429 0.144653 0.039429
0.088086 0.144653 0.039429
0.144653 0.144653 0.039429
0.207813 0.144653 0.039429
0.276245 0.144653 0.039429
0.348633 0.144653 0.039429
0.423657 0.144653 0.039429
0.500000 0.144653 0.039429
0.576343 0.144653 0.039429
0.651367 0.144653 0.039429
0.723755 0.144653 0.039429
0.792188 0.144653 0.039429
0.855347 0.144653 0.039429
0.911914 0.144653 0.039429
0.960571 0.144653 0.039429
1.000000 0.144653 0.039429
0.000000 0.207813 0.039429
0.039429 0.207813 0.039429
0.088086 0.207813 0.039429
0.144653 0.207813 0.039429
0.207813 0.207813 0.039429
0.276245 0.207813 0.039429
0.348633 0.207813 0.039429
0.423657 0.207813 0.039429
0.500000 0.207813 0.039429
0.576343 0.207813 0.039429
0.651367 0.207813 0.039429
0.723755 0.207813 0.039429
0.792188 0.207813 0.039429
0.855347 0.207813 0.039429
0.911914 0.207813 0.039429
0.960571 0.207813 0.039429
1.000000 0.207813 0.039429
0.000000 0.276245 0.039429
0.039429 0.276245 0.039429
0.088086 0.276245 0.039429
0.144653 0.276245 0.039429
0.207813 0.276245 0.039429
0.276245 0.276245 0.039429
0.348633 0.276245 0.039429
0.423657 0.276245 0.039429
0.500000 0.276245 0.039429
0.576343 0.276245 0.039429
0.651367 0.276245 0.039429
0.723755 0.276245 0.039429
0.792188 0.276245 0.039429
0.855347 0.276245 0.039429
0.911914 0.276245 0.039429
0.960571 0.276245 0.039429
1.000000 0.276245 0.039429
0.000000 0.348633 0.039429
0.039429 0.348633 0.039429
0.088086 0.348633 0.039429
0.144653 0.348633 0.039429
0.207813 0.348633 0.039429
0.276245 0.348633 0.039429
0.348633 0.348633 0.039429
0.423657 0.348633 0.039429
0.500000 0.348633 0.039429
0.576343 0.348633 0.039429
0.651367 0.348633 0.039429
0.723755 0.348633 0.039429
0.792188 0.348633 0.039429
0.855347 0.348633 0.039429
0.911914 0.348633 0.039429
0.960571 0.348633 0.039429
1.000000 0.348633 0.039429
0.000000 0.423657 0.039429
0.039429 0.423657 0.039429
0.088086 0.423657 0.039429
0.144653 0.423657 0.039429
0.207813 0.423657 0.039429
0.276245 0.423657 0.039429
0.348633 0.423657 0.039429
0.423657 0.423657 0.039429
0.500000 0.423657 0.039429
0.576343 0.423657 0.039429
0.651367 0.423657 0.039429
0.723755 0.423657 0.039429
0.792188 0.423657 0.039429
0.855347 0.423657 0.039429
0.911914 0.423657 0.039429
0.960571 0.423657 0.039429
1.000000 0.423657 0.039429
0.000000 0.500000 0.039429
0.039429 0.500000 0.039429
0.088086 0.500000 0.039429
0.144653 0.500000 0.039429
0.207813 0.500000 0.039429
0.276245 0.500000 0.039429
0.348633 0.500000 0.039429
0.423657 0.500000 0.039429
0.500000 0.500000 0.039429
0.576343 0.500000 0.039429
0.651367 0.500000 0.039429
0.723755 0.500000 0.039429
0.792188 0.500000 0.039429
0.855347 0.500000 0.039429
0.911914 0.500000 0.039429
0.960571 0.500000 0.039429
1.000000 0.500000 0.039429
0.000000 0.576343 0.039429
0.039429 0.576343 0.039429
0.088086 0.576343 0.039429
0.144653 0.576343 0.039429
0.207813 0.576343 0.039429
0.276245 0.576343 0.039429
0.348633 0.576343 0.039429
0.423657 0.576343 0.039429
0.500000 0.576343 0.039429
0.576343 0.576343 0.039429
0.651367 0.576343 0.039429
0.723755 0.576343 0.039429
0.792188 0.576343 0.039429
0.855347 0.576343 0.039429
0.911914 0.576343 0.039429
0.960571 0.576343 0.039429
1.000000 0.576343 0.039429
0.000000 0.651367 0.039429
0.039429 0.651367 0.039429
0.088086 0.651367 0.039429
0.144653 0.651367 0.039429
0.207813 0.651367 0.039429
0.276245 0.651367 0.039429
0.348633 0.651367 0.039429
0.423657 0.651367 0.039429
0.500000 0.651367 0.039429
0.576343 0.651367 0.039429
0.651367 0.651367 0.039429
0.723755 0.651367 0.039429
0.792188 0.651367 0.039429
0.855347 0.651367 0.039429
0.911914 0.651367 0.039429
0.960571 0.651367 0.039429
1.000000 0.651367 0.039429
0.000000 0.723755 0.039429
0.039429 0.723755 0.039429
0.088086 0.723755 0.039429
0.144653 0.723755 0.039429
0.207813 0.723755 0.039429
0.276245 0.723755 0.039429
0.348633 0.723755 0.039429
0.423657 0.723755 0.039429
0.500000 0.723755 0.039429
0.576343 0.723755 0.039429
0.651367 0.723755 0.039429
0.723755 0.723755 0.039429
0.792188 0.723755 0.039429
0.855347 0.723755 0.039429
0.911914 0.723755 0.039429
0.960571 0.723755 0.039429
1.000000 0.723755 0.039429
0.000000 0.792188 0.039429
0.039429 0.792188 0.039429
0.088086 0.792188 0.039429
0.144653 0.792188 0.039429
0.207813 0.792188 0.039429
0.276245 0.792188 0.039429
0.348633 0.792188 0.039429
0.423657 0.792188 0.039429
0.500000 0.792188 0.039429
0.576343 0.792188 0.039429
0.651367 0.792188 0.039429
0.723755 0.792188 0.039429
0.792188 0.792188 0.039429
0.855347 0.792188 0.039429
0.911914 0.792188 0.039429
0.960571 0.792188 0.039429
1.000000 0.792188 0.039429
0.000000 0.855347 0.039429
0.039429 0.855347 0.039429
0.088086 0.855347 0.039429
0.144653 0.855347 0.039429
0.207813 0.855347 0.039429
0.276245 0.855347 0.039429
0.348633 0.855347 0.039429
0.423657 0.855347 0.039429
0.500000 0.855347 0.039429
0.576343 0.855347 0.039429
0.651367 0.855347 0.039429
0.723755 0.855347 0.039429
0.792188 0.855347 0.039429
0.855347 0.855347 0.039429
0.911914 0.855347 0.039429
0.960571 0.855347 0.039429
1.000000 0.855347 0.039429
0.000000 0.911914 0.039429
0.039429 0.911914 0.039429
0.088086 0.911914 0.039429
0.144653 0.911914 0.039429
0.207813 0.911914 0.039429
0.276245 0.911914 0.039429
0.348633 0.911914 0.039429
0.423657 0.911914 0.039429
0.500000 0.911914 0.039429
0.576343 0.911914 0.039429
0.651367 0.911914 0.039429
0.723755 0.911914 0.039429
0.792188 0.911914 0.039429
0.855347 0.911914 0.039429
0.911914 0.911914 0.039429
0.960571 0.911914 0.039429
1.000000 0.911914 0.039429
0.000000 0.960571 0.039429
0.039429 0.960571 0.039429
0.088086 0.960571 0.039429
0.144653 0.960571 0.039429
0.207813 0.960571 0.039429
0.276245 0.960571 0.039429
0.348633 0.960571 0.039429
0.423657 0.960571 0.039429
0.500000 0.960571 0.039429
0.576343 0.960571 0.039429
0.651367 0.960571 0.039429
0.723755 0.960571 0.039429
0.792188 0.960571 0.039429
0.855347 0.960571 0.039429
0.911914 0.960571 0.039429
0.960571 0.960571 0.039429
1.000000 0.960571 0.039429
0.000000 1.000000 0.039429
0.039429 1.000000 0.039429
0.088086 1.000000 0.039429
0.144653 1.000000 0.039429
0.207813 1.000000 0.039429
0.276245 1.000000 0.039429
0.348633 1.000000 0.039429
0.423657 1.000000 0.039429
0.500000 1.000000 0.039429
0.576343 1.000000 0.039429
0.651367 1.000000 0.039429
0.723755 1.000000 0.039429
0.792188 1.000000 0.039429
0.855347 1.000000 0.039429
0.911914 1.000000 0.039429
0.960571 1.000000 0.039429
1.000000 1.000000 0.039429
0.000000 0.000000 0.088086
0.039429 0.000000 0.088086
0.088086 0.000000 0.088086
0.144653 0.000000 0.088086
0.207813 0.000000 0.088086
0.276245 0.000000 0.088086
0.348633 0.000000 0.088086
0.423657 0.000000 0.088086
0.500000 0.000000 0.088086
0.576343 0.000000 0.088086
0.651367 0.000000 0.088086
0.723755 0.000000 0.088086
0.792188 0.000000 0.088086
0.855347 0.000000 0.088086
0.911914 0.000000 0.088086
0.960571 0.000000 0.088086
1.000000 0.000000 0.088086
0.000000 0.039429 0.088086
0.039429 0.039429 0.088086
0.088086 0.039429 0.088086
0.144653 0.039429 0.088086
0.207813 0.039429 0.088086
0.276245 0.039429 0.088086
0.348633 0.039429 0.088086
0.423657 0.039429 0.088086
0.500000 0.039429 0.088086
0.576343 0.039429 0.088086
0.651367 0.039429 0.088086
0.723755 0.039429 0.088086
0.792188 0.039429 0.088086
0.855347 0.039429 0.088086
0.911914 0.039429 0.088086
0.960571 0.039429 0.088086
1.000000 0.039429 0.088086
0.000000 0.088086 0.088086
0.039429 0.088086 0.088086
0.088086 0.088086 0.088086
0.144653 0.088086 0.088086
0.207813 0.088086 0.088086
0.276245 0.088086 0.088086
0.348633 0.088086 0.088086
0.423657 0.088086 0.088086
0.500000 0.088086 0.088086
0.576343 0.088086 0.088086
0.651367 0.088086 0.088086
0.723755 0.088086 0.088086
0.792188 0.088086 0.088086
0.855347 0.088086 0.088086
0.911914 0.088086 0.088086
0.960571 0.088086 0.088086
1.000000 0.088086 0.088086
0.000000 0.144653 0.088086
0.039429 0.144653 0.088086
0.088086 0.144653 0.088086
0.144653 0.144653 0.088086
0.207813 0.144653 0.088086
0.276245 0.144653 0.088086
0.348633 0.144653 0.088086
0.423657 0.144653 0.088086
0.500000 0.144653 0.088086
0.576343 0.144653 0.088086
0.651367 0.144653 0.088086
0.723755 0.144653 0.088086
0.792188 0.144653 0.088086
0.855347 0.144653 0.088086
0.911914 0.144653 0.088086
0.960571 0.144653 0.088086
1.000000 0.144653 0.088086
0.000000 0.207813 0.088086
0.039429 0.207813 0.088086
0.088086 0.207813 0.088086
0.144653 0.207813 0.088086
0.207813 0.207813 0.088086
0.276245 0.207813 0.088086
0.348633 0.207813 0.088086
0.423657 0.207813 0.088086
0.500000 0.207813 0.088086
0.576343 0.207813 0.088086
0.651367 0.207813 0.088086
0.723755 0.207813 0.088086
0.792188 0.207813 0.088086
0.855347 0.207813 0.088086
0.911914 0.207813 0.088086
0.960571 0.207813 0.088086
1.000000 0.207813 0.088086
0.000000 0.276245 0.088086
0.039429 0.276245 0.088086
0.088086 0.276245 0.088086
0.144653 0.276245 0.088086
0.207813 0.276245 0.088086
0.276245 0.276245 0.088086
0.348633 0.276245 0.088086
0.423657 0.276245 0.088086
0.500000 0.276245 0.088086
0.576343 0.276245 0.088086
0.651367 0.276245 0.088086
0.723755 0.276245 0.088086
0.792188 0.276245 0.088086
0.855347 0.276245 0.088086
0.911914 0.276245 0.088086
0.960571 0.276245 0.088086
1.000000 0.276245 0.088086
0.000000 0.348633 0.088086
0.039429 0.348633 0.088086
0.088086 0.348633 0.088086
0.144653 0.348633 0.088086
0.207813 0.348633 0.088086
0.276245 0.348633 0.088086
0.348633 0.348633 0.088086
0.423657 0.348633 0.088086
0.500000 0.348633 0.088086
0.576343 0.348633 0.088086
0.651367 0.348633 0.088086
0.723755 0.348633 0.088086
0.792188 0.348633 0.088086
0.855347 0.348633 0.088086
0.911914 0.348633 0.088086
0.960571 0.348633 0.088086
1.000000 0.348633 0.088086
0.000000 0.423657 0.088086
0.039429 0.423657 0.088086
0.088086 0.423657 0.088086
0.144653 0.423657 0.088086
0.207813 0.423657 0.088086
0.276245 0.423657 0.088086
0.348633 0.423657 0.088086
0.423657 0.423657 0.088086
0.500000 0.423657 0.088086
0.576343 0.423657 0.088086
0.651367 0.423657 0.088086
0.723755 0.423657 0.088086
0.792188 0.423657 0.088086
0.855347 0.423657 0.088086
0.911914 0.423657 0.088086
0.960571 0.423657 0.088086
1.000000 0.423657 0.088086
0.000000 0.500000 0.088086
0.039429 0.500000 0.088086
0.088086 0.500000 0.088086
0.144653 0.500000 0.088086
0.207813 0.500000 0.088086
0.276245 0.500000 0.088086
0.348633 0.500000 0.088086
0.423657 0.500000 0.088086
0.500000 0.500000 0.088086
0.576343 0.500000 0.088086
0.651367 0.500000 0.088086
0.723755 0.500000 0.088086
0.792188 0.500000 0.088086
0.855347 0.500000 0.088086
0.911914 0.500000 0.088086
0.960571 0.500000 0.088086
1.000000 0.500000 0.088086
0.000000 0.576343 0.088086
0.039429 0.576343 0.088086
0.088086 0.576343 0.088086
0.144653 0.576343 0.088086
0.207813 0.576343 0.088086
0.276245 0.576343 0.088086
0.348633 0.576343 0.088086
0.423657 0.576343 0.088086
0.500000 0.576343 0.088086
0.576343 0.576343 0.088086
0.651367 0.576343 0.088086
0.723755 0.576343 0.088086
0.792188 0.576343 0.088086
0.855347 0.576343 0.088086
0.911914 0.576343 0.088086
0.960571 0.576343 0.088086
1.000000 0.576343 0.088086
0.000000 0.651367 0.088086
0.039429 0.651367 0.088086
0.088086 0.651367 0.088086
0.144653 0.651367 0.088086
0.207813 0.651367 0.088086
0.276245 0.651367 0.088086
0.348633 0.651367 0.088086
0.423657 0.651367 0.088086
0.500000 0.651367 0.088086
0.576343 0.651367 0.088086
0.651367 0.651367 0.088086
0.723755 0.651367 0.088086
0.792188 0.651367 0.088086
0.855347 0.651367 0.088086
0.911914 0.651367 0.088086
0.960571 0.651367 0.088086
1.000000 0.651367 0.088086
0.000000 0.723755 0.088086
0.039429 0.723755 0.088086
0.088086 0.723755 0.088086
0.144653 0.723755 0.088086
0.207813 0.723755 0.088086
0.276245 0.723755 0.088086
0.348633 0.723755 0.088086
0.423657 0.723755 0.088086
0.500000 0.723755 0.088086
0.576343 0.723755 0.088086
0.651367 0.723755 0.088086
0.723755 0.723755 0.088086
0.792188 0.723755 0.088086
0.855347 0.723755 0.088086
0.911914 0.723755 0.088086
0.960571 0.723755 0.088086
1.000000 0.723755 0.088086
0.000000 0.792188 0.088086
0.039429 0.792188 0.088086
0.088086 0.792188 0.088086
0.144653 0.792188 0.088086
0.207813 0.792188 0.088086
0.276245 0.792188 0.088086
0.348633 0.792188 0.088086
0.423657 0.792188 0.088086
0.500000 0.792188 0.088086
0.576343 0.792188 0.088086
0.651367 0.792188 0.088086
0.723755 0.792188 0.088086
0.792188 0.792188 0.088086
0.855347 0.792188 0.088086
0.911914 0.792188 0.088086
0.960571 0.792188 0.088086
1.000000 0.792188 0.088086
0.000000 0.855347 0.088086
0.039429 0.855347 0.088086
0.088086 0.855347 0.088086
0.144653 0.855347 0.088086
0.207813 0.855347 0.088086
0.276245 0.855347 0.088086
0.348633 0.855347 0.088086
0.423657 0.855347 0.088086
0.500000 0.855347 0.088086
0.576343 0.855347 0.088086
0.651367 0.855347 0.088086
0.723755 0.855347 0.088086
0.792188 0.855347 0.088086
0.855347 0.855347 0.088086
0.911914 0.855347 0.088086
0.960571 0.855347 0.088086
1.000000 0.855347 0.088086
0.000000 0.911914 0.088086
0.039429 0.911914 0.088086
0.088086 0.911914 0.088086
0.144653 0.911914 0.088086
0.207813 0.911914 0.088086
0.276245 0.911914 0.088086
0.348633 0.911914 0.088086
0.423657 0.911914 0.088086
0.500000 0.911914 0.088086
0.576343 0.911914 0.088086
0.651367 0.911914 0.088086
0.723755 0.911914 0.088086
0.792188 0.911914 0.088086
0.855347 0.911914 0.088086
0.911914 0.911914 0.088086
0.960571 0.911914 0.088086
1.000000 0.911914 0.088086
0.000000 0.960571 0.088086
0.039429 0.960571 0.088086
0.088086 0.960571 0.088086
0.144653 0.960571 0.088086
0.207813 0.960571 0.088086
0.276245 0.960571 0.088086
0.348633 0.960571 0.088086
0.423657 0.960571 0.088086
0.500000 0.960571 0.088086
0.576343 0.960571 0.088086
0.651367 0.960571 0.088086
0.723755 0.960571 0.088086
0.792188 0.960571 0.088086
0.855347 0.960571 0.088086
0.911914 0.960571 0.088086
0.960571 0.960571 0.088086
1.000000 0.960571 0.088086
0.000000 1.000000 0.088086
0.039429 1.000000 0.088086
0.088086 1.000000 0.088086
0.144653 1.000000 0.088086
0.207813 1.000000 0.088086
0.276245 1.000000 0.088086
0.348633 1.000000 0.088086
0.423657 1.000000 0.088086
0.500000 1.000000 0.088086
0.576343 1.000000 0.088086
0.651367 1.000000 0.088086
0.723755 1.000000 0.088086
0.792188 1.000000 0.088086
0.855347 1.000000 0.088086
0.911914 1.000000 0.088086
0.960571 1.000000 0.088086
1.000000 1.000000 0.088086
0.000000 0.000000 0.144653
0.039429 0.000000 0.144653
0.088086 0.000000 0.144653
0.144653 0.000000 0.144653
0.207813 0.000000 0.144653
0.276245 0.000000 0.144653
0.348633 0.000000 0.144653
0.423657 0.000000 0.144653
0.500000 0.000000 0.144653
0.576343 0.000000 0.144653
0.651367 0.000000 0.144653
0.723755 0.000000 0.144653
0.792188 0.000000 0.144653
0.855347 0.000000 0.144653
0.911914 0.000000 0.144653
0.960571 0.000000 0.144653
1.000000 0.000000 0.144653
0.000000 0.039429 0.144653
0.039429 0.039429 0.144653
