src/nazca/luts/neutral-contrast.cube
# nazca bundled look — CC0
TITLE "neutral-contrast"
LUT_3D_SIZE 9
0.000000 0.000000 0.000000
0.088086 0.000000 0.000000
0.207813 0.000000 0.000000
0.348633 0.000000 0.000000
0.500000 0.000000 0.000000
0.651367 0.000000 0.000000
0.792188 0.000000 0.000000
0.911914 0.000000 0.000000
1.000000 0.000000 0.000000
0.000000 0.088086 0.000000
0.088086 0.088086 0.000000
0.207813 0.088086 0.000000
0.348633 0.088086 0.000000
0.500000 0.088086 0.000000
0.651367 0.088086 0.000000
0.792188 0.088086 0.000000
0.911914 0.088086 0.000000
1.000000 0.088086 0.000000
0.000000 0.207813 0.000000
0.088086 0.207813 0.000000
0.207813 0.207813 0.000000
0.348633 0.207813 0.000000
0.500000 0.207813 0.000000
0.651367 0.207813 0.000000
0.792188 0.207813 0.000000
0.911914 0.207813 0.000000
1.000000 0.207813 0.000000
0.000000 0.348633 0.000000
0.088086 0.348633 0.000000
0.207813 0.348633 0.000000
0.348633 0.348633 0.000000
0.500000 0.348633 0.000000
0.651367 0.348633 0.000000
0.792188 0.348633 0.000000
0.911914 0.348633 0.000000
1.000000 0.348633 0.000000
0.000000 0.500000 0.000000
0.088086 0.500000 0.000000
0.207813 0.500000 0.000000
0.348633 0.500000 0.000000
0.500000 0.500000 0.000000
0.651367 0.500000 0.000000
0.792188 0.500000 0.000000
0.911914 0.500000 0.000000
1.000000 0.500000 0.000000
0.000000 0.651367 0.000000
0.088086 0.651367 0.000000
0.207813 0.651367 0.000000
0.348633 0.651367 0.000000
0.500000 0.651367 0.000000
0.651367 0.651367 0.000000
0.792188 0.651367 0.000000
0.911914 0.651367 0.000000
1.000000 0.651367 0.000000
0.000000 0.792188 0.000000
0.088086 0.792188 0.000000
0.207813 0.792188 0.000000
0.348633 0.792188 0.000000
0.500000 0.792188 0.000000
0.651367 0.792188 0.000000
0.792188 0.792188 0.000000
0.911914 0.792188 0.000000
1.000000 0.792188 0.000000
0.000000 0.911914 0.000000
0.088086 0.911914 0.000000
0.207813 0.911914 0.000000
0.348633 0.911914 0.000000
0.500000 0.911914 0.000000
0.651367 0.911914 0.000000
0.792188 0.911914 0.000000
0.911914 0.911914 0.000000
1.000000 0.911914 0.000000
0.000000 1.000000 0.000000
0.088086 1.000000 0.000000
0.207813 1.000000 0.000000
0.348633 1.000000 0.000000
0.500000 1.000000 0.000000
0.651367 1.000000 0.000000
0.792188 1.000000 0.000000
0.911914 1.000000 0.000000
1.000000 1.000000 0.000000
0.000000 0.000000 0.088086
0.088086 0.000000 0.088086
0.207813 0.000000 0.088086
0.348633 0.000000 0.088086
0.500000 0.000000 0.088086
0.651367 0.000000 0.088086
0.792188 0.000000 0.088086
0.911914 0.000000 0.088086
1.000000 0.000000 0.088086
0.000000 0.088086 0.088086
0.088086 0.088086 0.088086
0.207813 0.088086 0.088086
0.348633 0.088086 0.088086
0.500000 0.088086 0.088086
0.651367 0.088086 0.088086
0.792188 0.088086 0.088086
0.911914 0.088086 0.088086
1.000000 0.088086 0.088086
0.000000 0.207813 0.088086
0.088086 0.207813 0.088086
0.207813 0.207813 0.088086
0.348633 0.207813 0.088086
0.500000 0.207813 0.088086
0.651367 0.207813 0.088086
0.792188 0.207813 0.088086
0.911914 0.207813 0.088086
1.000000 0.207813 0.088086
0.000000 0.348633 0.088086
0.088086 0.348633 0.088086
0.207813 0.348633 0.088086
0.348633 0.348633 0.088086
0.500000 0.348633 0.088086
0.651367 0.348633 0.088086
0.792188 0.348633 0.088086
0.911914 0.348633 0.088086
1.000000 0.348633 0.088086
0.000000 0.500000 0.088086
0.088086 0.500000 0.088086
0.207813 0.500000 0.088086
0.348633 0.500000 0.088086
0.500000 0.500000 0.088086
0.651367 0.500000 0.088086
0.792188 0.500000 0.088086
0.911914 0.500000 0.088086
1.000000 0.500000 0.088086
0.000000 0.651367 0.088086
0.088086 0.651367 0.088086
0.207813 0.651367 0.088086
0.348633 0.651367 0.088086
0.500000 0.651367 0.088086
0.651367 0.651367 0.088086
0.792188 0.651367 0.088086
0.911914 0.651367 0.088086
1.000000 0.651367 0.088086
0.000000 0.792188 0.088086
0.088086 0.792188 0.088086
0.207813 0.792188 0.088086
0.348633 0.792188 0.088086
0.500000 0.792188 0.088086
0.651367 0.792188 0.088086
0.792188 0.792188 0.088086
0.911914 0.792188 0.088086
1.000000 0.792188 0.088086
0.000000 0.911914 0.088086
0.088086 0.911914 0.088086
0.207813 0.911914 0.088086
0.348633 0.911914 0.088086
0.500000 0.911914 0.088086
0.651367 0.911914 0.088086
0.792188 0.911914 0.088086
0.911914 0.911914 0.088086
1.000000 0.911914 0.088086
0.000000 1.000000 0.088086
0.088086 1.000000 0.088086
0.207813 1.000000 0.088086
0.348633 1.000000 0.088086
0.500000 1.000000 0.088086
0.651367 1.000000 0.088086
0.792188 1.000000 0.088086
0.911914 1.000000 0.088086
1.000000 1.000000 0.088086
0.000000 0.000000 0.207813
0.088086 0.000000 0.207813
0.207813 0.000000 0.207813
0.348633 0.000000 0.207813
0.500000 0.000000 0.207813
0.651367 0.000000 0.207813
0.792188 0.000000 0.207813
0.911914 0.000000 0.207813
1.000000 0.000000 0.207813
0.000000 0.088086 0.207813
0.088086 0.088086 0.207813
0.207813 0.088086 0.207813
0.348633 0.088086 0.207813
0.500000 0.088086 0.207813
0.651367 0.088086 0.207813
0.792188 0.088086 0.207813
0.911914 0.088086 0.207813
1.000000 0.088086 0.207813
0.000000 0.207813 0.207813
0.088086 0.207813 0.207813
0.207813 0.207813 0.207813
0.348633 0.207813 0.207813
0.500000 0.207813 0.207813
0.651367 0.207813 0.207813
0.792188 0.207813 0.207813
0.911914 0.207813 0.207813
1.000000 0.207813 0.207813
0.000000 0.348633 0.207813
0.088086 0.348633 0.207813
0.207813 0.348633 0.207813
0.348633 0.348633 0.207813
0.500000 0.348633 0.207813
0.651367 0.348633 0.207813
0.792188 0.348633 0.207813
0.911914 0.348633 0.207813
1.000000 0.348633 0.207813
0.000000 0.500000 0.207813
0.088086 0.500000 0.207813
0.207813 0.500000 0.207813
0.348633 0.500000 0.207813
0.500000 0.500000 0.207813
0.651367 0.500000 0.207813
0.792188 0.500000 0.207813
0.911914 0.500000 0.207813
1.000000 0.500000 0.207813
0.000000 0.651367 0.207813
0.088086 0.651367 0.207813
0.207813 0.651367 0.207813
0.348633 0.651367 0.207813
0.500000 0.651367 0.207813
0.651367 0.651367 0.207813
0.792188 0.651367 0.207813
0.911914 0.651367 0.207813
1.000000 0.651367 0.207813
0.000000 0.792188 0.207813
0.088086 0.792188 0.207813
0.207813 0.792188 0.207813
0.348633 0.792188 0.207813
0.500000 0.792188 0.207813
0.651367 0.792188 0.207813
0.792188 0.792188 0.207813
0.911914 0.792188 0.207813
1.000000 0.792188 0.207813
0.000000 0.911914 0.207813
0.088086 0.911914 0.207813
0.207813 0.911914 0.207813
0.348633 0.911914 0.207813
0.500000 0.911914 0.207813
0.651367 0.911914 0.207813
0.792188 0.911914 0.207813
0.911914 0.911914 0.207813
1.000000 0.911914 0.207813
0.000000 1.000000 0.207813
0.088086 1.000000 0.207813
0.207813 1.000000 0.207813
0.348633 1.000000 0.207813
0.500000 1.000000 0.207813
0.651367 1.000000 0.207813
0.792188 1.000000 0.207813
0.911914 1.000000 0.207813
1.000000 1.000000 0.207813
0.000000 0.000000 0.348633
0.088086 0.000000 0.348633
0.207813 0.000000 0.348633
0.348633 0.000000 0.348633
0.500000 0.000000 0.348633
0.651367 0.000000 0.348633
0.792188 0.000000 0.348633
0.911914 0.000000 0.348633
1.000000 0.000000 0.348633
0.000000 0.088086 0.348633
0.088086 0.088086 0.348633
0.207813 0.088086 0.348633
0.348633 0.088086 0.348633
0.500000 0.088086 0.348633
0.651367 0.088086 0.348633
0.792188 0.088086 0.348633
0.911914 0.088086 0.348633
1.000000 0.088086 0.348633
0.000000 0.207813 0.348633
0.088086 0.207813 0.348633
0.207813 0.207813 0.348633
0.348633 0.207813 0.348633
0.500000 0.207813 0.348633
0.651367 0.207813 0.348633
0.792188 0.207813 0.348633
0.911914 0.207813 0.348633
1.000000 0.207813 0.348633
0.000000 0.348633 0.348633
0.088086 0.348633 0.348633
0.207813 0.348633 0.348633
0.348633 0.348633 0.348633
0.500000 0.348633 0.348633
0.651367 0.348633 0.348633
0.792188 0.348633 0.348633
0.911914 0.348633 0.348633
1.000000 0.348633 0.348633
0.000000 0.500000 0.348633
0.088086 0.500000 0.348633
0.207813 0.500000 0.348633
0.348633 0.500000 0.348633
0.500000 0.500000 0.348633
0.651367 0.500000 0.348633
0.792188 0.500000 0.348633
0.911914 0.500000 0.348633
1.000000 0.500000 0.348633
0.000000 0.651367 0.348633
0.088086 0.651367 0.348633
0.207813 0.651367 0.348633
0.348633 0.651367 0.348633
0.500000 0.651367 0.348633
0.651367 0.651367 0.348633
0.792188 0.651367 0.348633
0.911914 0.651367 0.348633
1.000000 0.651367 0.348633
0.000000 0.792188 0.348633
0.088086 0.792188 0.348633
0.207813 0.792188 0.348633
0.348633 0.792188 0.348633
0.500000 0.792188 0.348633
0.651367 0.792188 0.348633
0.792188 0.792188 0.348633
0.911914 0.792188 0.348633
1.000000 0.792188 0.348633
0.000000 0.911914 0.348633
0.088086 0.911914 0.348633
0.207813 0.911914 0.348633
0.348633 0.911914 0.348633
0.500000 0.911914 0.348633
0.651367 0.911914 0.348633
0.792188 0.911914 0.348633
0.911914 0.911914 0.348633
1.000000 0.911914 0.348633
0.000000 1.000000 0.348633
0.088086 1.000000 0.348633
0.207813 1.000000 0.348633
0.348633 1.000000 0.348633
0.500000 1.000000 0.348633
0.651367 1.000000 0.348633
0.792188 1.000000 0.348633
0.911914 1.000000 0.348633
1.000000 1.000000 0.348633
0.000000 0.000000 0.500000
0.088086 0.000000 0.500000
0.207813 0.000000 0.500000
0.348633 0.000000 0.500000
0.500000 0.000000 0.500000
0.651367 0.000000 0.500000
0.792188 0.000000 0.500000
0.911914 0.000000 0.500000
1.000000 0.000000 0.500000
0.000000 0.088086 0.500000
0.088086 0.088086 0.500000
0.207813 0.088086 0.500000
0.348633 0.088086 0.500000
0.500000 0.088086 0.500000
0.651367 0.088086 0.500000
0.792188 0.088086 0.500000
0.911914 0.088086 0.500000
1.000000 0.088086 0.500000
0.000000 0.207813 0.500000
0.088086 0.207813 0.500000
0.207813 0.207813 0.500000
0.348633 0.207813 0.500000
0.500000 0.207813 0.500000
0.651367 0.207813 0.500000
0.792188 0.207813 0.500000
0.911914 0.207813 0.500000
1.000000 0.207813 0.500000
0.000000 0.348633 0.500000
0.088086 0.348633 0.500000
0.207813 0.348633 0.500000
0.348633 0.348633 0.500000
0.500000 0.348633 0.500000
0.651367 0.348633 0.500000
0.792188 0.348633 0.500000
0.911914 0.348633 0.500000
1.000000 0.348633 0.500000
0.000000 0.500000 0.500000
0.088086 0.500000 0.500000
0.207813 0.500000 0.500000
0.348633 0.500000 0.500000
0.500000 0.500000 0.500000
0.651367 0.500000 0.500000
0.792188 0.500000 0.500000
0.911914 0.500000 0.500000
1.000000 0.500000 0.500000
0.000000 0.651367 0.500000
0.088086 0.651367 0.500000
0.207813 0.651367 0.500000
0.348633 0.651367 0.500000
0.500000 0.651367 0.500000
0.651367 0.651367 0.500000
0.792188 0.651367 0.500000
0.911914 0.651367 0.500000
1.000000 0.651367 0.500000
0.000000 0.792188 0.500000
0.088086 0.792188 0.500000
0.207813 0.792188 0.500000
0.348633 0.792188 0.500000
0.500000 0.792188 0.500000
0.651367 0.792188 0.500000
0.792188 0.792188 0.500000
0.911914 0.792188 0.500000
1.000000 0.792188 0.500000
0.000000 0.911914 0.500000
0.088086 0.911914 0.500000
0.207813 0.911914 0.500000
0.348633 0.911914 0.500000
0.500000 0.911914 0.500000
0.651367 0.911914 0.500000
0.792188 0.911914 0.500000
0.911914 0.911914 0.500000
1.000000 0.911914 0.500000
0.000000 1.000000 0.500000
0.088086 1.000000 0.500000
0.207813 1.000000 0.500000
0.348633 1.000000 0.500000
0.500000 1.000000 0.500000
0.651367 1.000000 0.500000
0.792188 1.000000 0.500000
0.911914 1.000000 0.500000
1.000000 1.000000 0.500000
0.000000 0.000000 0.651367
0.088086 0.000000 0.651367
0.207813 0.000000 0.651367
0.348633 0.000000 0.651367
0.500000 0.000000 0.651367
0.651367 0.000000 0.651367
0.792188 0.000000 0.651367
0.911914 0.000000 0.651367
1.000000 0.000000 0.651367
0.000000 0.088086 0.651367
0.088086 0.088086 0.651367
0.207813 0.088086 0.651367
0.348633 0.088086 0.651367
0.500000 0.088086 0.651367
0.651367 0.088086 0.651367
0.792188 0.088086 0.651367
0.911914 0.088086 0.651367
1.000000 0.088086 0.651367
0.000000 0.207813 0.651367
0.088086 0.207813 0.651367
0.207813 0.207813 0.651367
0.348633 0.207813 0.651367
0.500000 0.207813 0.651367
0.651367 0.207813 0.651367
0.792188 0.207813 0.651367
0.911914 0.207813 0.651367
1.000000 0.207813 0.651367
0.000000 0.348633 0.651367
0.088086 0.348633 0.651367
0.207813 0.348633 0.651367
0.348633 0.348633 0.651367
0.500000 0.348633 0.651367
0.651367 0.348633 0.651367
0.792188 0.348633 0.651367
0.911914 0.348633 0.651367
1.000000 0.348633 0.651367
0.000000 0.500000 0.651367
0.088086 0.500000 0.651367
0.207813 0.500000 0.651367
0.348633 0.500000 0.651367
0.500000 0.500000 0.651367
0.651367 0.500000 0.651367
0.792188 0.500000 0.651367
0.911914 0.500000 0.651367
1.000000 0.500000 0.651367
0.000000 0.651367 0.651367
0.088086 0.651367 0.651367
0.207813 0.651367 0.651367
0.348633 0.651367 0.651367
0.500000 0.651367 0.651367
0.651367 0.651367 0.651367
0.792188 0.651367 0.651367
0.911914 0.651367 0.651367
1.000000 0.651367 0.651367
0.000000 0.792188 0.651367
0.088086 0.792188 0.651367
0.207813 0.792188 0.651367
0.348633 0.792188 0.651367
0.500000 0.792188 0.651367
0.651367 0.792188 0.651367
0.792188 0.792188 0.651367
0.911914 0.792188 0.651367
1.000000 0.792188 0.651367
0.000000 0.911914 0.651367
0.088086 0.911914 0.651367
0.207813 0.911914 0.651367
0.348633 0.911914 0.651367
0.500000 0.911914 0.651367
0.651367 0.911914 0.651367
0.792188 0.911914 0.651367
0.911914 0.911914 0.651367
1.000000 0.911914 0.651367
0.000000 1.000000 0.651367
0.088086 1.000000 0.651367
0.207813 1.000000 0.651367
0.348633 1.000000 0.651367
0.500000 1.000000 0.651367
0.651367 1.000000 0.651367
0.792188 1.000000 0.651367
0.911914 1.000000 0.651367
1.000000 1.000000 0.651367
0.000000 0.000000 0.792188
0.088086 0.000000 0.792188
0.207813 0.000000 0.792188
0.348633 0.000000 0.792188
0.500000 0.000000 0.792188
0.651367 0.000000 0.792188
0.792188 0.000000 0.792188
0.911914 0.000000 0.792188
1.000000 0.000000 0.792188
0.000000 0.088086 0.792188
0.088086 0.088086 0.792188
0.207813 0.088086 0.792188
0.348633 0.088086 0.792188
0.500000 0.088086 0.792188
0.651367 0.088086 0.792188
0.792188 0.088086 0.792188
0.911914 0.088086 0.792188
1.000000 0.088086 0.792188
0.000000 0.207813 0.792188
0.088086 0.207813 0.792188
0.207813 0.207813 0.792188
0.348633 0.207813 0.792188
0.500000 0.207813 0.792188
0.651367 0.207813 0.792188
0.792188 0.207813 0.792188
0.911914 0.207813 0.792188
1.000000 0.207813 0.792188
0.000000 0.348633 0.792188
0.088086 0.348633 0.792188
0.207813 0.348633 0.792188
0.348633 0.348633 0.792188
0.500000 0.348633 0.792188
0.651367 0.348633 0.792188
0.792188 0.348633 0.792188
0.911914 0.348633 0.792188
1.000000 0.348633 0.792188
0.000000 0.500000 0.792188
0.088086 0.500000 0.792188
0.207813 0.500000 0.792188
0.348633 0.500000 0.792188
0.500000 0.500000 0.792188
0.651367 0.500000 0.792188
0.792188 0.500000 0.792188
0.911914 0.500000 0.792188
1.000000 0.500000 0.792188
0.000000 0.651367 0.792188
0.088086 0.651367 0.792188
0.207813 0.651367 0.792188
0.348633 0.651367 0.792188
0.500000 0.651367 0.792188
0.651367 0.651367 0.792188
0.792188 0.651367 0.792188
0.911914 0.651367 0.792188
1.000000 0.651367 0.792188
0.000000 0.792188 0.792188
0.088086 0.792188 0.792188
0.207813 0.792188 0.792188
0.348633 0.792188 0.792188
0.500000 0.792188 0.792188
0.651367 0.792188 0.792188
0.792188 0.792188 0.792188
0.911914 0.792188 0.792188
1.000000 0.792188 0.792188
0.000000 0.911914 0.792188
0.088086 0.911914 0.792188
0.207813 0.911914 0.792188
0.348633 0.911914 0.792188
0.500000 0.911914 0.792188
0.651367 0.911914 0.792188
0.792188 0.911914 0.792188
0.911914 0.911914 0.792188
1.000000 0.911914 0.792188
0.000000 1.000000 0.792188
0.088086 1.000000 0.792188
0.207813 1.000000 0.792188
0.348633 1.000000 0.792188
0.500000 1.000000 0.792188
0.651367 1.000000 0.792188
0.792188 1.000000 0.792188
0.911914 1.000000 0.792188
1.000000 1.000000 0.792188
0.000000 0.000000 0.911914
0.088086 0.000000 0.911914
0.207813 0.000000 0.911914
0.348633 0.000000 0.911914
0.500000 0.000000 0.911914
0.651367 0.000000 0.911914
0.792188 0.000000 0.911914
0.911914 0.000000 0.911914
1.000000 0.000000 0.911914
0.000000 0.088086 0.911914
0.088086 0.088086 0.911914
0.207813 0.088086 0.911914
0.348633 0.088086 0.911914
0.500000 0.088086 0.911914
0.651367 0.088086 0.911914
0.792188 0.088086 0.911914
0.911914 0.088086 0.911914
1.000000 0.088086 0.911914
0.000000 0.207813 0.911914
0.088086 0.207813 0.911914
0.207813 0.207813 0.911914
0.348633 0.207813 0.911914
0.500000 0.207813 0.911914
0.651367 0.207813 0.911914
0.792188 0.207813 0.911914
0.911914 0.207813 0.911914
1.000000 0.207813 0.911914
0.000000 0.348633 0.911914
0.088086 0.348633 0.911914
0.207813 0.348633 0.911914
0.348633 0.348633 0.911914
0.500000 0.348633 0.911914
0.651367 0.348633 0.911914
0.792188 0.348633 0.911914
0.911914 0.348633 0.911914
1.000000 0.348633 0.911914
0.000000 0.500000 0.911914
0.088086 0.500000 0.911914
0.207813 0.500000 0.911914
0.348633 0.500000 0.911914
0.500000 0.500000 0.911914
0.651367 0.500000 0.911914
0.792188 0.500000 0.911914
0.911914 0.500000 0.911914
1.000000 0.500000 0.911914
0.000000 0.651367 0.911914
0.088086 0.651367 0.911914
0.207813 0.651367 0.911914
0.348633 0.651367 0.911914
0.500000 0.651367 0.911914
0.651367 0.651367 0.911914
0.792188 0.651367 0.911914
0.911914 0.651367 0.911914
1.000000 0.651367 0.911914
0.000000 0.792188 0.911914
0.088086 0.792188 0.911914
0.207813 0.792188 0.911914
0.348633 0.792188 0.911914
0.500000 0.792188 0.911914
0.651367 0.792188 0.911914
0.792188 0.792188 0.911914
0.911914 0.792188 0.911914
1.000000 0.792188 0.911914
0.000000 0.911914 0.911914
0.088086 0.911914 0.911914
0.207813 0.911914 0.911914
0.348633 0.911914 0.911914
0.500000 0.911914 0.911914
0.651367 0.911914 0.911914
0.792188 0.911914 0.911914
0.911914 0.911914 0.911914
1.000000 0.911914 0.911914
0.000000 1.000000 0.911914
0.088086 1.000000 0.911914
0.207813 1.000000 0.911914
0.348633 1.000000 0.911914
0.500000 1.000000 0.911914
0.651367 1.000000 0.911914
0.792188 1.000000 0.911914
0.911914 1.000000 0.911914
1.000000 1.000000 0.911914
0.000000 0.000000 1.000000
0.088086 0.000000 1.000000
0.207813 0.000000 1.000000
0.348633 0.000000 1.000000
0.500000 0.000000 1.000000
0.651367 0.000000 1.000000
0.792188 0.000000 1.000000
0.911914 0.000000 1.000000
1.000000 0.000000 1.000000
0.000000 0.088086 1.000000
0.088086 0.088086 1.000000
0.207813 0.088086 1.000000
0.348633 0.088086 1.000000
0.500000 0.088086 1.000000
0.651367 0.088086 1.000000
0.792188 0.088086 1.000000
0.911914 0.088086 1.000000
1.000000 0.088086 1.000000
0.000000 0.207813 1.000000
0.088086 0.207813 1.000000
0.207813 0.207813 1.000000
0.348633 0.207813 1.000000
0.500000 0.207813 1.000000
0.651367 0.207813 1.000000
0.792188 0.207813 1.000000
0.911914 0.207813 1.000000
1.000000 0.207813 1.000000
0.000000 0.348633 1.000000
0.088086 0.348633 1.000000
0.207813 0.348633 1.000000
0.348633 0.348633 1.000000
0.500000 0.348633 1.000000
0.651367 0.348633 1.000000
0.792188 0.348633 1.000000
0.911914 0.348633 1.000000
1.000000 0.348633 1.000000
0.000000 0.500000 1.000000
0.088086 0.500000 1.000000
0.207813 0.500000 1.000000
0.348633 0.500000 1.000000
0.500000 0.500000 1.000000
0.651367 0.500000 1.000000
0.792188 0.500000 1.000000
0.911914 0.500000 1.000000
1.000000 0.500000 1.000000
0.000000 0.651367 1.000000
0.088086 0.651367 1.000000
0.207813 0.651367 1.000000
0.348633 0.651367 1.000000
0.500000 0.651367 1.000000
0.651367 0.651367 1.000000
0.792188 0.651367 1.000000
0.911914 0.651367 1.000000
1.000000 0.651367 1.000000
0.000000 0.792188 1.000000
0.088086 0.792188 1.000000
0.207813 0.792188 1.000000
0.348633 0.792188 1.000000
0.500000 0.792188 1.000000
0.651367 0.792188 1.000000
0.792188 0.792188 1.000000
0.911914 0.792188 1.000000
1.000000 0.792188 1.000000
0.000000 0.911914 1.000000
0.088086 0.911914 1.000000
0.207813 0.911914 1.000000
0.348633 0.911914 1.000000
0.500000 0.911914 1.000000
0.651367 0.911914 1.000000
0.792188 0.911914 1.000000
0.911914 0.911914 1.000000
1.000000 0.911914 1.000000
0.000000 1.000000 1.000000
0.088086 1.000000 1.000000
0.207813 1.000000 1.000000
0.348633 1.000000 1.000000
0.500000 1.000000 1.000000
0.651367 1.000000 1.000000
0.792188 1.000000 1.000000
0.911914 1.000000 1.000000
1.000000 1.000000 1.000000
