src/nazca/luts/warm-editorial.cube
# nazca bundled look — CC0
TITLE "warm-editorial"
LUT_3D_SIZE 17
0.015000 0.012000 0.010000
0.063937 0.012000 0.010000
0.117925 0.012000 0.010000
0.176241 0.012000 0.010000
0.238164 0.012000 0.010000
0.302973 0.012000 0.010000
0.369946 0.012000 0.010000
0.438362 0.012000 0.010000
0.507500 0.012000 0.010000
0.576638 0.012000 0.010000
0.645054 0.012000 0.010000
0.712027 0.012000 0.010000
0.776836 0.012000 0.010000
0.838759 0.012000 0.010000
0.897075 0.012000 0.010000
0.951063 0.012000 0.010000
1.000000 0.012000 0.010000
0.015000 0.061086 0.010000
0.063937 0.061086 0.010000
0.117925 0.061086 0.010000
0.176241 0.061086 0.010000
0.238164 0.061086 0.010000
0.302973 0.061086 0.010000
0.369946 0.061086 0.010000
0.438362 0.061086 0.010000
0.507500 0.061086 0.010000
0.576638 0.061086 0.010000
0.645054 0.061086 0.010000
0.712027 0.061086 0.010000
0.776836 0.061086 0.010000
0.838759 0.061086 0.010000
0.897075 0.061086 0.010000
0.951063 0.061086 0.010000
1.000000 0.061086 0.010000
0.015000 0.115238 0.010000
0.063937 0.115238 0.010000
0.117925 0.115238 0.010000
0.176241 0.115238 0.010000
0.238164 0.115238 0.010000
0.302973 0.115238 0.010000
0.369946 0.115238 0.010000
0.438362 0.115238 0.010000
0.507500 0.115238 0.010000
0.576638 0.115238 0.010000
0.645054 0.115238 0.010000
0.712027 0.115238 0.010000
0.776836 0.115238 0.010000
0.838759 0.115238 0.010000
0.897075 0.115238 0.010000
0.951063 0.115238 0.010000
1.000000 0.115238 0.010000
0.015000 0.173732 0.010000
0.063937 0.173732 0.010000
0.117925 0.173732 0.010000
0.176241 0.173732 0.010000
0.238164 0.173732 0.010000
0.302973 0.173732 0.010000
0.369946 0.173732 0.010000
0.438362 0.173732 0.010000
0.507500 0.173732 0.010000
0.576638 0.173732 0.010000
0.645054 0.173732 0.010000
0.712027 0.173732 0.010000
0.776836 0.173732 0.010000
0.838759 0.173732 0.010000
0.897075 0.173732 0.010000
0.951063 0.173732 0.010000
1.000000 0.173732 0.010000
0.015000 0.235844 0.010000
0.063937 0.235844 0.010000
0.117925 0.235844 0.010000
0.176241 0.235844 0.010000
0.238164 0.235844 0.010000
0.302973 0.235844 0.010000
0.369946 0.235844 0.010000
0.438362 0.235844 0.010000
0.507500 0.235844 0.010000
0.576638 0.235844 0.010000
0.645054 0.235844 0.010000
0.712027 0.235844 0.010000
0.776836 0.235844 0.010000
0.838759 0.235844 0.010000
0.897075 0.235844 0.010000
0.951063 0.235844 0.010000
1.000000 0.235844 0.010000
0.015000 0.300850 0.010000
0.063937 0.300850 0.010000
0.117925 0.300850 0.010000
0.176241 0.300850 0.010000
0.238164 0.300850 0.010000
0.302973 0.300850 0.010000
0.369946 0.300850 0.010000
0.438362 0.300850 0.010000
0.507500 0.300850 0.010000
0.576638 0.300850 0.010000
0.645054 0.300850 0.010000
0.712027 0.300850 0.010000
0.776836 0.300850 0.010000
0.838759 0.300850 0.010000
0.897075 0.300850 0.010000
0.951063 0.300850 0.010000
1.000000 0.300850 0.010000
0.015000 0.368027 0.010000
0.063937 0.368027 0.010000
0.117925 0.368027 0.010000
0.176241 0.368027 0.010000
0.238164 0.368027 0.010000
0.302973 0.368027 0.010000
0.369946 0.368027 0.010000
0.438362 0.368027 0.010000
0.507500 0.368027 0.010000
0.576638 0.368027 0.010000
0.645054 0.368027 0.010000
0.712027 0.368027 0.010000
0.776836 0.368027 0.010000
0.838759 0.368027 0.010000
0.897075 0.368027 0.010000
0.951063 0.368027 0.010000
1.000000 0.368027 0.010000
0.015000 0.436652 0.010000
0.063937 0.436652 0.010000
0.117925 0.436652 0.010000
0.176241 0.436652 0.010000
0.238164 0.436652 0.010000
0.302973 0.436652 0.010000
0.369946 0.436652 0.010000
0.438362 0.436652 0.010000
0.507500 0.436652 0.010000
0.576638 0.436652 0.010000
0.645054 0.436652 0.010000
0.712027 0.436652 0.010000
0.776836 0.436652 0.010000
0.838759 0.436652 0.010000
0.897075 0.436652 0.010000
0.951063 0.436652 0.010000
1.000000 0.436652 0.010000
0.015000 0.506000 0.010000
0.063937 0.506000 0.010000
0.117925 0.506000 0.010000
0.176241 0.506000 0.010000
0.238164 0.506000 0.010000
0.302973 0.506000 0.010000
0.369946 0.506000 0.010000
0.438362 0.506000 0.010000
0.507500 0.506000 0.010000
0.576638 0.506000 0.010000
0.645054 0.506000 0.010000
0.712027 0.506000 0.010000
0.776836 0.506000 0.010000
0.838759 0.506000 0.010000
0.897075 0.506000 0.010000
0.951063 0.506000 0.010000
1.000000 0.506000 0.010000
0.015000 0.575348 0.010000
0.063937 0.575348 0.010000
0.117925 0.575348 0.010000
0.176241 0.575348 0.010000
0.238164 0.575348 0.010000
0.302973 0.575348 0.010000
0.369946 0.575348 0.010000
0.438362 0.575348 0.010000
0.507500 0.575348 0.010000
0.576638 0.575348 0.010000
0.645054 0.575348 0.010000
0.712027 0.575348 0.010000
0.776836 0.575348 0.010000
0.838759 0.575348 0.010000
0.897075 0.575348 0.010000
0.951063 0.575348 0.010000
1.000000 0.575348 0.010000
0.015000 0.643973 0.010000
0.063937 0.643973 0.010000
0.117925 0.643973 0.010000
0.176241 0.643973 0.010000
0.238164 0.643973 0.010000
0.302973 0.643973 0.010000
0.369946 0.643973 0.010000
0.438362 0.643973 0.010000
0.507500 0.643973 0.010000
0.576638 0.643973 0.010000
0.645054 0.643973 0.010000
0.712027 0.643973 0.010000
0.776836 0.643973 0.010000
0.838759 0.643973 0.010000
0.897075 0.643973 0.010000
0.951063 0.643973 0.010000
1.000000 0.643973 0.010000
0.015000 0.711150 0.010000
0.063937 0.711150 0.010000
0.117925 0.711150 0.010000
0.176241 0.711150 0.010000
0.238164 0.711150 0.010000
0.302973 0.711150 0.010000
0.369946 0.711150 0.010000
0.438362 0.711150 0.010000
0.507500 0.711150 0.010000
0.576638 0.711150 0.010000
0.645054 0.711150 0.010000
0.712027 0.711150 0.010000
0.776836 0.711150 0.010000
0.838759 0.711150 0.010000
0.897075 0.711150 0.010000
0.951063 0.711150 0.010000
1.000000 0.711150 0.010000
0.015000 0.776156 0.010000
0.063937 0.776156 0.010000
0.117925 0.776156 0.010000
0.176241 0.776156 0.010000
0.238164 0.776156 0.010000
0.302973 0.776156 0.010000
0.369946 0.776156 0.010000
0.438362 0.776156 0.010000
0.507500 0.776156 0.010000
0.576638 0.776156 0.010000
0.645054 0.776156 0.010000
0.712027 0.776156 0.010000
0.776836 0.776156 0.010000
0.838759 0.776156 0.010000
0.897075 0.776156 0.010000
0.951063 0.776156 0.010000
1.000000 0.776156 0.010000
0.015000 0.838268 0.010000
0.063937 0.838268 0.010000
0.117925 0.838268 0.010000
0.176241 0.838268 0.010000
0.238164 0.838268 0.010000
0.302973 0.838268 0.010000
0.369946 0.838268 0.010000
0.438362 0.838268 0.010000
0.507500 0.838268 0.010000
0.576638 0.838268 0.010000
0.645054 0.838268 0.010000
0.712027 0.838268 0.010000
0.776836 0.838268 0.010000
0.838759 0.838268 0.010000
0.897075 0.838268 0.010000
0.951063 0.838268 0.010000
1.000000 0.838268 0.010000
0.015000 0.896762 0.010000
0.063937 0.896762 0.010000
0.117925 0.896762 0.010000
0.176241 0.896762 0.010000
0.238164 0.896762 0.010000
0.302973 0.896762 0.010000
0.369946 0.896762 0.010000
0.438362 0.896762 0.010000
0.507500 0.896762 0.010000
0.576638 0.896762 0.010000
0.645054 0.896762 0.010000
0.712027 0.896762 0.010000
0.776836 0.896762 0.010000
0.838759 0.896762 0.010000
0.897075 0.896762 0.010000
0.951063 0.896762 0.010000
1.000000 0.896762 0.010000
0.015000 0.950914 0.010000
0.063937 0.950914 0.010000
0.117925 0.950914 0.010000
0.176241 0.950914 0.010000
0.238164 0.950914 0.010000
0.302973 0.950914 0.010000
0.369946 0.950914 0.010000
0.438362 0.950914 0.010000
0.507500 0.950914 0.010000
0.576638 0.950914 0.010000
0.645054 0.950914 0.010000
0.712027 0.950914 0.010000
0.776836 0.950914 0.010000
0.838759 0.950914 0.010000
0.897075 0.950914 0.010000
0.951063 0.950914 0.010000
1.000000 0.950914 0.010000
0.015000 1.000000 0.010000
0.063937 1.000000 0.010000
0.117925 1.000000 0.010000
0.176241 1.000000 0.010000
0.238164 1.000000 0.010000
0.302973 1.000000 0.010000
0.369946 1.000000 0.010000
0.438362 1.000000 0.010000
0.507500 1.000000 0.010000
0.576638 1.000000 0.010000
0.645054 1.000000 0.010000
0.712027 1.000000 0.010000
0.776836 1.000000 0.010000
0.838759 1.000000 0.010000
0.897075 1.000000 0.010000
0.951063 1.000000 0.010000
1.000000 1.000000 0.010000
0.015000 0.012000 0.055569
0.063937 0.012000 0.055569
0.117925 0.012000 0.055569
0.176241 0.012000 0.055569
0.238164 0.012000 0.055569
0.302973 0.012000 0.055569
0.369946 0.012000 0.055569
0.438362 0.012000 0.055569
0.507500 0.012000 0.055569
0.576638 0.012000 0.055569
0.645054 0.012000 0.055569
0.712027 0.012000 0.055569
0.776836 0.012000 0.055569
0.838759 0.012000 0.055569
0.897075 0.012000 0.055569
0.951063 0.012000 0.055569
1.000000 0.012000 0.055569
0.015000 0.061086 0.055569
0.063937 0.061086 0.055569
0.117925 0.061086 0.055569
0.176241 0.061086 0.055569
0.238164 0.061086 0.055569
0.302973 0.061086 0.055569
0.369946 0.061086 0.055569
0.438362 0.061086 0.055569
0.507500 0.061086 0.055569
0.576638 0.061086 0.055569
0.645054 0.061086 0.055569
0.712027 0.061086 0.055569
0.776836 0.061086 0.055569
0.838759 0.061086 0.055569
0.897075 0.061086 0.055569
0.951063 0.061086 0.055569
1.000000 0.061086 0.055569
0.015000 0.115238 0.055569
0.063937 0.115238 0.055569
0.117925 0.115238 0.055569
0.176241 0.115238 0.055569
0.238164 0.115238 0.055569
0.302973 0.115238 0.055569
0.369946 0.115238 0.055569
0.438362 0.115238 0.055569
0.507500 0.115238 0.055569
0.576638 0.115238 0.055569
0.645054 0.115238 0.055569
0.712027 0.115238 0.055569
0.776836 0.115238 0.055569
0.838759 0.115238 0.055569
0.897075 0.115238 0.055569
0.951063 0.115238 0.055569
1.000000 0.115238 0.055569
0.015000 0.173732 0.055569
0.063937 0.173732 0.055569
0.117925 0.173732 0.055569
0.176241 0.173732 0.055569
0.238164 0.173732 0.055569
0.302973 0.173732 0.055569
0.369946 0.173732 0.055569
0.438362 0.173732 0.055569
0.507500 0.173732 0.055569
0.576638 0.173732 0.055569
0.645054 0.173732 0.055569
0.712027 0.173732 0.055569
0.776836 0.173732 0.055569
0.838759 0.173732 0.055569
0.897075 0.173732 0.055569
0.951063 0.173732 0.055569
1.000000 0.173732 0.055569
0.015000 0.235844 0.055569
0.063937 0.235844 0.055569
0.117925 0.235844 0.055569
0.176241 0.235844 0.055569
0.238164 0.235844 0.055569
0.302973 0.235844 0.055569
0.369946 0.235844 0.055569
0.438362 0.235844 0.055569
0.507500 0.235844 0.055569
0.576638 0.235844 0.055569
0.645054 0.235844 0.055569
0.712027 0.235844 0.055569
0.776836 0.235844 0.055569
0.838759 0.235844 0.055569
0.897075 0.235844 0.055569
0.951063 0.235844 0.055569
1.000000 0.235844 0.055569
0.015000 0.300850 0.055569
0.063937 0.300850 0.055569
0.117925 0.300850 0.055569
0.176241 0.300850 0.055569
0.238164 0.300850 0.055569
0.302973 0.300850 0.055569
0.369946 0.300850 0.055569
0.438362 0.300850 0.055569
0.507500 0.300850 0.055569
0.576638 0.300850 0.055569
0.645054 0.300850 0.055569
0.712027 0.300850 0.055569
0.776836 0.300850 0.055569
0.838759 0.300850 0.055569
0.897075 0.300850 0.055569
0.951063 0.300850 0.055569
1.000000 0.300850 0.055569
0.015000 0.368027 0.055569
0.063937 0.368027 0.055569
0.117925 0.368027 0.055569
0.176241 0.368027 0.055569
0.238164 0.368027 0.055569
0.302973 0.368027 0.055569
0.369946 0.368027 0.055569
0.438362 0.368027 0.055569
0.507500 0.368027 0.055569
0.576638 0.368027 0.055569
0.645054 0.368027 0.055569
0.712027 0.368027 0.055569
0.776836 0.368027 0.055569
0.838759 0.368027 0.055569
0.897075 0.368027 0.055569
0.951063 0.368027 0.055569
1.000000 0.368027 0.055569
0.015000 0.436652 0.055569
0.063937 0.436652 0.055569
0.117925 0.436652 0.055569
0.176241 0.436652 0.055569
0.238164 0.436652 0.055569
0.302973 0.436652 0.055569
0.369946 0.436652 0.055569
0.438362 0.436652 0.055569
0.507500 0.436652 0.055569
0.576638 0.436652 0.055569
0.645054 0.436652 0.055569
0.712027 0.436652 0.055569
0.776836 0.436652 0.055569
0.838759 0.436652 0.055569
0.897075 0.436652 0.055569
0.951063 0.436652 0.055569
1.000000 0.436652 0.055569
0.015000 0.506000 0.055569
0.063937 0.506000 0.055569
0.117925 0.506000 0.055569
0.176241 0.506000 0.055569
0.238164 0.506000 0.055569
0.302973 0.506000 0.055569
0.369946 0.506000 0.055569
0.438362 0.506000 0.055569
0.507500 0.506000 0.055569
0.576638 0.506000 0.055569
0.645054 0.506000 0.055569
0.712027 0.506000 0.055569
0.776836 0.506000 0.055569
0.838759 0.506000 0.055569
0.897075 0.506000 0.055569
0.951063 0.506000 0.055569
1.000000 0.506000 0.055569
0.015000 0.575348 0.055569
0.063937 0.575348 0.055569
0.117925 0.575348 0.055569
0.176241 0.575348 0.055569
0.238164 0.575348 0.055569
0.302973 0.575348 0.055569
0.369946 0.575348 0.055569
0.438362 0.575348 0.055569
0.507500 0.575348 0.055569
0.576638 0.575348 0.055569
0.645054 0.575348 0.055569
0.712027 0.575348 0.055569
0.776836 0.575348 0.055569
0.838759 0.575348 0.055569
0.897075 0.575348 0.055569
0.951063 0.575348 0.055569
1.000000 0.575348 0.055569
0.015000 0.643973 0.055569
0.063937 0.643973 0.055569
0.117925 0.643973 0.055569
0.176241 0.643973 0.055569
0.238164 0.643973 0.055569
0.302973 0.643973 0.055569
0.369946 0.643973 0.055569
0.438362 0.643973 0.055569
0.507500 0.643973 0.055569
0.576638 0.643973 0.055569
0.645054 0.643973 0.055569
0.712027 0.643973 0.055569
0.776836 0.643973 0.055569
0.838759 0.643973 0.055569
0.897075 0.643973 0.055569
0.951063 0.643973 0.055569
1.000000 0.643973 0.055569
0.015000 0.711150 0.055569
0.063937 0.711150 0.055569
0.117925 0.711150 0.055569
0.176241 0.711150 0.055569
0.238164 0.711150 0.055569
0.302973 0.711150 0.055569
0.369946 0.711150 0.055569
0.438362 0.711150 0.055569
0.507500 0.711150 0.055569
0.576638 0.711150 0.055569
0.645054 0.711150 0.055569
0.712027 0.711150 0.055569
0.776836 0.711150 0.055569
0.838759 0.711150 0.055569
0.897075 0.711150 0.055569
0.951063 0.711150 0.055569
1.000000 0.711150 0.055569
0.015000 0.776156 0.055569
0.063937 0.776156 0.055569
0.117925 0.776156 0.055569
0.176241 0.776156 0.055569
0.238164 0.776156 0.055569
0.302973 0.776156 0.055569
0.369946 0.776156 0.055569
0.438362 0.776156 0.055569
0.507500 0.776156 0.055569
0.576638 0.776156 0.055569
0.645054 0.776156 0.055569
0.712027 0.776156 0.055569
0.776836 0.776156 0.055569
0.838759 0.776156 0.055569
0.897075 0.776156 0.055569
0.951063 0.776156 0.055569
1.000000 0.776156 0.055569
0.015000 0.838268 0.055569
0.063937 0.838268 0.055569
0.117925 0.838268 0.055569
0.176241 0.838268 0.055569
0.238164 0.838268 0.055569
0.302973 0.838268 0.055569
0.369946 0.838268 0.055569
0.438362 0.838268 0.055569
0.507500 0.838268 0.055569
0.576638 0.838268 0.055569
0.645054 0.838268 0.055569
0.712027 0.838268 0.055569
0.776836 0.838268 0.055569
0.838759 0.838268 0.055569
0.897075 0.838268 0.055569
0.951063 0.838268 0.055569
1.000000 0.838268 0.055569
0.015000 0.896762 0.055569
0.063937 0.896762 0.055569
0.117925 0.896762 0.055569
0.176241 0.896762 0.055569
0.238164 0.896762 0.055569
0.302973 0.896762 0.055569
0.369946 0.896762 0.055569
0.438362 0.896762 0.055569
0.507500 0.896762 0.055569
0.576638 0.896762 0.055569
0.645054 0.896762 0.055569
0.712027 0.896762 0.055569
0.776836 0.896762 0.055569
0.838759 0.896762 0.055569
0.897075 0.896762 0.055569
0.951063 0.896762 0.055569
1.000000 0.896762 0.055569
0.015000 0.950914 0.055569
0.063937 0.950914 0.055569
0.117925 0.950914 0.055569
0.176241 0.950914 0.055569
0.238164 0.950914 0.055569
0.302973 0.950914 0.055569
0.369946 0.950914 0.055569
0.438362 0.950914 0.055569
0.507500 0.950914 0.055569
0.576638 0.950914 0.055569
0.645054 0.950914 0.055569
0.712027 0.950914 0.055569
0.776836 0.950914 0.055569
0.838759 0.950914 0.055569
0.897075 0.950914 0.055569
0.951063 0.950914 0.055569
1.000000 0.950914 0.055569
0.015000 1.000000 0.055569
0.063937 1.000000 0.055569
0.117925 1.000000 0.055569
0.176241 1.000000 0.055569
0.238164 1.000000 0.055569
0.302973 1.000000 0.055569
0.369946 1.000000 0.055569
0.438362 1.000000 0.055569
0.507500 1.000000 0.055569
0.576638 1.000000 0.055569
0.645054 1.000000 0.055569
0.712027 1.000000 0.055569
0.776836 1.000000 0.055569
0.838759 1.000000 0.055569
0.897075 1.000000 0.055569
0.951063 1.000000 0.055569
1.000000 1.000000 0.055569
0.015000 0.012000 0.105572
0.063937 0.012000 0.105572
0.117925 0.012000 0.105572
0.176241 0.012000 0.105572
0.238164 0.012000 0.105572
0.302973 0.012000 0.105572
0.369946 0.012000 0.105572
0.438362 0.012000 0.105572
0.507500 0.012000 0.105572
0.576638 0.012000 0.105572
0.645054 0.012000 0.105572
0.712027 0.012000 0.105572
0.776836 0.012000 0.105572
0.838759 0.012000 0.105572
0.897075 0.012000 0.105572
0.951063 0.012000 0.105572
1.000000 0.012000 0.105572
0.015000 0.061086 0.105572
0.063937 0.061086 0.105572
0.117925 0.061086 0.105572
0.176241 0.061086 0.105572
0.238164 0.061086 0.105572
0.302973 0.061086 0.105572
0.369946 0.061086 0.105572
0.438362 0.061086 0.105572
0.507500 0.061086 0.105572
0.576638 0.061086 0.105572
0.645054 0.061086 0.105572
0.712027 0.061086 0.105572
0.776836 0.061086 0.105572
0.838759 0.061086 0.105572
0.897075 0.061086 0.105572
0.951063 0.061086 0.105572
1.000000 0.061086 0.105572
0.015000 0.115238 0.105572
0.063937 0.115238 0.105572
0.117925 0.115238 0.105572
0.176241 0.115238 0.105572
0.238164 0.115238 0.105572
0.302973 0.115238 0.105572
0.369946 0.115238 0.105572
0.438362 0.115238 0.105572
0.507500 0.115238 0.105572
0.576638 0.115238 0.105572
0.645054 0.115238 0.105572
0.712027 0.115238 0.105572
0.776836 0.115238 0.105572
0.838759 0.115238 0.105572
0.897075 0.115238 0.105572
0.951063 0.115238 0.105572
1.000000 0.115238 0.105572
0.015000 0.173732 0.105572
0.063937 0.173732 0.105572
0.117925 0.173732 0.105572
0.176241 0.173732 0.105572
0.238164 0.173732 0.105572
0.302973 0.173732 0.105572
0.369946 0.173732 0.105572
0.438362 0.173732 0.105572
0.507500 0.173732 0.105572
0.576638 0.173732 0.105572
0.645054 0.173732 0.105572
0.712027 0.173732 0.105572
0.776836 0.173732 0.105572
0.838759 0.173732 0.105572
0.897075 0.173732 0.105572
0.951063 0.173732 0.105572
1.000000 0.173732 0.105572
0.015000 0.235844 0.105572
0.063937 0.235844 0.105572
0.117925 0.235844 0.105572
0.176241 0.235844 0.105572
0.238164 0.235844 0.105572
0.302973 0.235844 0.105572
0.369946 0.235844 0.105572
0.438362 0.235844 0.105572
0.507500 0.235844 0.105572
0.576638 0.235844 0.105572
0.645054 0.235844 0.105572
0.712027 0.235844 0.105572
0.776836 0.235844 0.105572
0.838759 0.235844 0.105572
0.897075 0.235844 0.105572
0.951063 0.235844 0.105572
1.000000 0.235844 0.105572
0.015000 0.300850 0.105572
0.063937 0.300850 0.105572
0.117925 0.300850 0.105572
0.176241 0.300850 0.105572
0.238164 0.300850 0.105572
0.302973 0.300850 0.105572
0.369946 0.300850 0.105572
0.438362 0.300850 0.105572
0.507500 0.300850 0.105572
0.576638 0.300850 0.105572
0.645054 0.300850 0.105572
0.712027 0.300850 0.105572
0.776836 0.300850 0.105572
0.838759 0.300850 0.105572
0.897075 0.300850 0.105572
0.951063 0.300850 0.105572
1.000000 0.300850 0.105572
0.015000 0.368027 0.105572
0.063937 0.368027 0.105572
0.117925 0.368027 0.105572
0.176241 0.368027 0.105572
0.238164 0.368027 0.105572
0.302973 0.368027 0.105572
0.369946 0.368027 0.105572
0.438362 0.368027 0.105572
0.507500 0.368027 0.105572
0.576638 0.368027 0.105572
0.645054 0.368027 0.105572
0.712027 0.368027 0.105572
0.776836 0.368027 0.105572
0.838759 0.368027 0.105572
0.897075 0.368027 0.105572
0.951063 0.368027 0.105572
1.000000 0.368027 0.105572
0.015000 0.436652 0.105572
0.063937 0.436652 0.105572
0.117925 0.436652 0.105572
0.176241 0.436652 0.105572
0.238164 0.436652 0.105572
0.302973 0.436652 0.105572
0.369946 0.436652 0.105572
0.438362 0.436652 0.105572
0.507500 0.436652 0.105572
0.576638 0.436652 0.105572
0.645054 0.436652 0.105572
0.712027 0.436652 0.105572
0.776836 0.436652 0.105572
0.838759 0.436652 0.105572
0.897075 0.436652 0.105572
0.951063 0.436652 0.105572
1.000000 0.436652 0.105572
0.015000 0.506000 0.105572
0.063937 0.506000 0.105572
0.117925 0.506000 0.105572
0.176241 0.506000 0.105572
0.238164 0.506000 0.105572
0.302973 0.506000 0.105572
0.369946 0.506000 0.105572
0.438362 0.506000 0.105572
0.507500 0.506000 0.105572
0.576638 0.506000 0.105572
0.645054 0.506000 0.105572
0.712027 0.506000 0.105572
0.776836 0.506000 0.105572
0.838759 0.506000 0.105572
0.897075 0.506000 0.105572
0.951063 0.506000 0.105572
1.000000 0.506000 0.105572
0.015000 0.575348 0.105572
0.063937 0.575348 0.105572
0.117925 0.575348 0.105572
0.176241 0.575348 0.105572
0.238164 0.575348 0.105572
0.302973 0.575348 0.105572
0.369946 0.575348 0.105572
0.438362 0.575348 0.105572
0.507500 0.575348 0.105572
0.576638 0.575348 0.105572
0.645054 0.575348 0.105572
0.712027 0.575348 0.105572
0.776836 0.575348 0.105572
0.838759 0.575348 0.105572
0.897075 0.575348 0.105572
0.951063 0.575348 0.105572
1.000000 0.575348 0.105572
0.015000 0.643973 0.105572
0.063937 0.643973 0.105572
0.117925 0.643973 0.105572
0.176241 0.643973 0.105572
0.238164 0.643973 0.105572
0.302973 0.643973 0.105572
0.369946 0.643973 0.105572
0.438362 0.643973 0.105572
0.507500 0.643973 0.105572
0.576638 0.643973 0.105572
0.645054 0.643973 0.105572
0.712027 0.643973 0.105572
0.776836 0.643973 0.105572
0.838759 0.643973 0.105572
0.897075 0.643973 0.105572
0.951063 0.643973 0.105572
1.000000 0.643973 0.105572
0.015000 0.711150 0.105572
0.063937 0.711150 0.105572
0.117925 0.711150 0.105572
0.176241 0.711150 0.105572
0.238164 0.711150 0.105572
0.302973 0.711150 0.105572
0.369946 0.711150 0.105572
0.438362 0.711150 0.105572
0.507500 0.711150 0.105572
0.576638 0.711150 0.105572
0.645054 0.711150 0.105572
0.712027 0.711150 0.105572
0.776836 0.711150 0.105572
0.838759 0.711150 0.105572
0.897075 0.711150 0.105572
0.951063 0.711150 0.105572
1.000000 0.711150 0.105572
0.015000 0.776156 0.105572
0.063937 0.776156 0.105572
0.117925 0.776156 0.105572
0.176241 0.776156 0.105572
0.238164 0.776156 0.105572
0.302973 0.776156 0.105572
0.369946 0.776156 0.105572
0.438362 0.776156 0.105572
0.507500 0.776156 0.105572
0.576638 0.776156 0.105572
0.645054 0.776156 0.105572
0.712027 0.776156 0.105572
0.776836 0.776156 0.105572
0.838759 0.776156 0.105572
0.897075 0.776156 0.105572
0.951063 0.776156 0.105572
1.000000 0.776156 0.105572
0.015000 0.838268 0.105572
0.063937 0.838268 0.105572
0.117925 0.838268 0.105572
0.176241 0.838268 0.105572
0.238164 0.838268 0.105572
0.302973 0.838268 0.105572
0.369946 0.838268 0.105572
0.438362 0.838268 0.105572
0.507500 0.838268 0.105572
0.576638 0.838268 0.105572
0.645054 0.838268 0.105572
0.712027 0.838268 0.105572
0.776836 0.838268 0.105572
0.838759 0.838268 0.105572
0.897075 0.838268 0.105572
0.951063 0.838268 0.105572
1.000000 0.838268 0.105572
0.015000 0.896762 0.105572
0.063937 0.896762 0.105572
0.117925 0.896762 0.105572
0.176241 0.896762 0.105572
0.238164 0.896762 0.105572
0.302973 0.896762 0.105572
0.369946 0.896762 0.105572
0.438362 0.896762 0.105572
0.507500 0.896762 0.105572
0.576638 0.896762 0.105572
0.645054 0.896762 0.105572
0.712027 0.896762 0.105572
0.776836 0.896762 0.105572
0.838759 0.896762 0.105572
0.897075 0.896762 0.105572
0.951063 0.896762 0.105572
1.000000 0.896762 0.105572
0.015000 0.950914 0.105572
0.063937 0.950914 0.105572
0.117925 0.950914 0.105572
0.176241 0.950914 0.105572
0.238164 0.950914 0.105572
0.302973 0.950914 0.105572
0.369946 0.950914 0.105572
0.438362 0.950914 0.105572
0.507500 0.950914 0.105572
0.576638 0.950914 0.105572
0.645054 0.950914 0.105572
0.712027 0.950914 0.105572
0.776836 0.950914 0.105572
0.838759 0.950914 0.105572
0.897075 0.950914 0.105572
0.951063 0.950914 0.105572
1.000000 0.950914 0.105572
0.015000 1.000000 0.105572
0.063937 1.000000 0.105572
0.117925 1.000000 0.105572
0.176241 1.000000 0.105572
0.238164 1.000000 0.105572
0.302973 1.000000 0.105572
0.369946 1.000000 0.105572
0.438362 1.000000 0.105572
0.507500 1.000000 0.105572
0.576638 1.000000 0.105572
0.645054 1.000000 0.105572
0.712027 1.000000 0.105572
0.776836 1.000000 0.105572
0.838759 1.000000 0.105572
0.897075 1.000000 0.105572
0.951063 1.000000 0.105572
1.000000 1.000000 0.105572
0.015000 0.012000 0.159426
0.063937 0.012000 0.159426
0.117925 0.012000 0.159426
0.176241 0.012000 0.159426
0.238164 0.012000 0.159426
0.302973 0.012000 0.159426
0.369946 0.012000 0.159426
0.438362 0.012000 0.159426
0.507500 0.012000 0.159426
0.576638 0.012000 0.159426
0.645054 0.012000 0.159426
0.712027 0.012000 0.159426
0.776836 0.012000 0.159426
0.838759 0.012000 0.159426
0.897075 0.012000 0.159426
0.951063 0.012000 0.159426
1.000000 0.012000 0.159426
0.015000 0.061086 0.159426
0.063937 0.061086 0.159426
