src/nazca/luts/warm-editorial.cube
# nazca bundled look — CC0
TITLE "warm-editorial"
LUT_3D_SIZE 5
0.015000 0.012000 0.010000
0.238164 0.012000 0.010000
0.507500 0.012000 0.010000
0.776836 0.012000 0.010000
1.000000 0.012000 0.010000
0.015000 0.235844 0.010000
0.238164 0.235844 0.010000
0.507500 0.235844 0.010000
0.776836 0.235844 0.010000
1.000000 0.235844 0.010000
0.015000 0.506000 0.010000
0.238164 0.506000 0.010000
0.507500 0.506000 0.010000
0.776836 0.506000 0.010000
1.000000 0.506000 0.010000
0.015000 0.776156 0.010000
0.238164 0.776156 0.010000
0.507500 0.776156 0.010000
0.776836 0.776156 0.010000
1.000000 0.776156 0.010000
0.015000 1.000000 0.010000
0.238164 1.000000 0.010000
0.507500 1.000000 0.010000
0.776836 1.000000 0.010000
1.000000 1.000000 0.010000
0.015000 0.012000 0.216547
0.238164 0.012000 0.216547
0.507500 0.012000 0.216547
0.776836 0.012000 0.216547
1.000000 0.012000 0.216547
0.015000 0.235844 0.216547
0.238164 0.235844 0.216547
0.507500 0.235844 0.216547
0.776836 0.235844 0.216547
1.000000 0.235844 0.216547
0.015000 0.506000 0.216547
0.238164 0.506000 0.216547
0.507500 0.506000 0.216547
0.776836 0.506000 0.216547
1.000000 0.506000 0.216547
0.015000 0.776156 0.216547
0.238164 0.776156 0.216547
0.507500 0.776156 0.216547
0.776836 0.776156 0.216547
1.000000 0.776156 0.216547
0.015000 1.000000 0.216547
0.238164 1.000000 0.216547
0.507500 1.000000 0.216547
0.776836 1.000000 0.216547
1.000000 1.000000 0.216547
0.015000 0.012000 0.466040
0.238164 0.012000 0.466040
0.507500 0.012000 0.466040
0.776836 0.012000 0.466040
1.000000 0.012000 0.466040
0.015000 0.235844 0.466040
0.238164 0.235844 0.466040
0.507500 0.235844 0.466040
0.776836 0.235844 0.466040
1.000000 0.235844 0.466040
0.015000 0.506000 0.466040
0.238164 0.506000 0.466040
0.507500 0.506000 0.466040
0.776836 0.506000 0.466040
1.000000 0.506000 0.466040
0.015000 0.776156 0.466040
0.238164 0.776156 0.466040
0.507500 0.776156 0.466040
0.776836 0.776156 0.466040
1.000000 0.776156 0.466040
0.015000 1.000000 0.466040
0.238164 1.000000 0.466040
0.507500 1.000000 0.466040
0.776836 1.000000 0.466040
1.000000 1.000000 0.466040
0.015000 0.012000 0.721152
0.238164 0.012000 0.721152
0.507500 0.012000 0.721152
0.776836 0.012000 0.721152
1.000000 0.012000 0.721152
0.015000 0.235844 0.721152
0.238164 0.235844 0.721152
0.507500 0.235844 0.721152
0.776836 0.235844 0.721152
1.000000 0.235844 0.721152
0.015000 0.506000 0.721152
0.238164 0.506000 0.721152
0.507500 0.506000 0.721152
0.776836 0.506000 0.721152
1.000000 0.506000 0.721152
0.015000 0.776156 0.721152
0.238164 0.776156 0.721152
0.507500 0.776156 0.721152
0.776836 0.776156 0.721152
1.000000 0.776156 0.721152
0.015000 1.000000 0.721152
0.238164 1.000000 0.721152
0.507500 1.000000 0.721152
0.776836 1.000000 0.721152
1.000000 1.000000 0.721152
0.015000 0.012000 0.944557
0.238164 0.012000 0.944557
0.507500 0.012000 0.944557
0.776836 0.012000 0.944557
1.000000 0.012000 0.944557
0.015000 0.235844 0.944557
0.238164 0.235844 0.944557
0.507500 0.235844 0.944557
0.776836 0.235844 0.944557
1.000000 0.235844 0.944557
0.015000 0.506000 0.944557
0.238164 0.506000 0.944557
0.507500 0.506000 0.944557
0.776836 0.506000 0.944557
1.000000 0.506000 0.944557
0.015000 0.776156 0.944557
0.238164 0.776156 0.944557
0.507500 0.776156 0.944557
0.776836 0.776156 0.944557
1.000000 0.776156 0.944557
0.015000 1.000000 0.944557
0.238164 1.000000 0.944557
0.507500 1.000000 0.944557
0.776836 1.000000 0.944557
1.000000 1.000000 0.944557
