src/nazca/luts/warm-editorial.cube
# nazca bundled look — CC0
TITLE "warm-editorial"
LUT_3D_SIZE 9
0.015000 0.012000 0.010000
0.117925 0.012000 0.010000
0.238164 0.012000 0.010000
0.369946 0.012000 0.010000
0.507500 0.012000 0.010000
0.645054 0.012000 0.010000
0.776836 0.012000 0.010000
0.897075 0.012000 0.010000
1.000000 0.012000 0.010000
0.015000 0.115238 0.010000
0.117925 0.115238 0.010000
0.238164 0.115238 0.010000
0.369946 0.115238 0.010000
0.507500 0.115238 0.010000
0.645054 0.115238 0.010000
0.776836 0.115238 0.010000
0.897075 0.115238 0.010000
1.000000 0.115238 0.010000
0.015000 0.235844 0.010000
0.117925 0.235844 0.010000
0.238164 0.235844 0.010000
0.369946 0.235844 0.010000
0.507500 0.235844 0.010000
0.645054 0.235844 0.010000
0.776836 0.235844 0.010000
0.897075 0.235844 0.010000
1.000000 0.235844 0.010000
0.015000 0.368027 0.010000
0.117925 0.368027 0.010000
0.238164 0.368027 0.010000
0.369946 0.368027 0.010000
0.507500 0.368027 0.010000
0.645054 0.368027 0.010000
0.776836 0.368027 0.010000
0.897075 0.368027 0.010000
1.000000 0.368027 0.010000
0.015000 0.506000 0.010000
0.117925 0.506000 0.010000
0.238164 0.506000 0.010000
0.369946 0.506000 0.010000
0.507500 0.506000 0.010000
0.645054 0.506000 0.010000
0.776836 0.506000 0.010000
0.897075 0.506000 0.010000
1.000000 0.506000 0.010000
0.015000 0.643973 0.010000
0.117925 0.643973 0.010000
0.238164 0.643973 0.010000
0.369946 0.643973 0.010000
0.507500 0.643973 0.010000
0.645054 0.643973 0.010000
0.776836 0.643973 0.010000
0.897075 0.643973 0.010000
1.000000 0.643973 0.010000
0.015000 0.776156 0.010000
0.117925 0.776156 0.010000
0.238164 0.776156 0.010000
0.369946 0.776156 0.010000
0.507500 0.776156 0.010000
0.645054 0.776156 0.010000
0.776836 0.776156 0.010000
0.897075 0.776156 0.010000
1.000000 0.776156 0.010000
0.015000 0.896762 0.010000
0.117925 0.896762 0.010000
0.238164 0.896762 0.010000
0.369946 0.896762 0.010000
0.507500 0.896762 0.010000
0.645054 0.896762 0.010000
0.776836 0.896762 0.010000
0.897075 0.896762 0.010000
1.000000 0.896762 0.010000
0.015000 1.000000 0.010000
0.117925 1.000000 0.010000
0.238164 1.000000 0.010000
0.369946 1.000000 0.010000
0.507500 1.000000 0.010000
0.645054 1.000000 0.010000
0.776836 1.000000 0.010000
0.897075 1.000000 0.010000
1.000000 1.000000 0.010000
0.015000 0.012000 0.105572
0.117925 0.012000 0.105572
0.238164 0.012000 0.105572
0.369946 0.012000 0.105572
0.507500 0.012000 0.105572
0.645054 0.012000 0.105572
0.776836 0.012000 0.105572
0.897075 0.012000 0.105572
1.000000 0.012000 0.105572
0.015000 0.115238 0.105572
0.117925 0.115238 0.105572
0.238164 0.115238 0.105572
0.369946 0.115238 0.105572
0.507500 0.115238 0.105572
0.645054 0.115238 0.105572
0.776836 0.115238 0.105572
0.897075 0.115238 0.105572
1.000000 0.115238 0.105572
0.015000 0.235844 0.105572
0.117925 0.235844 0.105572
0.238164 0.235844 0.105572
0.369946 0.235844 0.105572
0.507500 0.235844 0.105572
0.645054 0.235844 0.105572
0.776836 0.235844 0.105572
0.897075 0.235844 0.105572
1.000000 0.235844 0.105572
0.015000 0.368027 0.105572
0.117925 0.368027 0.105572
0.238164 0.368027 0.105572
0.369946 0.368027 0.105572
0.507500 0.368027 0.105572
0.645054 0.368027 0.105572
0.776836 0.368027 0.105572
0.897075 0.368027 0.105572
1.000000 0.368027 0.105572
0.015000 0.506000 0.105572
0.117925 0.506000 0.105572
0.238164 0.506000 0.105572
0.369946 0.506000 0.105572
0.507500 0.506000 0.105572
0.645054 0.506000 0.105572
0.776836 0.506000 0.105572
0.897075 0.506000 0.105572
1.000000 0.506000 0.105572
0.015000 0.643973 0.105572
0.117925 0.643973 0.105572
0.238164 0.643973 0.105572
0.369946 0.643973 0.105572
0.507500 0.643973 0.105572
0.645054 0.643973 0.105572
0.776836 0.643973 0.105572
0.897075 0.643973 0.105572
1.000000 0.643973 0.105572
0.015000 0.776156 0.105572
0.117925 0.776156 0.105572
0.238164 0.776156 0.105572
0.369946 0.776156 0.105572
0.507500 0.776156 0.105572
0.645054 0.776156 0.105572
0.776836 0.776156 0.105572
0.897075 0.776156 0.105572
1.000000 0.776156 0.105572
0.015000 0.896762 0.105572
0.117925 0.896762 0.105572
0.238164 0.896762 0.105572
0.369946 0.896762 0.105572
0.507500 0.896762 0.105572
0.645054 0.896762 0.105572
0.776836 0.896762 0.105572
0.897075 0.896762 0.105572
1.000000 0.896762 0.105572
0.015000 1.000000 0.105572
0.117925 1.000000 0.105572
0.238164 1.000000 0.105572
0.369946 1.000000 0.105572
0.507500 1.000000 0.105572
0.645054 1.000000 0.105572
0.776836 1.000000 0.105572
0.897075 1.000000 0.105572
1.000000 1.000000 0.105572
0.015000 0.012000 0.216547
0.117925 0.012000 0.216547
0.238164 0.012000 0.216547
0.369946 0.012000 0.216547
0.507500 0.012000 0.216547
0.645054 0.012000 0.216547
0.776836 0.012000 0.216547
0.897075 0.012000 0.216547
1.000000 0.012000 0.216547
0.015000 0.115238 0.216547
0.117925 0.115238 0.216547
0.238164 0.115238 0.216547
0.369946 0.115238 0.216547
0.507500 0.115238 0.216547
0.645054 0.115238 0.216547
0.776836 0.115238 0.216547
0.897075 0.115238 0.216547
1.000000 0.115238 0.216547
0.015000 0.235844 0.216547
0.117925 0.235844 0.216547
0.238164 0.235844 0.216547
0.369946 0.235844 0.216547
0.507500 0.235844 0.216547
0.645054 0.235844 0.216547
0.776836 0.235844 0.216547
0.897075 0.235844 0.216547
1.000000 0.235844 0.216547
0.015000 0.368027 0.216547
0.117925 0.368027 0.216547
0.238164 0.368027 0.216547
0.369946 0.368027 0.216547
0.507500 0.368027 0.216547
0.645054 0.368027 0.216547
0.776836 0.368027 0.216547
0.897075 0.368027 0.216547
1.000000 0.368027 0.216547
0.015000 0.506000 0.216547
0.117925 0.506000 0.216547
0.238164 0.506000 0.216547
0.369946 0.506000 0.216547
0.507500 0.506000 0.216547
0.645054 0.506000 0.216547
0.776836 0.506000 0.216547
0.897075 0.506000 0.216547
1.000000 0.506000 0.216547
0.015000 0.643973 0.216547
0.117925 0.643973 0.216547
0.238164 0.643973 0.216547
0.369946 0.643973 0.216547
0.507500 0.643973 0.216547
0.645054 0.643973 0.216547
0.776836 0.643973 0.216547
0.897075 0.643973 0.216547
1.000000 0.643973 0.216547
0.015000 0.776156 0.216547
0.117925 0.776156 0.216547
0.238164 0.776156 0.216547
0.369946 0.776156 0.216547
0.507500 0.776156 0.216547
0.645054 0.776156 0.216547
0.776836 0.776156 0.216547
0.897075 0.776156 0.216547
1.000000 0.776156 0.216547
0.015000 0.896762 0.216547
0.117925 0.896762 0.216547
0.238164 0.896762 0.216547
0.369946 0.896762 0.216547
0.507500 0.896762 0.216547
0.645054 0.896762 0.216547
0.776836 0.896762 0.216547
0.897075 0.896762 0.216547
1.000000 0.896762 0.216547
0.015000 1.000000 0.216547
0.117925 1.000000 0.216547
0.238164 1.000000 0.216547
0.369946 1.000000 0.216547
0.507500 1.000000 0.216547
0.645054 1.000000 0.216547
0.776836 1.000000 0.216547
0.897075 1.000000 0.216547
1.000000 1.000000 0.216547
0.015000 0.012000 0.338258
0.117925 0.012000 0.338258
0.238164 0.012000 0.338258
0.369946 0.012000 0.338258
0.507500 0.012000 0.338258
0.645054 0.012000 0.338258
0.776836 0.012000 0.338258
0.897075 0.012000 0.338258
1.000000 0.012000 0.338258
0.015000 0.115238 0.338258
0.117925 0.115238 0.338258
0.238164 0.115238 0.338258
0.369946 0.115238 0.338258
0.507500 0.115238 0.338258
0.645054 0.115238 0.338258
0.776836 0.115238 0.338258
0.897075 0.115238 0.338258
1.000000 0.115238 0.338258
0.015000 0.235844 0.338258
0.117925 0.235844 0.338258
0.238164 0.235844 0.338258
0.369946 0.235844 0.338258
0.507500 0.235844 0.338258
0.645054 0.235844 0.338258
0.776836 0.235844 0.338258
0.897075 0.235844 0.338258
1.000000 0.235844 0.338258
0.015000 0.368027 0.338258
0.117925 0.368027 0.338258
0.238164 0.368027 0.338258
0.369946 0.368027 0.338258
0.507500 0.368027 0.338258
0.645054 0.368027 0.338258
0.776836 0.368027 0.338258
0.897075 0.368027 0.338258
1.000000 0.368027 0.338258
0.015000 0.506000 0.338258
0.117925 0.506000 0.338258
0.238164 0.506000 0.338258
0.369946 0.506000 0.338258
0.507500 0.506000 0.338258
0.645054 0.506000 0.338258
0.776836 0.506000 0.338258
0.897075 0.506000 0.338258
1.000000 0.506000 0.338258
0.015000 0.643973 0.338258
0.117925 0.643973 0.338258
0.238164 0.643973 0.338258
0.369946 0.643973 0.338258
0.507500 0.643973 0.338258
0.645054 0.643973 0.338258
0.776836 0.643973 0.338258
0.897075 0.643973 0.338258
1.000000 0.643973 0.338258
0.015000 0.776156 0.338258
0.117925 0.776156 0.338258
0.238164 0.776156 0.338258
0.369946 0.776156 0.338258
0.507500 0.776156 0.338258
0.645054 0.776156 0.338258
0.776836 0.776156 0.338258
0.897075 0.776156 0.338258
1.000000 0.776156 0.338258
0.015000 0.896762 0.338258
0.117925 0.896762 0.338258
0.238164 0.896762 0.338258
0.369946 0.896762 0.338258
0.507500 0.896762 0.338258
0.645054 0.896762 0.338258
0.776836 0.896762 0.338258
0.897075 0.896762 0.338258
1.000000 0.896762 0.338258
0.015000 1.000000 0.338258
0.117925 1.000000 0.338258
0.238164 1.000000 0.338258
0.369946 1.000000 0.338258
0.507500 1.000000 0.338258
0.645054 1.000000 0.338258
0.776836 1.000000 0.338258
0.897075 1.000000 0.338258
1.000000 1.000000 0.338258
0.015000 0.012000 0.466040
0.117925 0.012000 0.466040
0.238164 0.012000 0.466040
0.369946 0.012000 0.466040
0.507500 0.012000 0.466040
0.645054 0.012000 0.466040
0.776836 0.012000 0.466040
0.897075 0.012000 0.466040
1.000000 0.012000 0.466040
0.015000 0.115238 0.466040
0.117925 0.115238 0.466040
0.238164 0.115238 0.466040
0.369946 0.115238 0.466040
0.507500 0.115238 0.466040
0.645054 0.115238 0.466040
0.776836 0.115238 0.466040
0.897075 0.115238 0.466040
1.000000 0.115238 0.466040
0.015000 0.235844 0.466040
0.117925 0.235844 0.466040
0.238164 0.235844 0.466040
0.369946 0.235844 0.466040
0.507500 0.235844 0.466040
0.645054 0.235844 0.466040
0.776836 0.235844 0.466040
0.897075 0.235844 0.466040
1.000000 0.235844 0.466040
0.015000 0.368027 0.466040
0.117925 0.368027 0.466040
0.238164 0.368027 0.466040
0.369946 0.368027 0.466040
0.507500 0.368027 0.466040
0.645054 0.368027 0.466040
0.776836 0.368027 0.466040
0.897075 0.368027 0.466040
1.000000 0.368027 0.466040
0.015000 0.506000 0.466040
0.117925 0.506000 0.466040
0.238164 0.506000 0.466040
0.369946 0.506000 0.466040
0.507500 0.506000 0.466040
0.645054 0.506000 0.466040
0.776836 0.506000 0.466040
0.897075 0.506000 0.466040
1.000000 0.506000 0.466040
0.015000 0.643973 0.466040
0.117925 0.643973 0.466040
0.238164 0.643973 0.466040
0.369946 0.643973 0.466040
0.507500 0.643973 0.466040
0.645054 0.643973 0.466040
0.776836 0.643973 0.466040
0.897075 0.643973 0.466040
1.000000 0.643973 0.466040
0.015000 0.776156 0.466040
0.117925 0.776156 0.466040
0.238164 0.776156 0.466040
0.369946 0.776156 0.466040
0.507500 0.776156 0.466040
0.645054 0.776156 0.466040
0.776836 0.776156 0.466040
0.897075 0.776156 0.466040
1.000000 0.776156 0.466040
0.015000 0.896762 0.466040
0.117925 0.896762 0.466040
0.238164 0.896762 0.466040
0.369946 0.896762 0.466040
0.507500 0.896762 0.466040
0.645054 0.896762 0.466040
0.776836 0.896762 0.466040
0.897075 0.896762 0.466040
1.000000 0.896762 0.466040
0.015000 1.000000 0.466040
0.117925 1.000000 0.466040
0.238164 1.000000 0.466040
0.369946 1.000000 0.466040
0.507500 1.000000 0.466040
0.645054 1.000000 0.466040
0.776836 1.000000 0.466040
0.897075 1.000000 0.466040
1.000000 1.000000 0.466040
0.015000 0.012000 0.595227
0.117925 0.012000 0.595227
0.238164 0.012000 0.595227
0.369946 0.012000 0.595227
0.507500 0.012000 0.595227
0.645054 0.012000 0.595227
0.776836 0.012000 0.595227
0.897075 0.012000 0.595227
1.000000 0.012000 0.595227
0.015000 0.115238 0.595227
0.117925 0.115238 0.595227
0.238164 0.115238 0.595227
0.369946 0.115238 0.595227
0.507500 0.115238 0.595227
0.645054 0.115238 0.595227
0.776836 0.115238 0.595227
0.897075 0.115238 0.595227
1.000000 0.115238 0.595227
0.015000 0.235844 0.595227
0.117925 0.235844 0.595227
0.238164 0.235844 0.595227
0.369946 0.235844 0.595227
0.507500 0.235844 0.595227
0.645054 0.235844 0.595227
0.776836 0.235844 0.595227
0.897075 0.235844 0.595227
1.000000 0.235844 0.595227
0.015000 0.368027 0.595227
0.117925 0.368027 0.595227
0.238164 0.368027 0.595227
0.369946 0.368027 0.595227
0.507500 0.368027 0.595227
0.645054 0.368027 0.595227
0.776836 0.368027 0.595227
0.897075 0.368027 0.595227
1.000000 0.368027 0.595227
0.015000 0.506000 0.595227
0.117925 0.506000 0.595227
0.238164 0.506000 0.595227
0.369946 0.506000 0.595227
0.507500 0.506000 0.595227
0.645054 0.506000 0.595227
0.776836 0.506000 0.595227
0.897075 0.506000 0.595227
1.000000 0.506000 0.595227
0.015000 0.643973 0.595227
0.117925 0.643973 0.595227
0.238164 0.643973 0.595227
0.369946 0.643973 0.595227
0.507500 0.643973 0.595227
0.645054 0.643973 0.595227
0.776836 0.643973 0.595227
0.897075 0.643973 0.595227
1.000000 0.643973 0.595227
0.015000 0.776156 0.595227
0.117925 0.776156 0.595227
0.238164 0.776156 0.595227
0.369946 0.776156 0.595227
0.507500 0.776156 0.595227
0.645054 0.776156 0.595227
0.776836 0.776156 0.595227
0.897075 0.776156 0.595227
1.000000 0.776156 0.595227
0.015000 0.896762 0.595227
0.117925 0.896762 0.595227
0.238164 0.896762 0.595227
0.369946 0.896762 0.595227
0.507500 0.896762 0.595227
0.645054 0.896762 0.595227
0.776836 0.896762 0.595227
0.897075 0.896762 0.595227
1.000000 0.896762 0.595227
0.015000 1.000000 0.595227
0.117925 1.000000 0.595227
0.238164 1.000000 0.595227
0.369946 1.000000 0.595227
0.507500 1.000000 0.595227
0.645054 1.000000 0.595227
0.776836 1.000000 0.595227
0.897075 1.000000 0.595227
1.000000 1.000000 0.595227
0.015000 0.012000 0.721152
0.117925 0.012000 0.721152
0.238164 0.012000 0.721152
0.369946 0.012000 0.721152
0.507500 0.012000 0.721152
0.645054 0.012000 0.721152
0.776836 0.012000 0.721152
0.897075 0.012000 0.721152
1.000000 0.012000 0.721152
0.015000 0.115238 0.721152
0.117925 0.115238 0.721152
0.238164 0.115238 0.721152
0.369946 0.115238 0.721152
0.507500 0.115238 0.721152
0.645054 0.115238 0.721152
0.776836 0.115238 0.721152
0.897075 0.115238 0.721152
1.000000 0.115238 0.721152
0.015000 0.235844 0.721152
0.117925 0.235844 0.721152
0.238164 0.235844 0.721152
0.369946 0.235844 0.721152
0.507500 0.235844 0.721152
0.645054 0.235844 0.721152
0.776836 0.235844 0.721152
0.897075 0.235844 0.721152
1.000000 0.235844 0.721152
0.015000 0.368027 0.721152
0.117925 0.368027 0.721152
0.238164 0.368027 0.721152
0.369946 0.368027 0.721152
0.507500 0.368027 0.721152
0.645054 0.368027 0.721152
0.776836 0.368027 0.721152
0.897075 0.368027 0.721152
1.000000 0.368027 0.721152
0.015000 0.506000 0.721152
0.117925 0.506000 0.721152
0.238164 0.506000 0.721152
0.369946 0.506000 0.721152
0.507500 0.506000 0.721152
0.645054 0.506000 0.721152
0.776836 0.506000 0.721152
0.897075 0.506000 0.721152
1.000000 0.506000 0.721152
0.015000 0.643973 0.721152
0.117925 0.643973 0.721152
0.238164 0.643973 0.721152
0.369946 0.643973 0.721152
0.507500 0.643973 0.721152
0.645054 0.643973 0.721152
0.776836 0.643973 0.721152
0.897075 0.643973 0.721152
1.000000 0.643973 0.721152
0.015000 0.776156 0.721152
0.117925 0.776156 0.721152
0.238164 0.776156 0.721152
0.369946 0.776156 0.721152
0.507500 0.776156 0.721152
0.645054 0.776156 0.721152
0.776836 0.776156 0.721152
0.897075 0.776156 0.721152
1.000000 0.776156 0.721152
0.015000 0.896762 0.721152
0.117925 0.896762 0.721152
0.238164 0.896762 0.721152
0.369946 0.896762 0.721152
0.507500 0.896762 0.721152
0.645054 0.896762 0.721152
0.776836 0.896762 0.721152
0.897075 0.896762 0.721152
1.000000 0.896762 0.721152
0.015000 1.000000 0.721152
0.117925 1.000000 0.721152
0.238164 1.000000 0.721152
0.369946 1.000000 0.721152
0.507500 1.000000 0.721152
0.645054 1.000000 0.721152
0.776836 1.000000 0.721152
0.897075 1.000000 0.721152
1.000000 1.000000 0.721152
0.015000 0.012000 0.839151
0.117925 0.012000 0.839151
0.238164 0.012000 0.839151
0.369946 0.012000 0.839151
0.507500 0.012000 0.839151
0.645054 0.012000 0.839151
0.776836 0.012000 0.839151
0.897075 0.012000 0.839151
1.000000 0.012000 0.839151
0.015000 0.115238 0.839151
0.117925 0.115238 0.839151
0.238164 0.115238 0.839151
0.369946 0.115238 0.839151
0.507500 0.115238 0.839151
0.645054 0.115238 0.839151
0.776836 0.115238 0.839151
0.897075 0.115238 0.839151
1.000000 0.115238 0.839151
0.015000 0.235844 0.839151
0.117925 0.235844 0.839151
0.238164 0.235844 0.839151
0.369946 0.235844 0.839151
0.507500 0.235844 0.839151
0.645054 0.235844 0.839151
0.776836 0.235844 0.839151
0.897075 0.235844 0.839151
1.000000 0.235844 0.839151
0.015000 0.368027 0.839151
0.117925 0.368027 0.839151
0.238164 0.368027 0.839151
0.369946 0.368027 0.839151
0.507500 0.368027 0.839151
0.645054 0.368027 0.839151
0.776836 0.368027 0.839151
0.897075 0.368027 0.839151
1.000000 0.368027 0.839151
0.015000 0.506000 0.839151
0.117925 0.506000 0.839151
0.238164 0.506000 0.839151
0.369946 0.506000 0.839151
0.507500 0.506000 0.839151
0.645054 0.506000 0.839151
0.776836 0.506000 0.839151
0.897075 0.506000 0.839151
1.000000 0.506000 0.839151
0.015000 0.643973 0.839151
0.117925 0.643973 0.839151
0.238164 0.643973 0.839151
0.369946 0.643973 0.839151
0.507500 0.643973 0.839151
0.645054 0.643973 0.839151
0.776836 0.643973 0.839151
0.897075 0.643973 0.839151
1.000000 0.643973 0.839151
0.015000 0.776156 0.839151
0.117925 0.776156 0.839151
0.238164 0.776156 0.839151
0.369946 0.776156 0.839151
0.507500 0.776156 0.839151
0.645054 0.776156 0.839151
0.776836 0.776156 0.839151
0.897075 0.776156 0.839151
1.000000 0.776156 0.839151
0.015000 0.896762 0.839151
0.117925 0.896762 0.839151
0.238164 0.896762 0.839151
0.369946 0.896762 0.839151
0.507500 0.896762 0.839151
0.645054 0.896762 0.839151
0.776836 0.896762 0.839151
0.897075 0.896762 0.839151
1.000000 0.896762 0.839151
0.015000 1.000000 0.839151
0.117925 1.000000 0.839151
0.238164 1.000000 0.839151
0.369946 1.000000 0.839151
0.507500 1.000000 0.839151
0.645054 1.000000 0.839151
0.776836 1.000000 0.839151
0.897075 1.000000 0.839151
1.000000 1.000000 0.839151
0.015000 0.012000 0.944557
0.117925 0.012000 0.944557
0.238164 0.012000 0.944557
0.369946 0.012000 0.944557
0.507500 0.012000 0.944557
0.645054 0.012000 0.944557
0.776836 0.012000 0.944557
0.897075 0.012000 0.944557
1.000000 0.012000 0.944557
0.015000 0.115238 0.944557
0.117925 0.115238 0.944557
0.238164 0.115238 0.944557
0.369946 0.115238 0.944557
0.507500 0.115238 0.944557
0.645054 0.115238 0.944557
0.776836 0.115238 0.944557
0.897075 0.115238 0.944557
1.000000 0.115238 0.944557
0.015000 0.235844 0.944557
0.117925 0.235844 0.944557
0.238164 0.235844 0.944557
0.369946 0.235844 0.944557
0.507500 0.235844 0.944557
0.645054 0.235844 0.944557
0.776836 0.235844 0.944557
0.897075 0.235844 0.944557
1.000000 0.235844 0.944557
0.015000 0.368027 0.944557
0.117925 0.368027 0.944557
0.238164 0.368027 0.944557
0.369946 0.368027 0.944557
0.507500 0.368027 0.944557
0.645054 0.368027 0.944557
0.776836 0.368027 0.944557
0.897075 0.368027 0.944557
1.000000 0.368027 0.944557
0.015000 0.506000 0.944557
0.117925 0.506000 0.944557
0.238164 0.506000 0.944557
0.369946 0.506000 0.944557
0.507500 0.506000 0.944557
0.645054 0.506000 0.944557
0.776836 0.506000 0.944557
0.897075 0.506000 0.944557
1.000000 0.506000 0.944557
0.015000 0.643973 0.944557
0.117925 0.643973 0.944557
0.238164 0.643973 0.944557
0.369946 0.643973 0.944557
0.507500 0.643973 0.944557
0.645054 0.643973 0.944557
0.776836 0.643973 0.944557
0.897075 0.643973 0.944557
1.000000 0.643973 0.944557
0.015000 0.776156 0.944557
0.117925 0.776156 0.944557
0.238164 0.776156 0.944557
0.369946 0.776156 0.944557
0.507500 0.776156 0.944557
0.645054 0.776156 0.944557
0.776836 0.776156 0.944557
0.897075 0.776156 0.944557
1.000000 0.776156 0.944557
0.015000 0.896762 0.944557
0.117925 0.896762 0.944557
0.238164 0.896762 0.944557
0.369946 0.896762 0.944557
0.507500 0.896762 0.944557
0.645054 0.896762 0.944557
0.776836 0.896762 0.944557
0.897075 0.896762 0.944557
1.000000 0.896762 0.944557
0.015000 1.000000 0.944557
0.117925 1.000000 0.944557
0.238164 1.000000 0.944557
0.369946 1.000000 0.944557
0.507500 1.000000 0.944557
0.645054 1.000000 0.944557
0.776836 1.000000 0.944557
0.897075 1.000000 0.944557
1.000000 1.000000 0.944557
